/* XPM */
/*
  XPenguins theme "Vaporwave" -- sprites generated procedurally.
  Released into the public domain (CC0).
*/
static char * action3_bird_xpm[] = {
"240 30 7 1",
" 	c None",
".	c #45356B",
"+	c #FFB7CA",
"@	c #241B2F",
"#	c #E8D9FF",
"$	c #FF7A9E",
"%	c #CE4A76",
"                                                                                                                                                                          ...                          ...                            ...       ",
"                     ...                                                                                                                     ...                         .+++.                        .+++.                          .+++.      ",
"                    .+++.                           ...                            ...                          ...                         .+++.                       .++@++...                    .++@++...                      .++@++...   ",
"                   .++@++...                       .+++.                          .+++.                        .+++.                       .++@++...                    .+++++###.                   .+++++###.                     .+++++###.  ",
"                   .+++++###.                     .++@++...                      .++@++...                    .++@++...                    .+++++###.                   .$+++.##@@.                  .$+++.##@@.                    .$+++.##@@. ",
"                   .$+++.##@@.                    .+++++###.                     .+++++###                    .+++++###.                   .$+++.##@@.                  .$+.. ..@@.                  .$+.. ..@@.                    .$+.. ..@@. ",
"                   .$+.. ..@@.                    .$+++.##@@                     .$+++.##@                    .$+++.##@@                   .$+.. ..@@.                  .$+.    ..                   .$+.    ..                     .$+.    ..  ",
"                   .$+.    ..                     .$+.. ..@@                     .$+.. ..@                    .$+.. ..@@                   .$+.    ..                   .+.                          .+.                            .+.         ",
"                   .+.                            .$+.    ..                    .$+.    ..                    .$+.    ..                   .+.                         .$+.                          .$+.                          .$+.         ",
"                  .$+.                            .+.                           .+.                           .+.                         .$+.                        .$.+.                         .$.+.                         .$.+.         ",
"         .........$.+.                  ..........$+.                 ..........$+.                 ..........$+.                .........$.+.                .........$+.                  .........$+.                  .........$+.          ",
"        .+++++++++$+.                  .+++++++++$.+.                .+++++++++$.+.                .+++++++++$.+.               .+++++++++$+.                .++++++++++.                  .++++++++++.                  .++++++++++.           ",
"        .$$$$$$$$$$.                   .$$$$$$$$$$+.                 .$$$$$$$$$$+.                 .$$$$$$$$$$+.                .$$$$$$$$$$.                 .$$$$$$$$$$.                  .$$$$$$$$$$.                  .$$$$$$$$$$.           ",
"       .$$$++++++$$$.                 .$$$++++++$$$.                .$$$++++++$$$.                .$$$++++++$$$.               .$$$++++++$$$.               .$$$++++++$$$.                .$$$++++++$$$.                .$$$++++++$$$.          ",
"      .$$$++++++++$$$.              .$$$++++++++$$$.               .$$$++++++++$$$.             .$$$++++++++$$$.              .$$$++++++++$$$.              .$$$++++++++$$$.             .$$$++++++++$$$.               .$$$++++++++$$$.        ",
"     .$$%++++++++++$$.             .$$%++++++++++$$.              .$$%++++++++++$$.            .$$%++++++++++$$.             .$$%++++++++++$$.             .$$%++++++++++$$.            .$$%++++++++++$$.              .$$%++++++++++$$.        ",
"      .%$$++++%%%%$$$.              .%$$++++%%%%$$$.               .%$$++++%%%%$$$.             .%$$++++%%%%$$$.              .%$$++++%%%%$$$.              .%$$++++%%%%$$$.             .%$$++++%%%%$$$.               .%$$++++%%%%$$$.        ",
"       .$$%%%%+++$$$.                .$$%%%%+++$$$.                 .$$%%%%+++$$$.               .$$%%%%+++$$$.                .$$%%%%+++$$$.                .$$%%%%+++$$$.               .$$%%%%+++$$$.                 .$$%%%%+++$$$.         ",
"        .$$$$$$$$$$.                  .$$$$$$$$$$.                   .$$$$$$$$$$.                 .$$$$$$$$$$.                  .$$$$$$$$$$.                  .$$$$$$$$$$.                 .$$$$$$$$$$.                   .$$$$$$$$$$.          ",
"       .%%%%%%%%%%%%.                .%%%%%%%%%%%%.                 .%%%%%%%%%%%%.               .%%%%%%%%%%%%.                .%%%%%%%%%%%%.                .%%%%%%%%%%%%.               .%%%%%%%%%%%%.                 .%%%%%%%%%%%%.         ",
"        ....%...%...                  ....%...%...                   ....%...%...                 ....%...%...                  ....%...%...                  ....%....%..                 ....%....%..                   ....%....%..          ",
"           .%. .%.                       .%. .%.                       .%. .%.                       .%. .%.                       .%. .%.                       .%.  .%.                      .%.  .%.                      .%.  .%.           ",
"          .%. .%.                       .%. .%.                       .%. .%.                       .%. .%.                       .%. .%.                       .%.  .%.                      .%.  .%.                      .%.  .%.            ",
"          .%. .$.                       .%. .$.                       .%. .$.                       .%. .$.                       .%. .$.                       .%.  .%.                      .%.  .%.                      .%.  .%.            ",
"          .$.  .                        .$.  .                        .$.  .                        .$.  .                        .$.  .                        .$.  .$.                      .$.  .$.                      .$.  .$.            ",
"          .%.                           .%.                           .%.                           .%.                           .%.                           .%.  .%.                      .%.  .%.                      .%.  .%.            ",
"           .%.                           .%.                           .%.                           .%.                           .%.                           .%.  .%.                      .%.  .%.                      .%.  .%.           ",
"           .%.                           .%.                           .%.                           .%.                           .%.                           .%.  .%.                      .%.  .%.                      .%.  .%.           ",
"          .$$$.                         .$$$.                         .$$$.                         .$$$.                         .$$$.                         .$$$..$$$.                    .$$$..$$$.                    .$$$..$$$.          ",
"           ...                           ...                           ...                           ...                           ...                           ...  ...                      ...  ...                      ...  ...           "};
