/* XPM */
/*
  XPenguins theme "Vaporwave" -- sprites generated procedurally.
  Released into the public domain (CC0).
*/
static char * action3_palm_xpm[] = {
"240 30 10 1",
" 	c None",
".	c #45356B",
"+	c #96FFD0",
"@	c #05FFA1",
"#	c #00A678",
"$	c #5C3780",
"%	c #925CC4",
"&	c #FFC25E",
"*	c #FFFB96",
"=	c #241B2F",
"      .++++@#++#+++#@++.              .++++++.+++++@++.              .+++++..+.+++++++.           .++++++.+++++@++.           .++++@#++#+++#@++.           .+@+@##+#.@@#@@+.           .+@@+#@#+#++@@#+.               .+@+@##+#.@@#@@+.        ",
"      .@#@##@#@#+@#@@#@.             .+@#+##@.+@@@@@#@+.             .+.+##+.++.+####@+.         .+@#+##@.+@@@@@#@+.          .@#@##@#@#+@#@@#@.           .@#@###@#++@#@@@.           .@@#@##@@@@@@##@.               .@#@###@#++@#@@@.        ",
"      ..@#@###@#@#@##@..             .@.#@#@#.@+#@@#@.@.             .@#@#@#.@@+@#@@@#@.         .@.#@#@#.@+#@@#@.@.          ..@#@###@#@#@##@..           .########@@#####.            .#.#.####.@##.##.              .########@@#####.        ",
"     .@@#@###@@.@@#@@##@.             .######.#@@##.#@.#.            .@#@###.@@@#####@..          .######.#@@##.#@.#.        .@@#@###@@.@@#@@##@.         .@@@@..#@#@##@..@.           .@.@@..@@#@#.@.@@.             .@@@@..#@#@##@..@.        ",
"      .#.#..###@@#.#..#.             .@#@@.###@##.#@@#@@.           .@#@#.@@#@@#@.@@.##@.        .@#@@.###@##.#@@#@@.         .#.#..###@@#.#..#.          .##.#. .#@@@.##.##.          .#.##. .####.#.##.             .##.#. .#@@@.##.##.       ",
"     .@#.#. .####. .#..#.            .#..#..@.#@. .##.#.#.           .#.#.##@#@@#.#...#.         .#..#..@.#@. .##.#.#.       .@#.#. .####. .#..#.        .@@@@.  .@###.@@.@@.         .@#@#. .@#@#..@#.@@.           .@@@@.  .@###.@@.@@.       ",
"    .@#.@#.  .###. .@. .@.          .@@.@. .####.  .@..@@.          .#.@#..#####. .@#..#.       .@@.@. .####.  .@..@@.      .@#.@#.  .###. .@. .@.        .#.#.  .####..#..#.          ....   ..###... ..             .#.#.  .####..#..#.       ",
"     .#..#. .#####..#. .#.           .#.#. .#####. .#. .#.         .@#.@#..#####.  .@. .@.       .#.#. .#####. .#. .#.       .#..#. .#####..#. .#.       .#.@#.  .#####.#..@#.        .#.@#. .@#####@#..#.           .#.@#.  .#####.#..@#.      ",
"    .@..@.  .$###$..@. .@.          .#..#.  .###%$..@#..@#.       .#..#.  .###%$. .#. .#.       .#..#.  .###%$..@#..@#.     .@..@.  .$###$..@. .@.      .@#.@#. .@####..@. .@.        .@#.@.  .@####..@..@.         .@#.@#. .@####..@. .@.      ",
"    .@..@.  .$@#$$. .@. .@.        .@#.@#. ..$#%$$. .@. .@.      .@@.@@. ..$#%$$. .@. .@@.     .@#.@#. ..$#%$$. .@. .@.     .@..@.  .$@#$$. .@. .@.      .. ..  .$$%#$....  .         .#..#.  .$#%#$..#. .#.         .. ..  .$$%#$....  .       ",
"    .#..#. .&$#%%$*..#. .#.         .. .. .&.$%%%*.  .   ..       .#..#..&.$#%%*.  .#. .#.      .. .. .&.$%%%*.  .   ..     .#..#. .&$#%%$*..#. .#.     .@#.@.  .&#%%$.*@#..@.        .@..@.  .&%%%$.*@..@.         .@#.@.  .&#%%$.*@#..@.      ",
"    .@..@.  .&@%%$. .@. .@.        .@..@#. .&$@%%$. .@. .@#.     .@#.@#. .&$@%%$. .@#. .@.     .@..@#. .&$@%%$. .@. .@#.    .@..@.  .&@%%$. .@. .@.      .. .   .$&%%$....  .          .  .   .$&%%$...  .           .. .   .$&%%$....  .       ",
"     .  .   .$$%$$.  .   .          .  ..   .$$%$$.  .   ..       .. ..   .$$%$$.  ..   .       .  ..   .$$%$$.  .   ..      .  .   .$$%$$.  .   .              .$$%$$.                       .$$%$$.                       .$$%$$.             ",
"            .$%%%$.                         .$%%%$.                       .$%%%$.                       .$%%%$.                     .$%%%$.                     .$%%%$.                       .$%%%$.                       .$%%%$.             ",
"            .$%%%$.                       .$%%%$.                         .$%%%$.                     .$%%%$.                       .$%%%$.                       .$%%%$.                     .$%%%$.                         .$%%%$.           ",
"            .$$%$$.                       .$$%$$.                         .$$%$$.                     .$$%$$.                       .$$%$$.                       .$$%$$.                     .$$%$$.                         .$$%$$.           ",
"            .$%%%$.                       .$%%%$.                         .$%%%$.                     .$%%%$.                       .$%%%$.                       .$%%%$.                     .$%%%$.                         .$%%%$.           ",
"            .$%%%$.                       .$%%%$.                        .$%%%$.                      .$%%%$.                       .$%%%$.                       .$%%%$.                      .$%%%$.                        .$%%%$.           ",
"            .$$%$$.                       .$$%$$.                        .$$%$$.                      .$$%$$.                       .$$%$$.                       .$$%$$.                      .$$%$$.                        .$$%$$.           ",
"            .$%%%$.                       .$%%%$.                        .$%%%$.                      .$%%%$.                       .$%%%$.                       .$%%%$.                      .$%%%$.                        .$%%%$.           ",
"            .$%%%$.                       .$%%%$.                        .$%%%$.                      .$%%%$.                       .$%%%$.                       .$%%%$.                      .$%%%$.                        .$%%%$.           ",
"            .$$%$$.                       .$$%$$.                       .$$%$$.                       .$$%$$.                       .$$%$$.                       .$$%$$.                       .$$%$$.                       .$$%$$.           ",
"           .%%..%%.                      .%%..%%.                      .%%..%%.                      .%%..%%.                      .%%..%%.                      .%%..%%.                      .%%..%%.                      .%%..%%.           ",
"           .%%..%%.                      .%%..%%.                      .%%..%%.                      .%%..%%.                      .%%..%%.                      .%%..%%.                      .%%..%%.                      .%%..%%.           ",
"           .%%..%%.                      .%%..%%.                      .%%..%%.                      .%%..%%.                      .%%..%%.                      .%%..%%.                      .%%..%%.                      .%%..%%.           ",
"           .%%..%%.                      .%%..%%.                      .%%..%%.                      .%%..%%.                      .%%..%%.                      .%%..%%.                      .%%..%%.                      .%%..%%.           ",
"           .%%..%%.                      .%%..%%.                      .%%..%%.                      .%%..%%.                      .%%..%%.                      .%%..%%.                      .%%..%%.                      .%%..%%.           ",
"          .$$$$$$$$.                    .$$$$$$$$.                    .$$$$$$$$.                    .$$$$$$$$.                    .$$$$$$$$.                    .$$$$$$$$.                    .$$$$$$$$.                    .$$$$$$$$.          ",
"          .========.                    .========.                    .========.                    .========.                    .========.                    .========.                    .========.                    .========.          ",
"           ........                      ........                      ........                      ........                      ........                      ........                      ........                      ........           "};
