/* XPM */
/*
  XPenguins theme "Vaporwave" -- sprites generated procedurally.
  Released into the public domain (CC0).
*/
static char * action0_tape_xpm[] = {
"240 30 11 1",
" 	c None",
".	c #241B2F",
"+	c #FF9EDE",
"@	c #FF71CE",
"#	c #01CDFE",
"$	c #C7B3E8",
"%	c #E8D9FF",
"&	c #9D86C4",
"*	c #6F5A94",
"=	c #2B1B3D",
"-	c #B967FF",
"                                                                                                                                                                                                                                                ",
"                                                                                                                                                                                                                                                ",
"                                                                                                                                                                                                                                                ",
"                                                                                                                                                                                                                                                ",
"                                                                                                                                                                                                                                                ",
"      ..................            ..................            ..................                                                                        ..................            ..................            ..................      ",
"     .++++++++++++++++++.          .++++++++++++++++++.          .++++++++++++++++++.           ..................            ..................           .++++++++++++++++++.          .++++++++++++++++++.          .++++++++++++++++++.     ",
"    .@##$$$$$$$$$$$$$$$$@.        .@##$$$$$$$$$$$$$$$$@.        .@##$$$$$$$$$$$$$$$$@.         .++++++++++++++++++.          .++++++++++++++++++.         .@##$$$$$$$$$$$$$$$$@.        .@##$$$$$$$$$$$$$$$$@.        .@##$$$$$$$$$$$$$$$$@.    ",
"    .@##%%%%%%%%%%%%%%%%@.        .@##%%%%%%%%%%%%%%%%@.        .@##%%%%%%%%%%%%%%%%@.        .@##$$$$$$$$$$$$$$$$@.        .@##$$$$$$$$$$$$$$$$@.        .@##%%%%%%%%%%%%%%%%@.        .@##%%%%%%%%%%%%%%%%@.        .@##%%%%%%%%%%%%%%%%@.    ",
"    .@%%&&&&&&&&&&&&&%%%@.        .@%%&&&&&&&&&&&&&%%%@.        .@%%&&&&&&&&&&&&&%%%@.        .@##%%%%%%%%%%%%%%%%@.        .@##%%%%%%%%%%%%%%%%@.        .@%%&&&&&&&&&&&&&%%%@.        .@%%&&&&&&&&&&&&&%%%@.        .@%%&&&&&&&&&&&&&%%%@.    ",
"    .@%%&&&&&&&&&%%%%%%%@.        .@%%&&&&&&&&&%%%%%%%@.        .@%%&&&&&&&&&%%%%%%%@.        .@%%&&&&&&&&&&&&&%%%@.        .@%%&&&&&&&&&&&&&%%%@.        .@%%&&&&&&&&&%%%%%%%@.        .@%%&&&&&&&&&%%%%%%%@.        .@%%&&&&&&&&&%%%%%%%@.    ",
"    .@%%%%%%%%%%%%%%%%%%@.        .@%%%%%%%%%%%%%%%%%%@.        .@%%%%%%%%%%%%%%%%%%@.        .@%%&&&&&&&&&%%%%%%%@.        .@%%&&&&&&&&&%%%%%%%@.        .@%%%%%%%%%%%%%%%%%%@.        .@%%%%%%%%%%%%%%%%%%@.        .@%%%%%%%%%%%%%%%%%%@.    ",
"& * .@@@@@@@@@@@@@@@@@@@@.    & * .@@@@@@@@@@@@@@@@@@@@.    & * .@@@@@@@@@@@@@@@@@@@@.        .@%%%%%%%%%%%%%%%%%%@.        .@%%%%%%%%%%%%%%%%%%@.    & * .@@@@@@@@@@@@@@@@@@@@.    & * .@@@@@@@@@@@@@@@@@@@@.    & * .@@@@@@@@@@@@@@@@@@@@.    ",
" * *.@.....$......$.....@.     * *.@.....$......$.....@.     * *.@.....$......$.....@.    & * .@@@@@@@@@@@@@@@@@@@@.    & * .@@@@@@@@@@@@@@@@@@@@.     * *.@.....$......$.....@.     * *.@.....$......$.....@.     * *.@.....$......$.....@.    ",
"  * .@.====$$=**==$$===.@.      * .@.====$$=**==$$===.@.      * .@.====$$=**==$$===.@.     * *.@.....$......$.....@.     * *.@.....$......$.....@.      * .@.====$$=**==$$===.@.      * .@.====$$=**==$$===.@.      * .@.====$$=**==$$===.@.    ",
"    .@.==$$#$=**$$#$===.@.        .@.==$$#$=**$$#$===.@.        .@.==$$#$=**$$#$===.@.      * .@.====$$=**==$$===.@.      * .@.====$$=**==$$===.@.        .@.==$$#$=**$$#$===.@.        .@.==$$#$=**$$#$===.@.        .@.==$$#$=**$$#$===.@.    ",
"    .@.====$$=**==$$===.@.        .@.====$$=**==$$===.@.        .@.====$$=**==$$===.@.        .@.==$$#$=**$$#$===.@.        .@.==$$#$=**$$#$===.@.        .@.====$$=**==$$===.@.        .@.====$$=**==$$===.@.        .@.====$$=**==$$===.@.    ",
"    .@.....$......$.....@.        .@.....$......$.....@.        .@.....$......$.....@.        .@.====$$=**==$$===.@.        .@.====$$=**==$$===.@.        .@.....$......$.....@.        .@.....$......$.....@.        .@.....$......$.....@.    ",
"     .---..---..----..--.          .---..---..----..--.          .---..---..----..--.         .@.....$......$.....@.        .@.....$......$.....@.         .---..---..----..--.          .---..---..----..--.          .---..---..----..--.     ",
"      ..................            ..................            ..................           .---..---..----..--.          .---..---..----..--.           ..................            ..................            ..................      ",
"           --    --                      --    --                      --    --                 ..................            ..................                 --    --                      --    --                      --    --           ",
"           --    --                      --    --                      --    --                      --    --                      --    --                      --    --                      --    --                      --    --           ",
"           --    --                      --    --                      --    --                      --    --                      --    --                      --    --                      --    --                      --    --           ",
"           --    --                      --    --                      --    --                      --    --                      --    --                      --    --                      --    --                      --    --           ",
"           --    --                      --    --                      --    --                      --    --                      --    --                      --    --                      --    --                      --    --           ",
"           --    --                      --    --                      --    --                      --    --                      --    --                      --    --                      --    --                      --    --           ",
"           --    --                      --    --                      --    --                      --    --                      --    --                      --    --                      --    --                      --    --           ",
"          ++++  ++++                    ++++  ++++                    ++++  ++++                    ++++  ++++                    ++++  ++++                    ++++  ++++                    ++++  ++++                    ++++  ++++          ",
"          ....  ....                    ....  ....                    ....  ....                    ....  ....                    ....  ....                    ....  ....                    ....  ....                    ....  ....          ",
"                                                                                                                                                                                                                                                "};
