/* XPM */
/*
  XPenguins theme "Vaporwave" -- sprites generated procedurally.
  Released into the public domain (CC0).
*/
static char * action0_car_xpm[] = {
"240 30 14 1",
" 	c None",
".	c #45356B",
"+	c #FF8D8A",
"@	c #FE4450",
"#	c #7BF1E8",
"$	c #A8213E",
"%	c #01CDFE",
"&	c #FF71CE",
"*	c #FF9EDE",
"=	c #FFFB96",
"-	c #241B2F",
";	c #1C1526",
">	c #9D86C4",
",	c #E8D9FF",
"                                                                                                                                                                                                                                                ",
"                                                                                                                                                                                                                                                ",
"                                                                                                                                                                                                                                                ",
"                                                                                                                                                                                                                                                ",
"                                                                                                                                                                                                                                                ",
"                                                                                                                                                                                                                                                ",
"                                                                                                                                                                                                                                                ",
"                                                                                                                                                                                                                                                ",
"                                                                                                                                                                                                                                                ",
"                                                                                                                                                                                                                                                ",
"                                                                                                                                                                                                                                                ",
"                                                                                                                                                                                                                                                ",
"           ......                        ......                        ......                                                                                    ......                        ......                        ......             ",
"          .++++++.                      .++++++.                      .++++++.                       ......                        ......                       .++++++.                      .++++++.                      .++++++.            ",
"  ....   .@######@.             ....   .@######@.             ....   .@######@.                     .++++++.                      .++++++.              ....   .@######@.             ....   .@######@.             ....   .@######@.           ",
" .$$$$...%@%%%%%%%%.           .$$$$...%@%%%%%%%%.           .$$$$...%@%%%%%%%%.            ....   .@######@.             ....   .@######@.            .$$$$...%@%%%%%%%%.           .$$$$...%@%%%%%%%%.           .$$$$...%@%%%%%%%%.          ",
"  ...@@@@@@@@@@@@@%%..          ...@@@@@@@@@@@@@%%..          ...@@@@@@@@@@@@@%%..         .$$$$...%@%%%%%%%%.           .$$$$...%@%%%%%%%%.            ...@@@@@@@@@@@@@%%..          ...@@@@@@@@@@@@@%%..          ...@@@@@@@@@@@@@%%..        ",
"  .@@@@@@@@@@@@@@@@%%@...       .@@@@@@@@@@@@@@@@%%@...       .@@@@@@@@@@@@@@@@%%@...       ...@@@@@@@@@@@@@%%..          ...@@@@@@@@@@@@@%%..          .@@@@@@@@@@@@@@@@%%@...       .@@@@@@@@@@@@@@@@%%@...       .@@@@@@@@@@@@@@@@%%@...     ",
" .&&@@@@@@@@@@@@@@@@@@@@@....  .&&@@@@@@@@@@@@@@@@@@@@@....  .&&@@@@@@@@@@@@@@@@@@@@@....   .@@@@@@@@@@@@@@@@%%@...       .@@@@@@@@@@@@@@@@%%@...      .&&@@@@@@@@@@@@@@@@@@@@@....  .&&@@@@@@@@@@@@@@@@@@@@@....  .&&@@@@@@@@@@@@@@@@@@@@@.... ",
" .*@@@@@@@@@@@@@@@@@++++++===. .*@@@@@@@@@@@@@@@@@++++++===. .*@@@@@@@@@@@@@@@@@++++++===. .&&@@@@@@@@@@@@@@@@@@@@@....  .&&@@@@@@@@@@@@@@@@@@@@@....  .*@@@@@@@@@@@@@@@@@++++++===. .*@@@@@@@@@@@@@@@@@++++++===. .*@@@@@@@@@@@@@@@@@++++++===.",
" .@@@=====================@@@. .@@@=====================@@@. .@@@=====================@@@. .*@@@@@@@@@@@@@@@@@++++++===. .*@@@@@@@@@@@@@@@@@++++++===. .@@@=====================@@@. .@@@=====================@@@. .@@@=====================@@@.",
" .@@@@@@@@@@@@@@@@@@@@@@@@@@@. .@@@@@@@@@@@@@@@@@@@@@@@@@@@. .@@@@@@@@@@@@@@@@@@@@@@@@@@@. .@@@=====================@@@. .@@@=====================@@@. .@@@@@@@@@@@@@@@@@@@@@@@@@@@. .@@@@@@@@@@@@@@@@@@@@@@@@@@@. .@@@@@@@@@@@@@@@@@@@@@@@@@@@.",
"  .$$$-----$$$$$$$$$-----$$$.   .$$$-----$$$$$$$$$-----$$$.   .$$$-----$$$$$$$$$-----$$$.  .@@@@-----@@@@@@@@@-----@@@@. .@@@@-----@@@@@@@@@-----@@@@.  .$$$-----$$$$$$$$$-----$$$.   .$$$-----$$$$$$$$$-----$$$.   .$$$-----$$$$$$$$$-----$$$. ",
"   ..--;;;--.......--;;;--..     ..--;;;--.......--;;;--..     ..--;;;--.......--;;;--..    .$$--;;;--$$$$$$$--;;;--$$.   .$$--;;;--$$$$$$$--;;;--$$.    ..--;;;--.......--;;;--..     ..--;;;--.......--;;;--..     ..--;;;--.......--;;;--..  ",
"    .-;;;;;-.     .-;;;;;-.       .-;;;;;-.     .-;;;;;-.       .-;;;;;-.     .-;;;;;-.      ..-;;;;;-.......-;;;;;-..     ..-;;;;;-.......-;;;;;-..      .-;;;;;-.     .-;;;;;-.       .-;;;;;-.     .-;;;;;-.       .-;;;;;-.     .-;;;;;-.   ",
"    .->>,>>-.     .->>,>>-.       .->>,>>-.     .->>,>>-.       .->>,>>-.     .->>,>>-.       .->>,>>-.     .->>,>>-.       .->>,>>-.     .->>,>>-.       .->>,>>-.     .->>,>>-.       .->>,>>-.     .->>,>>-.       .->>,>>-.     .->>,>>-.   ",
"    .-;;;;;-.     .-;;;;;-.       .-;;;;;-.     .-;;;;;-.       .-;;;;;-.     .-;;;;;-.       .-;;;;;-.     .-;;;;;-.       .-;;;;;-.     .-;;;;;-.       .-;;;;;-.     .-;;;;;-.       .-;;;;;-.     .-;;;;;-.       .-;;;;;-.     .-;;;;;-.   ",
"    .--;;;--.     .--;;;--.       .--;;;--.     .--;;;--.       .--;;;--.     .--;;;--.       .--;;;--.     .--;;;--.       .--;;;--.     .--;;;--.       .--;;;--.     .--;;;--.       .--;;;--.     .--;;;--.       .--;;;--.     .--;;;--.   ",
"     ..----.       .-----.         ..----.       .-----.         ..----.       .-----.         ..----.       .-----.         ..----.       .-----.         ..----.       .-----.         ..----.       .-----.         ..----.       .-----.    ",
"       ....         .....            ....         .....            ....         .....            ....         .....            ....         .....            ....         .....            ....         .....            ....         .....     "};
