/* XPM */
/*
  XPenguins theme "Vaporwave" -- sprites generated procedurally.
  Released into the public domain (CC0).
*/
static char * action4_statue_xpm[] = {
"240 30 9 1",
" 	c None",
".	c #45356B",
"+	c #00A678",
"@	c #05FFA1",
"#	c #CBBCDD",
"$	c #9C8BB0",
"%	c #FFFFFF",
"&	c #EFE6F7",
"*	c #241B2F",
"        .+. ...... .+.                 .+. ...... .+.              .+. ...... .+.                  .+. ...... .+.              .+. ...... .+.                  .+. ...... .+.              .+. ...... .+.                 .+. ...... .+.        ",
"        .@+.######.+@.                 .@+.######.+@.              .@+.######.+@.                  .@+.######.+@.              .@+.######.+@.                  .@+.######.+@.              .@+.######.+@.                 .@+.######.+@.        ",
"       .+..$%#$%#$%..+.               .+..$%#$%#$%..+.            .+..$%#$%#$%..+.                .+..$%#$%#$%..+.            .+..$%#$%#$%..+.                .+..$%#$%#$%..+.            .+..$%#$%#$%..+.               .+..$%#$%#$%..+.       ",
"       .@+##########+@.               .@+##########+@.            .@+##########+@.                .@+##########+@.            .@+##########+@.                .@+##########+@.            .@+##########+@.               .@+##########+@.       ",
"        .+##########+.                 .+##########+.              .+##########+.                  .+##########+.              .+##########+.                  .+##########+.              .+##########+.                 .+##########+.        ",
"        .@+########+@.                 .@+########+@.              .@+########+@.                  .@+########+@.              .@+########+@.                  .@+########+@.              .@+########+@.                 .@+########+@.        ",
"         .$%%%&&&&&$.                   .$%%%&&&&&$.                .$%%%&&&&&$.                    .$%%%&&&&&$.                .$%%%&&&&&$.                    .$%%%&&&&&$.                .$%%%&&&&&$.                   .$%%%&&&&&$.         ",
"          .%%%&&&&&.                     .%%%&&&&&.                  .%%%&&&&&.                      .%%%&&&&&.                  .%%%&&&&&.                      .%%%&&&&&.                  .%%%&&&&&.                     .%%%&&&&&.          ",
"          .%%$&&$&&&.                    .%%$&&$&&&.                 .%%$&&$&&&.                     .%%$&&$&&&.                 .%%$&&$&&&.                     .%%$&&$&&&.                 .%%$&&$&&&.                    .%%$&&$&&&.         ",
"          .%%%&&&&&#.                    .%%%&&&&&#.                 .%%%&&&&&#.                     .%%%&&&&&#.                 .%%%&&&&&#.                     .%%%&&&&&#.                 .%%%&&&&&#.                    .%%%&&&&&#.         ",
"          .%%%&###&.                     .%%%&###&.                  .%%%&###&.                      .%%%&###&.                  .%%%&###&.                      .%%%&###&.                  .%%%&###&.                     .%%%&###&.          ",
"           .&&&&&&.                       .&&&&&&.                    .&&&&&&.                        .&&&&&&.                    .&&&&&&.                        .&&&&&&.                    .&&&&&&.                       .&&&&&&.           ",
"            .&&&&.                         .&&&&.                      .&&&&.                          .&&&&.                      .&&&&.                          .&&&&.                      .&&&&.                         .&&&&.            ",
"           ..####..                       ..####..                    ..####..                        ..####..                    ..####..                        ..####..                    ..####..                       ..####..           ",
"          .%%%&&&&&.                     .%%%&&&&&.                  .%%%&&&&&.                      .%%%&&&&&.                  .%%%&&&&&.                      .%%%&&&&&.                  .%%%&&&&&.                     .%%%&&&&&.          ",
"          .$$$&&&$$$.                    .$$$&&&$$$.                 .$$$&&&$$$.                     .$$$&&&$$$.                 .$$$&&&$$$.                     .$$$&&&$$$.                 .$$$&&&$$$.                    .$$$&&&$$$.         ",
"          .$%%&&&&&$.                    .$%%&&&&&$.                 .$%%&&&&&$.                     .$%%&&&&&$.                 .$%%&&&&&$.                     .$%%&&&&&$.                 .$%%&&&&&$.                    .$%%&&&&&$.         ",
"          .%%%&&&&#.                     .%%%&&&&#.                  .%%%&&&&#.                      .%%%&&&&#.                  .%%%&&&&#.                      .%%%&&&&#.                  .%%%&&&&#.                     .%%%&&&&#.          ",
"          .%%#&&#&#.                     .%%#&&#&#.                  .%%#&&#&#.                      .%%#&&#&#.                  .%%#&&#&#.                      .%%#&&#&#.                  .%%#&&#&#.                     .%%#&&#&#.          ",
"          .%%#&&#&#.                     .%%#&&#&#.                  .%%#&&#&#.                      .%%#&&#&#.                  .%%#&&#&#.                      .%%#&&#&#.                  .%%#&&#&#.                     .%%#&&#&#.          ",
"          .&&#&&#&#.                     .&&#&&#&#.                  .&&#&&#&#.                      .&&#&&#&#.                  .&&#&&#&#.                      .&&#&&#&#.                  .&&#&&#&#.                     .&&#&&#&#.          ",
"          .&&#&&#&#.                     .&&#&&#&#.                  .&&#&&#&#.                      .&&#&&#&#.                  .&&#&&#&#.                      .&&#&&#&#.                  .&&#&&#&#.                     .&&#&&#&#.          ",
"          .$$$$$$$$.                     .$$$$$$$$.                  .$$$$$$$$.                      .$$$$$$$$.                  .$$$$$$$$.                      .$$$$$$$$.                  .$$$$$$$$.                     .$$$$$$$$.          ",
"           .##..##.                       .##..##.                    .##..##.                        .##..##.                    .##..##.                        .##..##.                    .##..##.                       .##..##.           ",
"           .##..##.                       .##..##.                    .##..##.                        .##..##.                    .##..##.                        .##..##.                    .##..##.                       .##..##.           ",
"           .##..##.                       .##..##.                    .##..##.                        .##..##.                    .##..##.                        .##..##.                    .##..##.                       .##..##.           ",
"           .##..##.                       .##..##.                    .##..##.                        .##..##.                    .##..##.                        .##..##.                    .##..##.                       .##..##.           ",
"          .&&&&&&&&.                     .&&&&&&&&.                  .&&&&&&&&.                      .&&&&&&&&.                  .&&&&&&&&.                      .&&&&&&&&.                  .&&&&&&&&.                     .&&&&&&&&.          ",
"          .********.                     .********.                  .********.                      .********.                  .********.                      .********.                  .********.                     .********.          ",
"           ........                       ........                    ........                        ........                    ........                        ........                    ........                       ........           "};
