/* XPM */
/*
  XPenguins theme "Vaporwave" -- sprites generated procedurally.
  Released into the public domain (CC0).
*/
static char * angel_car_xpm[] = {
"144 30 10 1",
" 	c None",
".	c #CBBCDD",
"+	c #FFFFFF",
"@	c #EFE6F7",
"#	c #E8D9FF",
"$	c #96FFD0",
"%	c #05FFA1",
"&	c #00A678",
"*	c #925CC4",
"=	c #5C3780",
"                                                                                                                                                ",
"                                                                                                                                                ",
"                                                                                                                                                ",
"                                                                                                                                                ",
"                                          .+++                 +++.                                                                             ",
"      .+++                 +++.          .+++++               +++++.          .+++                 +++.                                         ",
"     .+++++               +++++.         .@@@@@@             @@@@@@.         .+++++               +++++.          .+++                 +++.     ",
"     .@@@@@@             @@@@@@.         .@@@@@@@           @@@@@@@.         .@@@@@@             @@@@@@.         .+++++               +++++.    ",
"     .@@@@@@@           @@@@@@@.          .@@@@@@@         @@@@@@@.          .@@@@@@@           @@@@@@@.         .@@@@@@      #      @@@@@@.    ",
"      .@@@@@@@    #    @@@@@@@.             .@@@@@         @@@@@.             .@@@@@@@    #    @@@@@@@.          .@@@@@@@     #     @@@@@@@.    ",
"        .@@@@@    #    @@@@@.                 .@@@    #    @@@.                 .@@@@@    #    @@@@@.             .@@@@@@@   $$$   @@@@@@@.     ",
"          .@@@   $$$   @@@.                   .       #       .                   .@@@   $$$   @@@.                 .@@@@@  %%%%%  @@@@@.       ",
"          .     %%%%%     .                          $$$                          .     %%%%%     .                   .@@@ &%%%%%& @@@.         ",
"               &%%%%%&                              %%%%%                              &%%%%%&                        .     $$$$$     .         ",
"                $$$$$                              &%%%%%&                              $$$$$                              %%%%%%%              ",
"               %%%%%%%                              $$$$$                              %%%%%%%                            &%%%%%%%&             ",
"              &%%%%%%%&                            %%%%%%%                            &%%%%%%%&                            $$$$$$$              ",
"               $$$$$$$                            &%%%%%%%&                            $$$$$$$                            %%%%%%%%%             ",
"              %%%%%%%%%                            $$$$$$$                            %%%%%%%%%                          &%%%%%%%%%&            ",
"             &%%%%%%%%%&                          %%%%%%%%%                          &%%%%%%%%%&                             ***                ",
"                 ***                             &%%%%%%%%%&                             ***                                 ***                ",
"                 ***                                 ***                                 ***                                =====               ",
"                =====                                ***                                =====                                                   ",
"                                                    =====                                                                                       ",
"                                                                                                                                                ",
"                                                                                                                                                ",
"                                                                                                                                                ",
"                                                                                                                                                ",
"                                                                                                                                                ",
"                                                                                                                                                "};
