/* XPM */
/*
  XPenguins theme "Vaporwave" -- sprites generated procedurally.
  Released into the public domain (CC0).
*/
static char * angel_palm_xpm[] = {
"144 30 7 1",
" 	c None",
".	c #CBBCDD",
"+	c #FFFFFF",
"@	c #EFE6F7",
"#	c #603A22",
"$	c #C48A5C",
"%	c #96603A",
"                                                                                                                                                ",
"                                                                                                                                                ",
"                                                                                                                                                ",
"                                                                                                                                                ",
"                                          .+++                 +++.                                                                             ",
"      .+++                 +++.          .+++++               +++++.          .+++                 +++.                                         ",
"     .+++++               +++++.         .@@@@@@             @@@@@@.         .+++++               +++++.          .+++                 +++.     ",
"     .@@@@@@             @@@@@@.         .@@@@@@@           @@@@@@@.         .@@@@@@             @@@@@@.         .+++++               +++++.    ",
"     .@@@@@@@           @@@@@@@.          .@@@@@@@         @@@@@@@.          .@@@@@@@           @@@@@@@.         .@@@@@@             @@@@@@.    ",
"      .@@@@@@@         @@@@@@@.             .@@@@@         @@@@@.             .@@@@@@@         @@@@@@@.          .@@@@@@@           @@@@@@@.    ",
"        .@@@@@         @@@@@.                 .@@@         @@@.                 .@@@@@         @@@@@.             .@@@@@@@         @@@@@@@.     ",
"          .@@@         @@@.                   .               .                   .@@@         @@@.                 .@@@@@  #####  @@@@@.       ",
"          .     #####     .                                                       .     #####     .                   .@@@ #$$%%## @@@.         ",
"               #$$%%##                              #####                              #$$%%##                        .   #$$$%%%%#   .         ",
"              #$$$%%%%#                            #$$%%##                            #$$$%%%%#                          #$$$$$%%%##            ",
"             #$$$$$%%%##                          #$$$%%%%#                          #$$$$$%%%##                         #%$$$%%%$%#            ",
"             #%$$$%%%$%#                         #$$$$$%%%##                         #%$$$%%%$%#                         #%%$%%%%%%#            ",
"             #%%$%%%%%%#                         #%$$$%%%$%#                         #%%$%%%%%%#                         #$%%%%%%%%#            ",
"             #$%%%%%%%%#                         #%%$%%%%%%#                         #$%%%%%%%%#                         ##%#%%%#%$#            ",
"             ##%#%%%#%$#                         #$%%%%%%%%#                         ##%#%%%#%$#                          #%%%#%%%#             ",
"              #%%%#%%%#                          ##%#%%%#%$#                          #%%%#%%%#                            ##%%$##              ",
"               ##%%$##                            #%%%#%%%#                            ##%%$##                              #####               ",
"                #####                              ##%%$##                              #####                                                   ",
"                                                    #####                                                                                       ",
"                                                                                                                                                ",
"                                                                                                                                                ",
"                                                                                                                                                ",
"                                                                                                                                                ",
"                                                                                                                                                ",
"                                                                                                                                                "};
