/* XPM */
/*
  XPenguins theme "Vaporwave" -- sprites generated procedurally.
  Released into the public domain (CC0).
*/
static char * angel_boom_xpm[] = {
"144 30 8 1",
" 	c None",
".	c #CBBCDD",
"+	c #FFFFFF",
"@	c #EFE6F7",
"#	c #FFFB96",
"$	c #FF9EDE",
"%	c #7BF1E8",
"&	c #FFC25E",
"                                                                                                                                                ",
"                                                                                                                                                ",
"                                                                                                                                                ",
"                                                                                                                                                ",
"                                          .+++                 +++.                                                                             ",
"      .+++                 +++.          .+++++               +++++.          .+++                 +++.                                         ",
"     .+++++               +++++.         .@@@@@@             @@@@@@.         .+++++               +++++.          .+++                 +++.     ",
"     .@@@@@@             @@@@@@.         .@@@@@@@           @@@@@@@.         .@@@@@@             @@@@@@.         .+++++               +++++.    ",
"     .@@@@@@@           @@@@@@@.          .@@@@@@@         @@@@@@@.          .@@@@@@@           @@@@@@@.         .@@@@@@             @@@@@@.    ",
"      .@@@@@@@         @@@@@@@.             .@@@@@         @@@@@.             .@@@@@@@         @@@@@@@.          .@@@@@@@      ##   @@@@@@@.    ",
"        .@@@@@     ##  @@@@@.                 .@@@         @@@.                 .@@@@@     ##  @@@@@.             .@@@@@@@     # ##@@$@@@@.     ",
"          .@@@     # ##@@$.                   .        ##     .                   .@@@     # ##@@@.                 .@@@@@     ##  #@@@@.       ",
"          .        ##  #  .                            # ##  $                    .        ##  #  .                   .@@@     # ##@@@.         ",
"                   # ##                                ##  #                      %        # ##                       .        ##  #  .         ",
"                   ##  #                      %        # ##                                ##  #                               # ##             ",
"                   # ##                                ##  #                               # ##                                #   #            ",
"                   #   #                               # ##                                #   #                               #                ",
"                   #                                   #   #                               #                              &&&&&#                ",
"              &&&&&#                                   #                              &&&&&#                             &&###&#                ",
"             &&###&#                              &&&&&#                             &&###&#                           % &######                ",
"           % &######                             &&###&#                           % &######                             &######                ",
"             &######                             &######                             &######                             &#####&                ",
"             &#####&                             &######                             &#####&                             &&###&&                ",
"             &&###&&                             &#####&                             &&###&&                              &&&&&                 ",
"              &&&&&                              &&###&&                              &&&&&                                                     ",
"                                                  &&&&&                                                                                         ",
"                                                                                                                                                ",
"                                                                                                                                                ",
"                                                                                                                                                ",
"                                                                                                                                                "};
