/* XPM */
/*
  XPenguins theme "Vaporwave" -- sprites generated procedurally.
  Released into the public domain (CC0).
*/
static char * angel_tape_xpm[] = {
"144 30 11 1",
" 	c None",
".	c #CBBCDD",
"+	c #FFFFFF",
"@	c #EFE6F7",
"#	c #241B2F",
"$	c #C7B3E8",
"%	c #E8D9FF",
"&	c #2B1B3D",
"*	c #FF71CE",
"=	c #9D86C4",
"-	c #6F5A94",
"                                                                                                                                                ",
"                                                                                                                                                ",
"                                                                                                                                                ",
"                                                                                                                                                ",
"                                          .+++                 +++.                                                                             ",
"      .+++                 +++.          .+++++               +++++.          .+++                 +++.                                         ",
"     .+++++               +++++.         .@@@@@@             @@@@@@.         .+++++               +++++.          .+++                 +++.     ",
"     .@@@@@@             @@@@@@.         .@@@@@@@           @@@@@@@.         .@@@@@@             @@@@@@.         .+++++               +++++.    ",
"     .@@@@@@@           @@@@@@@.          .@@@@@@@         @@@@@@@.          .@@@@@@@           @@@@@@@.         .@@@@@@             @@@@@@.    ",
"      .@@@@@@@         @@@@@@@.             .@@@@@         @@@@@.             .@@@@@@@         @@@@@@@.          .@@@@@@@           @@@@@@@.    ",
"        .@@@@@         @@@@@.                 .@@@         @@@.                 .@@@@@         @@@@@.             .@@@@@@@         @@@@@@@.     ",
"          .@@@         @@@.                   .               .                   .@@@         @@@.                 .@@@@@  #####  @@@@@.       ",
"          .     #####     .                                                       .     #####     .                   .@@@ ##$$$## @@@.         ",
"               #%$$$##                              #####                              ##$$$%#                        .   #$$$&$$$#   .         ",
"              #$$$&$$$#                            ##$%$##                            #$$$&$$$#                          #%$&&&&&$%#            ",
"             ##$&%&&&$##                          #$$$%$$$#                          ##$&&&%&$##                         #$$%%*%%$$#            ",
"             #$$&%*&&$$#                         ##$&&%&&$##                         #$$&&*%&$$#                         #$&&***&&$#            ",
"             #$&&***%%%#                         #$$&&*&&$$#                         #%%%***&&$#                         #$$&&*&&$$#            ",
"             #$$&%*&&$$#                         #$&&***&&$#                         #$$&&*%&$$#                         ##$&&%&&$##            ",
"             ##$&%&&&$##                         #$$%%*%%$$#                         ##$&&&%&$##                          #$$$%$$$#             ",
"              #$$$&$$$#                          #%$&&&&&$%#                          #$$$&$$$#                            ##$%$##              ",
"               #%$$$##                            #$$$&$$$#                            ##$$$%#                              #####               ",
"                #####                              ##$$$##                              #####                                  =-               ",
"                  =-                                #####                                     =-                            =-                  ",
"                     =-                                  =-                                =-                             =-                    ",
"                      =-                                  =-                            =-                                 =-                   ",
"                     =-                                 =-                            =-                                      =-                ",
"                  =-                                 =-                               =-                                         =-             ",
"               =-                                  =-                                    =-                                                     ",
"                                                  =-                                                                                            "};
