/* XPM */
/*
  XPenguins theme "Vaporwave" -- sprites generated procedurally.
  Released into the public domain (CC0).
*/
static char * angel_statue_xpm[] = {
"144 30 5 1",
" 	c None",
".	c #CBBCDD",
"+	c #FFFFFF",
"@	c #EFE6F7",
"#	c #9C8BB0",
"                                                                                                                                                ",
"                                                                                                                                                ",
"                                                                                                                                                ",
"                                                                                                                                                ",
"                                          .+++                 +++.                                                                             ",
"      .+++                 +++.          .+++++               +++++.          .+++                 +++.                                         ",
"     .+++++               +++++.         .@@@@@@             @@@@@@.         .+++++               +++++.          .+++                 +++.     ",
"     .@@@@@@             @@@@@@.         .@@@@@@@           @@@@@@@.         .@@@@@@             @@@@@@.         .+++++               +++++.    ",
"     .@@@@@@@           @@@@@@@.          .@@@@@@@         @@@@@@@.          .@@@@@@@           @@@@@@@.         .@@@@@@             @@@@@@.    ",
"      .@@@@@@@.........@@@@@@@.             .@@@@@.........@@@@@.             .@@@@@@@.........@@@@@@@.          .@@@@@@@ ......... @@@@@@@.    ",
"        .@@@@@ +.+++@# @@@@@.                 .@@@ +.+++@# @@@.                 .@@@@@ +.+++@# @@@@@.             .@@@@@@@ +.+++@# @@@@@@@.     ",
"          .@@@#.++++@@#@@@.                   .   #.++++@@#   .                   .@@@#.++++@@#@@@.                 .@@@@@#.++++@@#@@@@@.       ",
"          .   #+++++@..   .                       #+++++@..                       .   #+++++@..   .                   .@@@#+++++@..@@@.         ",
"              #++#++#..                           #++#++#..                           #++#++#..                       .   #++#++#..   .         ",
"              #@@@@@@..                           #@@@@@@..                           #@@@@@@..                           #@@@@@@..             ",
"              #@@@@@@..                           #@@@@@@..                           #@@@@@@..                           #@@@@@@..             ",
"              #@....@@#                           #@....@@#                           #@....@@#                           #@....@@#             ",
"               #@@@@@#                             #@@@@@#                             #@@@@@#                             #@@@@@#              ",
"                #####                               #####                               #####                               #####               ",
"                @@@@@                               @@@@@                               @@@@@                               @@@@@               ",
"                @@@@@                               @@@@@                               @@@@@                               @@@@@               ",
"                @@@@@                               @@@@@                               @@@@@                               @@@@@               ",
"              @@@@@@@@@                           @@@@@@@@@                           @@@@@@@@@                           @@@@@@@@@             ",
"             #.........#                         #.........#                         #.........#                         #.........#            ",
"             #.........#                         #.........#                         #.........#                         #.........#            ",
"              #########                           #########                           #########                           #########             ",
"                                                                                                                                                ",
"                                                                                                                                                ",
"                                                                                                                                                ",
"                                                                                                                                                "};
