/* XPM */
/*
  XPenguins theme "Vaporwave" -- sprites generated procedurally.
  Released into the public domain (CC0).
*/
static char * angel_bird_xpm[] = {
"144 30 9 1",
" 	c None",
".	c #CBBCDD",
"+	c #FFFFFF",
"@	c #FFB7CA",
"#	c #EFE6F7",
"$	c #241B2F",
"%	c #E8D9FF",
"&	c #FF7A9E",
"*	c #CE4A76",
"                                                                                                                                                ",
"                                                                                                                                                ",
"                                                                                                                                                ",
"                                                                                                                                                ",
"                                          .+++                 +++.                                                                             ",
"      .+++                 +++.          .+++++               +++++.          .+++                 +++.                        @@               ",
"     .+++++        @@     +++++.         .######             ######.         .+++++        @@     +++++.          .+++        @@$@%%   +++.     ",
"     .######      @@$@%% ######.         .#######      @@   #######.         .######      @@$@%% ######.         .+++++        @@ %$  +++++.    ",
"     .#######      @@ %$#######.          .#######    @@$@%%######.          .#######      @@ %$#######.         .######       &@    ######.    ",
"      .#######     &@  #######.             .#####     @@ %$####.             .#######     &@  #######.          .#######           #######.    ",
"        .#####         #####.                 .###     &@  ###.                 .#####         #####.             .#######     &@  #######.     ",
"          .###     &@  ###.                   .               .                   .###     &@  ###.                 .#####         #####.       ",
"          .               .                            &@                         .               .                   .###    &@   ###.         ",
"                  &@                                                                      &@                          @@@@@@@@        .         ",
"          @@@@@@@@                                    &@                          @@@@@@@@                            &&&&&&&&                  ",
"          &&&&&&&&                            @@@@@@@@                            &&&&&&&&                           &&&&&&&&&&                 ",
"         &&&&&&&&&&                           &&&&&&&&                           &&&&&&&&&&                         &&&&&&&&&&&                 ",
"        &&&&&&&&&&&                          &&&&&&&&&&                         &&&&&&&&&&&                         *&&&&&&&&&&                 ",
"        *&&&&&&&&&&                         &&&&&&&&&&&                         *&&&&&&&&&&                          &&&&&&&&&&                 ",
"         &&&&&&&&&&                         *&&&&&&&&&&                          &&&&&&&&&&                          &&&&&&&&&&                 ",
"         &&&&&&&&&&                          &&&&&&&&&&                          &&&&&&&&&&                           &&&&&&&&                  ",
"          &&&&&&&&                           &&&&&&&&&&                           &&&&&&&&                            ********                  ",
"          ********                            &&&&&&&&                            ********                                                      ",
"                                              ********                                                                                          ",
"                                                                                                                                                ",
"                                                                                                                                                ",
"                                                                                                                                                ",
"                                                                                                                                                ",
"                                                                                                                                                ",
"                                                                                                                                                "};
