/* XPM */
/*
  XPenguins theme "Vaporwave" -- sprites generated procedurally.
  Released into the public domain (CC0).
*/
static char * angel_xpm[] = {
"144 30 11 1",
" 	c None",
".	c #CBBCDD",
"+	c #FFFFFF",
"@	c #EFE6F7",
"#	c #241B2F",
"$	c #7BF1E8",
"%	c #C7B3E8",
"&	c #01CDFE",
"*	c #9D86C4",
"=	c #E8D9FF",
"-	c #FF71CE",
"                                                                                                                                                ",
"                                                                                                                                                ",
"                                                                                                                                                ",
"                                                                                                                                                ",
"                                          .+++                 +++.                                                                             ",
"      .+++                 +++.          .+++++               +++++.          .+++                 +++.                                         ",
"     .+++++               +++++.         .@@@@@@             @@@@@@.         .+++++               +++++.          .+++                 +++.     ",
"     .@@@@@@             @@@@@@.         .@@@@@@@           @@@@@@@.         .@@@@@@             @@@@@@.         .+++++               +++++.    ",
"     .@@@@@@@           @@@@@@@.          .@@@@@@@         @@@@@@@.          .@@@@@@@           @@@@@@@.         .@@@@@@             @@@@@@.    ",
"      .@@@@@@@         @@@@@@@.             .@@@@@         @@@@@.             .@@@@@@@         @@@@@@@.          .@@@@@@@           @@@@@@@.    ",
"        .@@@@@         @@@@@.                 .@@@         @@@.                 .@@@@@         @@@@@.             .@@@@@@@#########@@@@@@@.     ",
"          .@@@#########@@@.                   .               .                   .@@@#########@@@.                 .@@@@#$%%%%%%$$#@@@@.       ",
"          .  #$%%%%%%$$#  .                       #########                       .  #$%%%%%%$$#  .                   .@#&&%***%%&&&#@.         ",
"            #&&%***%%&&&#                        #$%%%%%%$$#                        #&&%***%%&&&#                     . #&&%***%%&&&# .         ",
"            #&&%***%%&&&#                       #&&%***%%&&&#                       #&&%***%%&&&#                       #&&%***%%&&&#           ",
"            #&&%***%%&&&#                       #&&%***%%&&&#                       #&&%***%%&&&#                       #&&&&&&&&&&&#           ",
"            #&&&&&&&&&&&#                       #&&%***%%&&&#                       #&&&&&&&&&&&#                       #&&&&&&&&&&&#           ",
"            #&&&&&&&&&&&#                       #&&&&&&&&&&&#                       #&&&&&&&&&&&#                       #&=========&#           ",
"            #&=========&#                       #&&&&&&&&&&&#                       #&=========&#                       #&=-----===&#           ",
"            #&=-----===&#                       #&=========&#                       #&=-----===&#                       #&=========&#           ",
"            #&=========&#                       #&=-----===&#                       #&=========&#                       #&=========&#           ",
"            #&=========&#                       #&=========&#                       #&=========&#                        #=========#            ",
"             #=========#                        #&=========&#                        #=========#                          #########             ",
"              #########                          #=========#                          #########                                                 ",
"                                                  #########                                                                                     ",
"                                                                                                                                                ",
"                                                                                                                                                ",
"                                                                                                                                                ",
"                                                                                                                                                ",
"                                                                                                                                                "};
