/* XPM */
/*
  XPenguins theme "Vaporwave" -- sprites generated procedurally.
  Released into the public domain (CC0).
*/
static char * angel_dolphin_xpm[] = {
"144 30 8 1",
" 	c None",
".	c #CBBCDD",
"+	c #FFFFFF",
"@	c #EFE6F7",
"#	c #01CDFE",
"$	c #241B2F",
"%	c #7BF1E8",
"&	c #E8D9FF",
"                                                                                                                                                ",
"                                                                                                                                                ",
"                                                                                                                                                ",
"                                                                                                                                                ",
"                                          .+++                 +++.                                                                             ",
"      .+++                 +++.          .+++++               +++++.          .+++                 +++.                                         ",
"     .+++++               +++++.         .@@@@@@             @@@@@@.         .+++++               +++++.          .+++                 +++.     ",
"     .@@@@@@             @@@@@@.         .@@@@@@@           @@@@@@@.         .@@@@@@             @@@@@@.         .+++++               +++++.    ",
"     .@@@@@@@           @@@@@@@.          .@@@@@@@         @@@@@@@.          .@@@@@@@           @@@@@@@.         .@@@@@@             @@@@@@.    ",
"      .@@@@@@@         @@@@@@@.             .@@@@@         @@@@@.             .@@@@@@@         @@@@@@@.          .@@@@@@@           @@@@@@@.    ",
"        .@@@@@         @@@@@.                 .@@@         @@@.                 .@@@@@         @@@@@.             .@@@@@@@         @@@@@@@.     ",
"          .@@@         @@@.                   .               .                   .@@@         @@@.                 .@@@@@         @@@@@.       ",
"          .               .                                                       .               .                   .@@@         @@@.         ",
"                                                                                                                      .#   ####       .         ",
"           #   ####                                                                #   ####                            ## ######$               ",
"           ## ######$                          #   ####                            ## ######$                          ###########%%%           ",
"           ###########%%%                      ## ######$                          ###########%%%                        &&&&&&&&&%%%           ",
"             &&&&&&&&&%%%                      ###########%%%                        &&&&&&&&&%%%                      ##&&&&&&&&&              ",
"           ##&&&&&&&&&                           &&&&&&&&&%%%                      ##&&&&&&&&&                         ##  &&&&&                ",
"           ##  &&&&&                           ##&&&&&&&&&                         ##  &&&&&                           #                        ",
"           #                                   ##  &&&&&                           #                                                            ",
"                                               #                                                                                                ",
"                                                                                                                                                ",
"                                                                                                                                                ",
"                                                                                                                                                ",
"                                                                                                                                                ",
"                                                                                                                                                ",
"                                                                                                                                                ",
"                                                                                                                                                ",
"                                                                                                                                                "};
