/* XPM */
/*
  XPenguins theme "Vaporwave" -- sprites generated procedurally.
  Released into the public domain (CC0).
*/
static char * climber_tape_xpm[] = {
"240 60 11 1",
" 	c None",
".	c #241B2F",
"+	c #FF71CE",
"@	c #B967FF",
"#	c #E8D9FF",
"$	c #C7B3E8",
"%	c #FF9EDE",
"&	c #2B1B3D",
"*	c #9D86C4",
"=	c #01CDFE",
"-	c #6F5A94",
"                                                                                                                                                                                                                                                ",
"                                                                                                                                                                                                                                                ",
"                                                                                                                                                                                                                                                ",
"                                                                                                                                                                                                                                                ",
"            ...........                   ...........                   ...........                   ...........                   ...........                   ...........                   ...........                   ...........       ",
"           .+++++++++++.                 .+++++++++++.                 .+++++++++++.                 .+++++++++++.                 .+++++++++++.                 .+++++++++++.                 .+++++++++++.                 .+++++++++++.      ",
"          .@.....+####$%.               .@.....+####$%.               .@.....+####$%.               .@.....+####$%.               .@.....+####$%.               .@.....+####$%.               .@.....+####$%.               .@.....+####$%.     ",
"          .@.&&&.+####$%.               .@.&&&.+####$%.               .@.&&&.+####$%.               .@.&&&.+####$%.               .@.&&&.+####$%.               .@.&&&.+####$%.               .@.&&&.+####$%.               .@.&&&.+####$%.     ",
"          ...&&&.+####$%.               ...&&&.+####$%.               ...&&&.+####$%.               ...&&&.+####$%.               ...&&&.+####$%.               ...&&&.+####$%.               ...&&&.+####$%.               ...&&&.+####$%.     ",
"          ...&&&.+##*#$%.               ...&$&.+##*#$%.               ...&$&.+##*#$%.               ...&$&.+##*#$%.               ...&$&.+##*#$%.               ...&&&.+##*#$%.               ...&&&.+##*#$%.               ...&$&.+##*#$%.     ",
"          .@.$$$.+##*#$%.               .@.&$$.+##*#$%.               .@.&$$.+##*#$%.               .@.&$&.+##*#$%.               .@.$$&.+##*#$%.               .@.$$$.+##*#$%.               .@.$$$.+##*#$%.               .@.&$$.+##*#$%.     ",
"         @.@$$=$$+##*#$%.              @.@$$=$&+##*#$%.              @.@$$=$&+##*#$%.              @.@$$=$$+##*#$%.              @.@&$=$$+##*#$%.              @.@$$=$$+##*#$%.              @.@$$=$&+##*#$%.              @.@$$=$&+##*#$%.     ",
"        @@.@.&$&.+##*#$%.             @@.@.&$$.+##*#$%.             @@.@.$$$.+##*#$%.             @@.@.$$$.+##*#$%.             @@.@.$$&.+##*#$%.             @@.@&$$&.+##*#$%.             @@.@.&$$.+##*#$%.             @@.@.&$$.+##*#$%.     ",
" .%     @ .@.&$&.+#**#$%.      .%     @ .@.&$&.+#**#$%.      .%     @ .@.&&&.+#**#$%.      .%     @ .@.&&&.+#**#$%.      .%     @ .@.&$&.+#**#$%.       .%    @ .@.&$&.+#**#$%.        .%   @ .@.&$&.+#**#$%.       .%    @ .@.&$&.+#**#$%.     ",
" .%@@@@@@ ...---.+#**#$%.      .%@@@@@@ ...---.+#**#$%.      .%@@@@@@ ...---.+#**#$%.      .%@@@@@@ ...---.+#**#$%.      .%@@@@@@ ...---.+#**#$%.       .%@@@@@ ...---.+#**#$%.        .%@@@@ ...---.+#**#$%.       .%@@@@@ ...---.+#**#$%.     ",
" .%@@@@@  ...---.+#**#$%.      .%@@@@@  ...---.+#**#$%.      .%@@@@@  ...---.+#**#$%.      .%@@@@@  ...---.+#**#$%.      .%@@@@@  ...---.+#**#$%.       .%@@@@  ...---.+#**#$%.        .%@@@  ...---.+#**#$%.       .%@@@@  ...---.+#**#$%.     ",
" .%       .@.&&&.+#**#$%.      .%       .@.&$&.+#**#$%.      .%       .@.&$&.+#**#$%.      .%       .@.&$&.+#**#$%.      .%       .@.&$&.+#**#$%.       .%      .@.&&&.+#**#$%.        .%     .@.&&&.+#**#$%.       .%      .@.&$&.+#**#$%.     ",
"         @.@.$$$.+#**#$%.              @.@.&$$.+#**#$%.              @.@.&$$.+#**#$%.              @.@.&$&.+#**#$%.              @.@.$$&.+#**#$%.              @.@.$$$.+#**#$%.              @.@.$$$.+#**#$%.              @.@.&$$.+#**#$%.     ",
"        @@.@$$=$$+#**#$%.             @@.@$$=$&+#**#$%.             @@.@$$=$&+#**#$%.             @@.@$$=$$+#**#$%.             @@.@&$=$$+#**#$%.             @@.@$$=$$+#**#$%.             @@.@$$=$&+#**#$%.             @@.@$$=$&+#**#$%.     ",
" .%     @ ...&$&.+#**#$%.       .%    @ ...&$$.+#**#$%.        .%   @ ...$$$.+#**#$%.       .%    @ ...$$$.+#**#$%.      .%     @ ...$$&.+#**#$%.      .%     @ ..&$$&.+#**#$%.      .%     @ ...&$$.+#**#$%.      .%     @ ...&$$.+#**#$%.     ",
" .%@@@@@@ ...&$&.+#**#$%.       .%@@@@@ ...&$&.+#**#$%.        .%@@@@ ...&&&.+#**#$%.       .%@@@@@ ...&&&.+#**#$%.      .%@@@@@@ ...&$&.+#**#$%.      .%@@@@@@ ...&$&.+#**#$%.      .%@@@@@@ ...&$&.+#**#$%.      .%@@@@@@ ...&$&.+#**#$%.     ",
" .%@@@@@  .@.&&&.+#**#$%.       .%@@@@  .@.&&&.+#**#$%.        .%@@@  .@.&&&.+#**#$%.       .%@@@@  .@.&&&.+#**#$%.      .%@@@@@  .@.&&&.+#**#$%.      .%@@@@@  .@.&&&.+#**#$%.      .%@@@@@  .@.&&&.+#**#$%.      .%@@@@@  .@.&&&.+#**#$%.     ",
" .%       .@.&&&.+###==%.       .%      .@.&&&.+###==%.        .%     .@.&&&.+###==%.       .%      .@.&&&.+###==%.      .%       .@.&&&.+###==%.      .%       .@.&&&.+###==%.      .%       .@.&&&.+###==%.      .%       .@.&&&.+###==%.     ",
"          .@.....+###==%.               .@.....+###==%.               .@.....+###==%.               .@.....+###==%.               .@.....+###==%.               .@.....+###==%.               .@.....+###==%.               .@.....+###==%.     ",
"           .+++++++++++.                 .+++++++++++.                 .+++++++++++.                 .+++++++++++.                 .+++++++++++.                 .+++++++++++.                 .+++++++++++.                 .+++++++++++.      ",
"            ...........                   ...........                   ...........                   ...........                   ...........                   ...........                   ...........                   ...........       ",
"                -                             -                             -                             -                             -                             -                             -                             -             ",
"               - -                          - -                           - -                            - -                            - -                           - -                          - -                          - -             ",
"                -                            -                             -                              -                              -                             -                            -                            -              ",
"                 *                            *                             *                              *                              *                             *                            *                            *             ",
"                                                                                                                                                                                                                                                ",
"                                                                                                                                                                                                                                                ",
"                                                                                                                                                                                                                                                ",
"                                                                                                                                                                                                                                                ",
"       ...........                   ...........                   ...........                   ...........                   ...........                   ...........                   ...........                   ...........            ",
"      .+++++++++++.                 .+++++++++++.                 .+++++++++++.                 .+++++++++++.                 .+++++++++++.                 .+++++++++++.                 .+++++++++++.                 .+++++++++++.           ",
"     .%$####+.....@.               .%$####+.....@.               .%$####+.....@.               .%$####+.....@.               .%$####+.....@.               .%$####+.....@.               .%$####+.....@.               .%$####+.....@.          ",
"     .%$####+.&&&.@.               .%$####+.&&&.@.               .%$####+.&&&.@.               .%$####+.&&&.@.               .%$####+.&&&.@.               .%$####+.&&&.@.               .%$####+.&&&.@.               .%$####+.&&&.@.          ",
"     .%$####+.&&&...               .%$####+.&&&...               .%$####+.&&&...               .%$####+.&&&...               .%$####+.&&&...               .%$####+.&&&...               .%$####+.&&&...               .%$####+.&&&...          ",
"     .%$#*##+.&&&...               .%$#*##+.&$&...               .%$#*##+.&$&...               .%$#*##+.&$&...               .%$#*##+.&$&...               .%$#*##+.&&&...               .%$#*##+.&&&...               .%$#*##+.&$&...          ",
"     .%$#*##+.$$$.@.               .%$#*##+.$$&.@.               .%$#*##+.$$&.@.               .%$#*##+.&$&.@.               .%$#*##+.&$$.@.               .%$#*##+.$$$.@.               .%$#*##+.$$$.@.               .%$#*##+.$$&.@.          ",
"     .%$#*##+$$=$$@.@              .%$#*##+&$=$$@.@              .%$#*##+&$=$$@.@              .%$#*##+$$=$$@.@              .%$#*##+$$=$&@.@              .%$#*##+$$=$$@.@              .%$#*##+&$=$$@.@              .%$#*##+&$=$$@.@         ",
"     .%$#*##+.&$&.@.@@             .%$#*##+.$$&.@.@@             .%$#*##+.$$$.@.@@             .%$#*##+.$$$.@.@@             .%$#*##+.&$$.@.@@             .%$#*##+.&$$&@.@@             .%$#*##+.$$&.@.@@             .%$#*##+.$$&.@.@@        ",
"     .%$#**#+.&$&.@. @     %.      .%$#**#+.&$&.@. @     %.      .%$#**#+.&&&.@. @     %.      .%$#**#+.&&&.@. @     %.      .%$#**#+.&$&.@. @     %.      .%$#**#+.&$&.@. @    %.       .%$#**#+.&$&.@. @   %.        .%$#**#+.&$&.@. @    %.  ",
"     .%$#**#+.---... @@@@@@%.      .%$#**#+.---... @@@@@@%.      .%$#**#+.---... @@@@@@%.      .%$#**#+.---... @@@@@@%.      .%$#**#+.---... @@@@@@%.      .%$#**#+.---... @@@@@%.       .%$#**#+.---... @@@@%.        .%$#**#+.---... @@@@@%.  ",
"     .%$#**#+.---...  @@@@@%.      .%$#**#+.---...  @@@@@%.      .%$#**#+.---...  @@@@@%.      .%$#**#+.---...  @@@@@%.      .%$#**#+.---...  @@@@@%.      .%$#**#+.---...  @@@@%.       .%$#**#+.---...  @@@%.        .%$#**#+.---...  @@@@%.  ",
"     .%$#**#+.&&&.@.       %.      .%$#**#+.&$&.@.       %.      .%$#**#+.&$&.@.       %.      .%$#**#+.&$&.@.       %.      .%$#**#+.&$&.@.       %.      .%$#**#+.&&&.@.      %.       .%$#**#+.&&&.@.     %.        .%$#**#+.&$&.@.      %.  ",
"     .%$#**#+.$$$.@.@              .%$#**#+.$$&.@.@              .%$#**#+.$$&.@.@              .%$#**#+.&$&.@.@              .%$#**#+.&$$.@.@              .%$#**#+.$$$.@.@              .%$#**#+.$$$.@.@              .%$#**#+.$$&.@.@         ",
"     .%$#**#+$$=$$@.@@             .%$#**#+&$=$$@.@@             .%$#**#+&$=$$@.@@             .%$#**#+$$=$$@.@@             .%$#**#+$$=$&@.@@             .%$#**#+$$=$$@.@@             .%$#**#+&$=$$@.@@             .%$#**#+&$=$$@.@@        ",
"     .%$#**#+.&$&... @     %.      .%$#**#+.$$&... @    %.       .%$#**#+.$$$... @   %.        .%$#**#+.$$$... @    %.       .%$#**#+.&$$... @     %.      .%$#**#+.&$$&.. @     %.      .%$#**#+.$$&... @     %.      .%$#**#+.$$&... @     %. ",
"     .%$#**#+.&$&... @@@@@@%.      .%$#**#+.&$&... @@@@@%.       .%$#**#+.&&&... @@@@%.        .%$#**#+.&&&... @@@@@%.       .%$#**#+.&$&... @@@@@@%.      .%$#**#+.&$&... @@@@@@%.      .%$#**#+.&$&... @@@@@@%.      .%$#**#+.&$&... @@@@@@%. ",
"     .%$#**#+.&&&.@.  @@@@@%.      .%$#**#+.&&&.@.  @@@@%.       .%$#**#+.&&&.@.  @@@%.        .%$#**#+.&&&.@.  @@@@%.       .%$#**#+.&&&.@.  @@@@@%.      .%$#**#+.&&&.@.  @@@@@%.      .%$#**#+.&&&.@.  @@@@@%.      .%$#**#+.&&&.@.  @@@@@%. ",
"     .%==###+.&&&.@.       %.      .%==###+.&&&.@.      %.       .%==###+.&&&.@.     %.        .%==###+.&&&.@.      %.       .%==###+.&&&.@.       %.      .%==###+.&&&.@.       %.      .%==###+.&&&.@.       %.      .%==###+.&&&.@.       %. ",
"     .%==###+.....@.               .%==###+.....@.               .%==###+.....@.               .%==###+.....@.               .%==###+.....@.               .%==###+.....@.               .%==###+.....@.               .%==###+.....@.          ",
"      .+++++++++++.                 .+++++++++++.                 .+++++++++++.                 .+++++++++++.                 .+++++++++++.                 .+++++++++++.                 .+++++++++++.                 .+++++++++++.           ",
"       ...........                   ...........                   ...........                   ...........                   ...........                   ...........                   ...........                   ...........            ",
"             -                             -                             -                             -                             -                             -                             -                             -                ",
"            - -                            - -                           - -                          - -                          - -                           - -                            - -                            - -              ",
"             -                              -                             -                            -                            -                             -                              -                              -               ",
"            *                              *                             *                            *                            *                             *                              *                              *                "};
