/* XPM */
/*
  XPenguins theme "Vaporwave" -- sprites generated procedurally.
  Released into the public domain (CC0).
*/
static char * climber_xpm[] = {
"240 60 17 1",
" 	c None",
".	c #241B2F",
"+	c #6F5A94",
"@	c #9D86C4",
"#	c #C7B3E8",
"$	c #45356B",
"%	c #05FFA1",
"&	c #7BF1E8",
"*	c #01CDFE",
"=	c #2B1B3D",
"-	c #FF9EDE",
";	c #B967FF",
">	c #5A2D76",
",	c #FF71CE",
"'	c #FFC25E",
"~	c #FFFB96",
"!	c #E8D9FF",
"                                                                                                                                                                                                                                                ",
"                                                                                                                                                                                                                                                ",
"                                                                                                                                                                                                                                                ",
"                                                                                                                                                                                                                                                ",
"                                                                                                                                                                                                                                                ",
"              ............                  ............                  ............                  ............                  ............                  ............                  ............                  ............    ",
"             .++++++++++++.                .++++++++++++.                .++++++++++++.                .++++++++++++.                .++++++++++++.                .++++++++++++.                .++++++++++++.                .++++++++++++.   ",
"            .@#$$$$$$$$$$$#.              .@#$$$$$$$$$$$#.              .@#$$$$$$$$$$$#.              .@#$$$$$$$$$$$#.              .@#$$$$$$$$$$$#.              .@#$$$$$$$$$$$#.              .@#$$$$$$$$$$$#.              .@#$$$$$$$$$$$#.  ",
"            .%#$&*=-;;;;>$#.              .%#$&==-;;;;>$#.              .%#$&==-;;;;>$#.              .%#$&*=-;;;;>$#.              .%#$&*=-;;;;>$#.              .%#$&==-;;;;>$#.              .%#$&==-;;;;>$#.              .%#$&*=-;;;;>$#.  ",
"        ..  .@#$&*=-;;;;>$#.          ..  .@#$&*=-;;;;>$#.          ..  .@#$&==-;;;;>$#.          ..  .@#$&==-;;;;>$#.          ..  .@#$&*=-;;;;>$#.          ..  .@#$&*=-;;;;>$#.          ..  .@#$&==-;;;;>$#.          ..  .@#$&==-;;;;>$#.  ",
"        .#  .@#$&==-;;;;>$#.          .#  .@#$&*=-;;;;>$#.          .#  .@#$&*=-;;;;>$#.          .#  .@#$&==-;;;;>$#.          .#  .@#$&==-;;;;>$#.          .#  .@#$&*=-;;;;>$#.          .#  .@#$&*=-;;;;>$#.          .#  .@#$&==-;;;;>$#.  ",
"        .#  .@#$&==-,';;>$#.          .#  .@#$&==-,';;>$#.          .#  .@#$&*=-,';;>$#.          .#  .@#$&*=-,';;>$#.          .#  .@#$&==-,';;>$#.          .#  .@#$&==-,';;>$#.          .#  .@#$&*=-,';;>$#.          .#  .@#$&*=-,';;>$#.  ",
"       #.#  .@#$&**-,'~;>$#.         #.#  .@#$&=*-,'~;>$#.         #.#  .@#$&=*-,'~;>$#.         #.#  .@#$&**-,'~;>$#.         #.#  .@#$&**-,'~;>$#.         #.#  .@#$&=*-,'~;>$#.         #.#  .@#$&=*-,'~;>$#.         #.#  .@#$&**-,'~;>$#.  ",
"      ##.#+@.@#$&*=-,'~~>$#.        ##.#+@.@#$&*=-,'~~>$#.        ##.#+@.@#$&==-,'~~>$#.        ##.#+@.@#$&==-,'~~>$#.        ##.#+@.@#$&*=-,'~~>$#.        ##.#+@.@#$&*=-,'~~>$#.         #.#+@.@#$&==-,'~~>$#.        ##.#+@.@#$&==-,'~~>$#.  ",
" .!   # .#++.@#$&==-,'~~>$#.   .!   # .#++.@#$&*=-,'~~>$#.   .!   # .#++.@#$&*=-,'~~>$#.   .!   # .#++.@#$&==-,'~~>$#.   .!   # .#++.@#$&==-,'~~>$#.    .!  # .#++.@#$&*=-,'~~>$#.     .! ##.#++.@#$&*=-,'~~>$#.    .!  # .#++.@#$&==-,'~~>$#.  ",
" .!#### .#++.@#$&==-,'~~>$#.   .!#### .#++.@#$&==-,'~~>$#.   .!#### .#++.@#$&*=-,'~~>$#.   .!#### .#++.@#$&*=-,'~~>$#.   .!#### .#++.@#$&==-,'~~>$#.    .!### .#++.@#$&==-,'~~>$#.     .!## .#++.@#$&*=-,'~~>$#.    .!### .#++.@#$&*=-,'~~>$#.  ",
" .!### #.#+@.+#$&*=-,'~~>$#.   .!### #.#+@.+#$&==-,'~~>$#.   .!### #.#+@.+#$&==-,'~~>$#.   .!### #.#+@.+#$&*=-,'~~>$#.   .!### #.#+@.+#$&*=-,'~~>$#.    .!## #.#+@.+#$&==-,'~~>$#.     .!###.#+@.+#$&==-,'~~>$#.    .!## #.#+@.+#$&*=-,'~~>$#.  ",
" .!   ##.#  .@#$&*=-,'~~>$#.   .!   ##.#  .@#$&*=-,'~~>$#.   .!    #.#  .@#$&==-,'~~>$#.   .!   ##.#  .@#$&==-,'~~>$#.   .!   ##.#  .@#$&*=-,'~~>$#.    .!  ##.#  .@#$&*=-,'~~>$#.     .! ##.#  .@#$&==-,'~~>$#.    .!  ##.#  .@#$&==-,'~~>$#.  ",
" .!   # .#  .+#$&=*-,'~;>$#.    .!  # .#  .+#$&**-,'~;>$#.     .! ##.#  .+#$&**-,'~;>$#.    .!  # .#  .+#$&=*-,'~;>$#.   .!   # .#  .+#$&=*-,'~;>$#.   .!   # .#  .+#$&**-,'~;>$#.   .!   # .#  .+#$&**-,'~;>$#.   .!   # .#  .+#$&=*-,'~;>$#.  ",
" .!#### .#  .@#$&==-,';!>$#.    .!### .#  .@#$&==-,';!>$#.     .!## .#  .@#$&*=-,';!>$#.    .!### .#  .@#$&*=-,';!>$#.   .!#### .#  .@#$&==-,';!>$#.   .!#### .#  .@#$&==-,';!>$#.   .!#### .#  .@#$&*=-,';!>$#.   .!#### .#  .@#$&*=-,';!>$#.  ",
" .!###  ..  .+#$&*=-;;!!>$#.    .!##  ..  .+#$&==-;;!!>$#.     .!## ..  .+#$&==-;;!!>$#.    .!##  ..  .+#$&*=-;;!!>$#.   .!###  ..  .+#$&*=-;;!!>$#.   .!###  ..  .+#$&==-;;!!>$#.   .!###  ..  .+#$&==-;;!!>$#.   .!###  ..  .+#$&*=-;;!!>$#.  ",
" .!         .@#$&*=-;;;;>$#.    .!        .@#$&*=-;;;;>$#.     .!       .@#$&==-;;;;>$#.    .!        .@#$&==-;;;;>$#.   .!         .@#$&*=-;;;;>$#.   .!         .@#$&*=-;;;;>$#.   .!         .@#$&==-;;;;>$#.   .!         .@#$&==-;;;;>$#.  ",
"            .@#$$$$$$$$$$$#.              .@#$$$$$$$$$$$#.              .@#$$$$$$$$$$$#.              .@#$$$$$$$$$$$#.              .@#$$$$$$$$$$$#.              .@#$$$$$$$$$$$#.              .@#$$$$$$$$$$$#.              .@#$$$$$$$$$$$#.  ",
"             .@###########.                .@###########.                .@###########.                .@###########.                .@###########.                .@###########.                .@###########.                .@###########.   ",
"              ............                  ............                  ............                  ............                  ............                  ............                  ............                  ............    ",
"                 +                             +                             +                             +                             +                             +                             +                             +            ",
"                +                             +                             +                             +                             +                             +                             +                             +             ",
"               +                            +                             +                              +                              +                             +                            +                            +               ",
"               +                            +                             +                              +                              +                             +                            +                            +               ",
"               ..                           ..                            ..                             ..                             ..                            ..                           ..                           ..              ",
"                                                                                                                                                                                                                                                ",
"                                                                                                                                                                                                                                                ",
"                                                                                                                                                                                                                                                ",
"                                                                                                                                                                                                                                                ",
"                                                                                                                                                                                                                                                ",
"    ............                  ............                  ............                  ............                  ............                  ............                  ............                  ............              ",
"   .++++++++++++.                .++++++++++++.                .++++++++++++.                .++++++++++++.                .++++++++++++.                .++++++++++++.                .++++++++++++.                .++++++++++++.             ",
"  .#$$$$$$$$$$$#@.              .#$$$$$$$$$$$#@.              .#$$$$$$$$$$$#@.              .#$$$$$$$$$$$#@.              .#$$$$$$$$$$$#@.              .#$$$$$$$$$$$#@.              .#$$$$$$$$$$$#@.              .#$$$$$$$$$$$#@.            ",
"  .#$>;;;;-=*&$#%.              .#$>;;;;-==&$#%.              .#$>;;;;-==&$#%.              .#$>;;;;-=*&$#%.              .#$>;;;;-=*&$#%.              .#$>;;;;-==&$#%.              .#$>;;;;-==&$#%.              .#$>;;;;-=*&$#%.            ",
"  .#$>;;;;-=*&$#@.  ..          .#$>;;;;-=*&$#@.  ..          .#$>;;;;-==&$#@.  ..          .#$>;;;;-==&$#@.  ..          .#$>;;;;-=*&$#@.  ..          .#$>;;;;-=*&$#@.  ..          .#$>;;;;-==&$#@.  ..          .#$>;;;;-==&$#@.  ..        ",
"  .#$>;;;;-==&$#@.  #.          .#$>;;;;-=*&$#@.  #.          .#$>;;;;-=*&$#@.  #.          .#$>;;;;-==&$#@.  #.          .#$>;;;;-==&$#@.  #.          .#$>;;;;-=*&$#@.  #.          .#$>;;;;-=*&$#@.  #.          .#$>;;;;-==&$#@.  #.        ",
"  .#$>;;',-==&$#@.  #.          .#$>;;',-==&$#@.  #.          .#$>;;',-=*&$#@.  #.          .#$>;;',-=*&$#@.  #.          .#$>;;',-==&$#@.  #.          .#$>;;',-==&$#@.  #.          .#$>;;',-=*&$#@.  #.          .#$>;;',-=*&$#@.  #.        ",
"  .#$>;~',-**&$#@.  #.#         .#$>;~',-*=&$#@.  #.#         .#$>;~',-*=&$#@.  #.#         .#$>;~',-**&$#@.  #.#         .#$>;~',-**&$#@.  #.#         .#$>;~',-*=&$#@.  #.#         .#$>;~',-*=&$#@.  #.#         .#$>;~',-**&$#@.  #.#       ",
"  .#$>~~',-=*&$#@.@+#.##        .#$>~~',-=*&$#@.@+#.##        .#$>~~',-==&$#@.@+#.##        .#$>~~',-==&$#@.@+#.##        .#$>~~',-=*&$#@.@+#.##        .#$>~~',-=*&$#@.@+#.##        .#$>~~',-==&$#@.@+#.#         .#$>~~',-==&$#@.@+#.##      ",
"  .#$>~~',-==&$#@.++#. #   !.   .#$>~~',-=*&$#@.++#. #   !.   .#$>~~',-=*&$#@.++#. #   !.   .#$>~~',-==&$#@.++#. #   !.   .#$>~~',-==&$#@.++#. #   !.   .#$>~~',-=*&$#@.++#. #  !.    .#$>~~',-=*&$#@.++#.## !.     .#$>~~',-==&$#@.++#. #  !.  ",
"  .#$>~~',-==&$#@.++#. ####!.   .#$>~~',-==&$#@.++#. ####!.   .#$>~~',-=*&$#@.++#. ####!.   .#$>~~',-=*&$#@.++#. ####!.   .#$>~~',-==&$#@.++#. ####!.   .#$>~~',-==&$#@.++#. ###!.    .#$>~~',-=*&$#@.++#. ##!.     .#$>~~',-=*&$#@.++#. ###!.  ",
"  .#$>~~',-=*&$#+.@+#.# ###!.   .#$>~~',-==&$#+.@+#.# ###!.   .#$>~~',-==&$#+.@+#.# ###!.   .#$>~~',-=*&$#+.@+#.# ###!.   .#$>~~',-=*&$#+.@+#.# ###!.   .#$>~~',-==&$#+.@+#.# ##!.    .#$>~~',-==&$#+.@+#.###!.     .#$>~~',-=*&$#+.@+#.# ##!.  ",
"  .#$>~~',-=*&$#@.  #.##   !.   .#$>~~',-=*&$#@.  #.##   !.   .#$>~~',-==&$#@.  #.#    !.   .#$>~~',-==&$#@.  #.##   !.   .#$>~~',-=*&$#@.  #.##   !.   .#$>~~',-=*&$#@.  #.##  !.    .#$>~~',-==&$#@.  #.## !.     .#$>~~',-==&$#@.  #.##  !.  ",
"  .#$>;~',-*=&$#+.  #. #   !.   .#$>;~',-**&$#+.  #. #  !.    .#$>;~',-**&$#+.  #.## !.     .#$>;~',-*=&$#+.  #. #  !.    .#$>;~',-*=&$#+.  #. #   !.   .#$>;~',-**&$#+.  #. #   !.   .#$>;~',-**&$#+.  #. #   !.   .#$>;~',-*=&$#+.  #. #   !. ",
"  .#$>!;',-==&$#@.  #. ####!.   .#$>!;',-==&$#@.  #. ###!.    .#$>!;',-=*&$#@.  #. ##!.     .#$>!;',-=*&$#@.  #. ###!.    .#$>!;',-==&$#@.  #. ####!.   .#$>!;',-==&$#@.  #. ####!.   .#$>!;',-=*&$#@.  #. ####!.   .#$>!;',-=*&$#@.  #. ####!. ",
"  .#$>!!;;-=*&$#+.  ..  ###!.   .#$>!!;;-==&$#+.  ..  ##!.    .#$>!!;;-==&$#+.  .. ##!.     .#$>!!;;-=*&$#+.  ..  ##!.    .#$>!!;;-=*&$#+.  ..  ###!.   .#$>!!;;-==&$#+.  ..  ###!.   .#$>!!;;-==&$#+.  ..  ###!.   .#$>!!;;-=*&$#+.  ..  ###!. ",
"  .#$>;;;;-=*&$#@.         !.   .#$>;;;;-=*&$#@.        !.    .#$>;;;;-==&$#@.       !.     .#$>;;;;-==&$#@.        !.    .#$>;;;;-=*&$#@.         !.   .#$>;;;;-=*&$#@.         !.   .#$>;;;;-==&$#@.         !.   .#$>;;;;-==&$#@.         !. ",
"  .#$$$$$$$$$$$#@.              .#$$$$$$$$$$$#@.              .#$$$$$$$$$$$#@.              .#$$$$$$$$$$$#@.              .#$$$$$$$$$$$#@.              .#$$$$$$$$$$$#@.              .#$$$$$$$$$$$#@.              .#$$$$$$$$$$$#@.            ",
"   .###########@.                .###########@.                .###########@.                .###########@.                .###########@.                .###########@.                .###########@.                .###########@.             ",
"    ............                  ............                  ............                  ............                  ............                  ............                  ............                  ............              ",
"            +                             +                             +                             +                             +                             +                             +                             +                 ",
"             +                             +                             +                             +                             +                             +                             +                             +                ",
"              +                              +                             +                            +                            +                             +                              +                              +              ",
"              +                              +                             +                            +                            +                             +                              +                              +              ",
"             ..                             ..                            ..                           ..                           ..                            ..                             ..                             ..              "};
