/* XPM */
/*
  XPenguins theme "Vaporwave" -- sprites generated procedurally.
  Released into the public domain (CC0).
*/
static char * climber_statue_xpm[] = {
"240 60 9 1",
" 	c None",
".	c #45356B",
"+	c #05FFA1",
"@	c #00A678",
"#	c #9C8BB0",
"$	c #CBBCDD",
"%	c #EFE6F7",
"&	c #FFFFFF",
"*	c #241B2F",
"                                                                                                                                                                                                                                                ",
"                                                                                                                                                                                                                                                ",
"                                                                                                                                                                                                                                                ",
"                                                                                                                                                                                                                                                ",
"                                                                                                                                                                                                                                                ",
"                                                                                                                                                                                                                                                ",
"                                                                                                                                                                                                                                                ",
"                          ..                            ..                            ..                            ..                            ..                            ..                            ..                            ..  ",
"                        ..+@..                        ..+@..                        ..+@..                        ..+@..                        ..+@..                        ..+@..                        ..+@..                        ..+@..",
"             ..     .. .+@@.+@             ..     .. .+@@.+@             ..     .. .+@@.+@             ..     .. .+@@.+@             ..     .. .+@@.+@             ..     .. .+@@.+@             ..     .. .+@@.+@             ..     .. .+@@.+@",
"       ......##.   .$%.#@$$.@.       ......##.   .$%.#@$$.@.       ......##.   .$%.#@$$.@.       ......##.   .$%.#@$$.@.       ......##.   .$%.#@$$.@.       ......##.   .$%.#@$$.@.       ......##.   .$%.#@$$.@.       ......##.   .$%.#@$$.@.",
"      .#$$$$$%#%. .%%%%%$$$&.       .#$$$$$%#%. .%%%%%$$$&.       .#$$$$$%#%. .%%%%%$$$&.       .#$$$$$%#%. .%%%%%$$$&.       .#$$$$$%#%. .%%%%%$$$&.       .#$$$$$%#%. .%%%%%$$$&.       .#$$$$$%#%. .%%%%%$$$&.       .#$$$$$%#%. .%%%%%$$$&. ",
"     .$#%%%%%%#%..%$%%%%$$$#$.     .$#%%%%%%#%..%$%%%%$$$#$.     .$#%%%%%%#%..%$%%%%$$$#$.     .$#%%%%%%#%..%$%%%%$$$#$.     .$#%%%%%%#%..%$%%%%$$$#$.     .$#%%%%%%#%..%$%%%%$$$#$.     .$#%%%%%%#%..%$%%%%$$$#$.     .$#%%%%%%#%..%$%%%%$$$#$.",
" .. .$$#$$$$%%%%$%%$%#%%$$$$$. .. .$$#$$$$%%%%$%%$%#%%$$$$$. .. .$$#$$$$%%%%$%%$%#%%$$$$$. .. .$$#$$$$%%%%$%%$%#%%$$$$$. .. .$$#$$$$%%%%$%%$%#%%$$$$$.  .. .$#$$$$%%%%$%%$%#%%$$$$$.   ...$#$$$$%%%%$%%$%#%%$$$$$.  .. .$#$$$$%%%%$%%$%#%%$$$$$.",
".*%..$.#%%%%%%%%$%%$%%%%$$$&$..*%..$.#%%%%%%%%$%%$%%%%$$$&$..*%..$.#%%%%%%%%$%%$%%%%$$$&$..*%..$.#%%%%%%%%$%%$%%%%$$$&$..*%..$.#%%%%%%%%$%%$%%%%$$$&$. .*%.$$#%%%%%%%%$%%$%%%%$$$&$.  .*%$$#%%%%%%%%$%%$%%%%$$$&$. .*%.$$#%%%%%%%%$%%$%%%%$$$&$.",
".*%$$$.#%%%%%%%%$%%%%%%%$$$#$..*%$$$.#%%%%%%%%$%%%%%%%$$$#$..*%$$$.#%%%%%%%%$%%%%%%%$$$#$..*%$$$.#%%%%%%%%$%%%%%%%$$$#$..*%$$$.#%%%%%%%%$%%%%%%%$$$#$. .*%$$.#%%%%%%%%$%%%%%%%$$$#$.  .*%$.#%%%%%%%%$%%%%%%%$$$#$. .*%$$.#%%%%%%%%$%%%%%%%$$$#$.",
".*%$$.$#$$$$&&#&$%%&&#&&$$$$$..*%$$.$#$$$$&&#&$%%&&#&&$$$$$..*%$$.$#$$$$&&#&$%%&&#&&$$$$$..*%$$.$#$$$$&&#&$%%&&#&&$$$$$..*%$$.$#$$$$&&#&$%%&&#&&$$$$$. .*%$$$#$$$$&&#&$%%&&#&&$$$$$.  .*%$$#$$$$&&#&$%%&&#&&$$$$$. .*%$$$#$$$$&&#&$%%&&#&&$$$$$.",
".*%..$$#%%&&&&#&..%&&&&&$$$&$..*%...$#%%&&&&#&..%&&&&&$$$&$..*%...$#%%&&&&#&..%&&&&&$$$&$..*%...$#%%&&&&#&..%&&&&&$$$&$..*%..$$#%%&&&&#&..%&&&&&$$$&$. .*%.$$#%%&&&&#&..%&&&&&$$$&$. ..*%$$#%%&&&&#&..%&&&&&$$$&$. .*%.$$#%%&&&&#&..%&&&&&$$$&$.",
".*%..$.#%%&&&##&. .&&&&&$$$#.  .*%.$$#%%&&&##&. .&&&&&$$$#.  ..*%$$#%%&&&##&. .&&&&&$$$#.  .*%.$$#%%&&&##&. .&&&&&$$$#. .*%..$.#%%&&&##&. .&&&&&$$$#. .*%..$.#%%&&&##&. .&&&&&$$$#. .*%..$.#%%&&&##&. .&&&&&$$$#. .*%..$.#%%&&&##&. .&&&&&$$$#. ",
".*%$$$..........   ....#@$$.@. .*%$$..........   ....#@$$.@.  .*%$..........   ....#@$$.@. .*%$$..........   ....#@$$.@..*%$$$..........   ....#@$$.@..*%$$$..........   ....#@$$.@..*%$$$..........   ....#@$$.@..*%$$$..........   ....#@$$.@.",
".*%$$.                 .+@@.+@ .*%$$.                .+@@.+@  .*%$.                .+@@.+@ .*%$$.                .+@@.+@.*%$$.                 .+@@.+@.*%$$.                 .+@@.+@.*%$$.                 .+@@.+@.*%$$.                 .+@@.+@",
".*%..                   ..+@.. .*%..                  ..+@..  .*%.                  ..+@.. .*%..                  ..+@...*%..                   ..+@...*%..                   ..+@...*%..                   ..+@...*%..                   ..+@..",
" ..                       ..    ..                      ..     ..                     ..    ..                      ..   ..                       ..   ..                       ..   ..                       ..   ..                       ..  ",
"                                                                                                                                                                                                                                                ",
"                                                                                                                                                                                                                                                ",
"                                                                                                                                                                                                                                                ",
"                                                                                                                                                                                                                                                ",
"                                                                                                                                                                                                                                                ",
"                                                                                                                                                                                                                                                ",
"                                                                                                                                                                                                                                                ",
"                                                                                                                                                                                                                                                ",
"                                                                                                                                                                                                                                                ",
"                                                                                                                                                                                                                                                ",
"                                                                                                                                                                                                                                                ",
"                                                                                                                                                                                                                                                ",
"                                                                                                                                                                                                                                                ",
"                                                                                                                                                                                                                                                ",
"  ..                            ..                            ..                            ..                            ..                            ..                            ..                            ..                          ",
"..@+..                        ..@+..                        ..@+..                        ..@+..                        ..@+..                        ..@+..                        ..@+..                        ..@+..                        ",
"@+.@@+. ..     ..             @+.@@+. ..     ..             @+.@@+. ..     ..             @+.@@+. ..     ..             @+.@@+. ..     ..             @+.@@+. ..     ..             @+.@@+. ..     ..             @+.@@+. ..     ..             ",
".@.$$@#.%$.   .##......       .@.$$@#.%$.   .##......       .@.$$@#.%$.   .##......       .@.$$@#.%$.   .##......       .@.$$@#.%$.   .##......       .@.$$@#.%$.   .##......       .@.$$@#.%$.   .##......       .@.$$@#.%$.   .##......       ",
" .&$$$%%%%%. .%#%$$$$$#.       .&$$$%%%%%. .%#%$$$$$#.       .&$$$%%%%%. .%#%$$$$$#.       .&$$$%%%%%. .%#%$$$$$#.       .&$$$%%%%%. .%#%$$$$$#.       .&$$$%%%%%. .%#%$$$$$#.       .&$$$%%%%%. .%#%$$$$$#.       .&$$$%%%%%. .%#%$$$$$#.      ",
".$#$$$%%%%$%..%#%%%%%%#$.     .$#$$$%%%%$%..%#%%%%%%#$.     .$#$$$%%%%$%..%#%%%%%%#$.     .$#$$$%%%%$%..%#%%%%%%#$.     .$#$$$%%%%$%..%#%%%%%%#$.     .$#$$$%%%%$%..%#%%%%%%#$.     .$#$$$%%%%$%..%#%%%%%%#$.     .$#$$$%%%%$%..%#%%%%%%#$.     ",
".$$$$$%%#%$%%$%%%%$$$$#$$. .. .$$$$$%%#%$%%$%%%%$$$$#$$. .. .$$$$$%%#%$%%$%%%%$$$$#$$. .. .$$$$$%%#%$%%$%%%%$$$$#$$. .. .$$$$$%%#%$%%$%%%%$$$$#$$. .. .$$$$$%%#%$%%$%%%%$$$$#$. ..  .$$$$$%%#%$%%$%%%%$$$$#$...   .$$$$$%%#%$%%$%%%%$$$$#$. ..  ",
".$&$$$%%%%$%%$%%%%%%%%#.$..%*..$&$$$%%%%$%%$%%%%%%%%#.$..%*..$&$$$%%%%$%%$%%%%%%%%#.$..%*..$&$$$%%%%$%%$%%%%%%%%#.$..%*..$&$$$%%%%$%%$%%%%%%%%#.$..%*..$&$$$%%%%$%%$%%%%%%%%#$$.%*. .$&$$$%%%%$%%$%%%%%%%%#$$%*.  .$&$$$%%%%$%%$%%%%%%%%#$$.%*. ",
".$#$$$%%%%%%%$%%%%%%%%#.$$$%*..$#$$$%%%%%%%$%%%%%%%%#.$$$%*..$#$$$%%%%%%%$%%%%%%%%#.$$$%*..$#$$$%%%%%%%$%%%%%%%%#.$$$%*..$#$$$%%%%%%%$%%%%%%%%#.$$$%*..$#$$$%%%%%%%$%%%%%%%%#.$$%*. .$#$$$%%%%%%%$%%%%%%%%#.$%*.  .$#$$$%%%%%%%$%%%%%%%%#.$$%*. ",
".$$$$$&&#&&%%$&#&&$$$$#$.$$%*..$$$$$&&#&&%%$&#&&$$$$#$.$$%*..$$$$$&&#&&%%$&#&&$$$$#$.$$%*..$$$$$&&#&&%%$&#&&$$$$#$.$$%*..$$$$$&&#&&%%$&#&&$$$$#$.$$%*..$$$$$&&#&&%%$&#&&$$$$#$$$%*. .$$$$$&&#&&%%$&#&&$$$$#$$%*.  .$$$$$&&#&&%%$&#&&$$$$#$$$%*. ",
".$&$$$&&&&&%..&#&&&&%%#$$..%*..$&$$$&&&&&%..&#&&&&%%#$...%*..$&$$$&&&&&%..&#&&&&%%#$...%*..$&$$$&&&&&%..&#&&&&%%#$...%*..$&$$$&&&&&%..&#&&&&%%#$$..%*..$&$$$&&&&&%..&#&&&&%%#$$.%*. .$&$$$&&&&&%..&#&&&&%%#$$%*.. .$&$$$&&&&&%..&#&&&&%%#$$.%*. ",
" .#$$$&&&&&. .&##&&&%%#.$..%*. .#$$$&&&&&. .&##&&&%%#$$.%*.  .#$$$&&&&&. .&##&&&%%#$$%*..  .#$$$&&&&&. .&##&&&%%#$$.%*.  .#$$$&&&&&. .&##&&&%%#.$..%*. .#$$$&&&&&. .&##&&&%%#.$..%*. .#$$$&&&&&. .&##&&&%%#.$..%*. .#$$$&&&&&. .&##&&&%%#.$..%*.",
".@.$$@#....   ..........$$$%*..@.$$@#....   ..........$$%*. .@.$$@#....   ..........$%*.  .@.$$@#....   ..........$$%*. .@.$$@#....   ..........$$$%*..@.$$@#....   ..........$$$%*..@.$$@#....   ..........$$$%*..@.$$@#....   ..........$$$%*.",
"@+.@@+.                 .$$%*.@+.@@+.                .$$%*. @+.@@+.                .$%*.  @+.@@+.                .$$%*. @+.@@+.                 .$$%*.@+.@@+.                 .$$%*.@+.@@+.                 .$$%*.@+.@@+.                 .$$%*.",
"..@+..                   ..%*...@+..                  ..%*. ..@+..                  .%*.  ..@+..                  ..%*. ..@+..                   ..%*...@+..                   ..%*...@+..                   ..%*...@+..                   ..%*.",
"  ..                       ..   ..                      ..    ..                     ..     ..                      ..    ..                       ..   ..                       ..   ..                       ..   ..                       .. ",
"                                                                                                                                                                                                                                                ",
"                                                                                                                                                                                                                                                ",
"                                                                                                                                                                                                                                                ",
"                                                                                                                                                                                                                                                ",
"                                                                                                                                                                                                                                                ",
"                                                                                                                                                                                                                                                ",
"                                                                                                                                                                                                                                                "};
