/* XPM */
/*
  XPenguins theme "Vaporwave" -- sprites generated procedurally.
  Released into the public domain (CC0).
*/
static char * climber_palm_xpm[] = {
"240 60 10 1",
" 	c None",
".	c #45356B",
"+	c #00A678",
"@	c #05FFA1",
"#	c #96FFD0",
"$	c #FFFB96",
"%	c #5C3780",
"&	c #925CC4",
"*	c #241B2F",
"=	c #FFC25E",
"                                                                                                                                                                                                                                                ",
"                                                .                             ...                           .                                                                                                                                   ",
"                                               .+...                         .@+@..                        .+...                                                                                                                                ",
"                  ...                          .@.@+...                       ..@+@. .                     .@.@+...                       ...                                                                                                   ",
"                 .@+@...                        . .@+@+..                       ...+.@...                   . .@+@+..                    .@+@...                                                                                                ",
"                  ...@+@. .                        ..@.@+..                   ..   .++.@#.                     ..@.@+..                   ...@+@. .                      . ..                           .                            . ..       ",
"                     ...+.@...                  . .. .+@.@#.                 .++.....+@+@#                  . .. .+@.@#.                     ...+.@...                  .@.@+...                       .+.. .                       .@.@+...    ",
"                  ...   .++.@#                 .@.@+...+@.@#                 .@.@+@+..+@+#                 .@.@+...+@.@#                  ...   .++.@#                   . .@+@+....                  .@.@+.@...                     . .@+@+....",
"                 .@+@.....+@+#                  . .@+@+@+@+#                  . ...@.@+@+#                  . .@+@+@+@+#                 .@+@.....+@+#                   .  ..@+@+@#                   . ...@+@+..                   .  ..@+@+@#",
"                  ...@+@+.@+@@                     ...+@.+@@                       .+@+@+#                     ...+@.+@@                  ...@+@+.@+@@                  .+.......+@@                   .... .+@+@#                  .+.......+@@",
"                   . ....+@+@+                ......  .++@@#             .........  ..+++#                ......  .++@@#                   . ....+@+@+                  .@.@++@+.+@@                  .@+@+.+...++                  .@.@++@+.+@@",
"       ............$...  .+@+#       .........%%%$%%.  .+@@#       ......%%%%%%$%%..+@+@##       .........%%%$%%.  .+@@#       ............$...  .+@+#       .........  .$....@+@+++       ......     .$..@.@+@++@       .........  .$....@+@+++",
"      .&%%%%%%%%%%%%%%+..+@+@#      .&%%%%%%%%&%&&%&+..+@+@#      .&%%%%%&%&&%&&%&++@+@#.#      .&%%%%%%%%&%&&%&+..+@+@#      .&%%%%%%%%%%%%%%+..+@+@#      .&%%%%%%%%......+...++@@      .&%%%%%.........+....+@@      .&%%%%%%%%......+...++@@",
" ..  .&&%&&%&&%&&%&&%++++@@@## ..  .&&%&&%&&%&&&&&&+++@+@#@# ..  .&&%&&%&&&&&&&&&+++@@@@#. ..  .&&%&&%&&%&&&&&&+++@+@#@# ..  .&&%&&%&&%&&%&&%++++@@@##  .. .&&%&&%&&%&%%%%%++++@+@#@   .. .&%&&%&%%%%%%%%+++.++@@#  .. .&&%&&%&&%&%%%%%++++@+@#@",
".*%...&.&&&&&&&&&&&&+++++@.+++.*%...&.&&&&&&&&&%@&+++++@+@##.*%...&.&&&&&&%&&%@++++++@@@##.*%...&.&&&&&&&&&%@&+++++@+@##.*%...&.&&&&&&&&&&&&+++++@.+++ .*%..&.&&&&&&&&&%&&+++++@@@#.  .*%.&&&&&&&&%&&%&&++++++@.@# .*%..&.&&&&&&&&&%&&+++++@@@#.",
".*%&&&&.%&&%&&%&&%@+@+++++@@@#.*%&&&&.%&&%&&%&%%%%%+++.+.....*%&&&&.%&&%&%%%%%%%%+++@+.....*%&&&&.%&&%&&%&%%%%%+++.+.....*%&&&&.%&&%&&%&&%@+@+++++@@@# .*%&&&.%&&%&&%&&&&&&++++@++++  .*%&&.%&&%&&&&&&&&&+++@+++@+ .*%&&&.%&&%&&%&&&&&&++++@++++",
".*%&&&.&%%%%%%%%%%=%%%+.++@++#.*%&&&.&%%%%%%%%..=...++@+++@#.*%&&&.&%%%%%.....=...+++@++#..*%&&&.&%%%%%%%%..=...++@+++@#.*%&&&.&%%%%%%%%%%=%%%+.++@++# .*%&&.&%%%%%%%%&%=+%+++@+@+@#  .*%&&&%%%%%&%&&%=&+++.++@+@# .*%&&.&%%%%%%%%&%=+%+++@+@+@#",
".*%...&&...........=... .+++@+.*%...&&........  .=. ...++@+#.*%....&.....     .=. ..+@+@+#.*%...&&........  .=. ...++@+#.*%...&&...........=... .+++@+ .*%..&&........%%%=%@....++++ ..*%.&&.....%%%%%%=%@@.@.@+@+ .*%..&&........%%%=%@....++++",
".*%...&.           .     .+++@ .*%..&.           .    ..+++# ..*%.&&.          .  ....+++# .*%..&.           .    ..+++#.*%...&.           .     .+++@.*%...&.        ......    .+++.*%...&.     .......... . .++@.*%...&.        ......    .+++",
".*%&&&&.              ....+@+# .*%&&&.          . ....+@+@##  .*%&&.          ....++++@@## .*%&&&.          . ....+@+@##.*%&&&&.              ....+@+#.*%&&&&.                 ..++@.*%&&&&.                 ...++.*%&&&&.                 ..++@",
".*%&&&.           ....++++@+@# .*%&&.          .+.+++@.@+++#  .*%&&.         .++@+@@.@++.# .*%&&.          .+.+++@.@+++#.*%&&&.           ....++++@+@#.*%&&&.              ....+@+@#.*%&&&.               . .+@+@#.*%&&&.              ....+@+@#",
".*%...           .@+@@.@..+@+# .*%..           .@.@....++.@#  .*%..          .@.@...++@@## .*%..           .@.@....++.@#.*%...           .@+@@.@..+@+#.*%...             ..+++@.@++@.*%...             ...+.++@.+@.*%...             ..+++@.@++@",
" ..               ......++@.@#  ..              . ..+@+@.@#.   ..             ....++.@....  ..              . ..+@+@.@#. ..               ......++@.@# ..               .@.@@.@+@+@# ..               .@+@@.@..+@@ ..               .@.@@.@+@+@#",
"                  ....++@.@...                  ..++.@.. ..                  .++@+@. .                      ..++.@.. ..                   ....++@.@...                   . ..+@+@...                   .....++@.@#                   . ..+@+@...",
"                 .@+@@.@. .                    .@.@. .                       .@.@..                        .@.@. .                       .@+@@.@. .                     .+.++.@..                      ..++.@.. ..                  .+.++.@..   ",
"                  .... .                        . .                           . .                           . .                           .... .                        .@.@. .                       .@+@. .                       .@.@. .     ",
"                                                                                                                                                                         . .                           ...                           . .        ",
"                                                                                                                                                                                                                                                ",
"                                                                                                                                                                                                                                                ",
"                                                                                                                                                                                                                                                ",
"                                                                                                                                                                                                                                                ",
"                                         .                           ...                             .                                                                                                                                          ",
"                                      ...+.                        ..@+@.                         ...+.                                                                                                                                         ",
"         ...                       ...+@.@.                     . .@+@..                       ...+@.@.                          ...                                                                                                            ",
"      ...@+@.                    ..+@+@. .                   ...@.+...                       ..+@+@. .                        ...@+@.                                                                                                           ",
"   . .@+@...                   ..+@.@..                     .#@.++.   ..                   ..+@.@..                        . .@+@...                         .. .                            .                           .. .                   ",
"...@.+...                     .#@.@+. .. .                  #@+@+.....++.                 .#@.@+. .. .                  ...@.+...                         ...+@.@.                       . ..+.                       ...+@.@.                  ",
"#@.++.   ...                  #@.@+...+@.@.                 #+@+..+@+@.@.                 #@.@+...+@.@.                 #@.++.   ...                  ....+@+@. .                     ...@.+@.@.                  ....+@+@. .                   ",
"#+@+.....@+@.                 #+@+@+@+@. .                  #+@+@.@... .                  #+@+@+@+@. .                  #+@+.....@+@.                 #@+@+@..  .                   ..+@+@... .                   #@+@+@..  .                   ",
"@@+@.+@+@...                  @@+.@+...                     #+@+@+.                       @@+.@+...                     @@+@.+@+@...                  @@+.......+.                  #@+@+. ....                   @@+.......+.                  ",
"+@+@+.... .                   #@@++.  ......                #+++..  .........             #@@++.  ......                +@+@+.... .                   @@+.+@++@.@.                  ++...+.+@+@.                  @@+.+@++@.@.                  ",
"#+@+.  ...$............       #@@+.  .%%$%%%.........       ##@+@+..%%$%%%%%%......       #@@+.  .%%$%%%.........       #+@+.  ...$............       +++@+@....$.  .........       @++@+@.@..$.     ......       +++@+@....$.  .........       ",
"#@+@+..+%%%%%%%%%%%%%%&.      #@+@+..+&%&&%&%%%%%%%%&.      #.#@+@++&%&&%&&%&%%%%%&.      #@+@+..+&%&&%&%%%%%%%%&.      #@+@+..+%%%%%%%%%%%%%%&.      @@++...+......%%%%%%%%&.      @@+....+.........%%%%%&.      @@++...+......%%%%%%%%&.      ",
"##@@@++++%&&%&&%&&%&&%&&.  .. #@#@+@+++&&&&&&%&&%&&%&&.  .. .#@@@@+++&&&&&&&&&%&&%&&.  .. #@#@+@+++&&&&&&%&&%&&%&&.  .. ##@@@++++%&&%&&%&&%&&%&&.  .. @#@+@++++%%%%%&%&&%&&%&&. ..  #@@++.+++%%%%%%%%&%&&%&. ..   @#@+@++++%%%%%&%&&%&&%&&. ..  ",
"+++.@+++++&&&&&&&&&&&&.&...%*.##@+@+++++&@%&&&&&&&&&.&...%*.##@@@++++++@%&&%&&&&&&.&...%*.##@+@+++++&@%&&&&&&&&&.&...%*.+++.@+++++&&&&&&&&&&&&.&...%*..#@@@+++++&&%&&&&&&&&&.&..%*. #@.@++++++&&%&&%&&&&&&&&.%*.  .#@@@+++++&&%&&&&&&&&&.&..%*. ",
"#@@@+++++@+@%&&%&&%&&%.&&&&%*.....+.+++%%%%%&%&&%&&%.&&&&%*.....+@+++%%%%%%%%&%&&%.&&&&%*.....+.+++%%%%%&%&&%&&%.&&&&%*.#@@@+++++@+@%&&%&&%&&%.&&&&%*.++++@++++&&&&&&%&&%&&%.&&&%*. +@+++@+++&&&&&&&&&%&&%.&&%*.  ++++@++++&&&&&&%&&%&&%.&&&%*. ",
"#++@++.+%%%=%%%%%%%%%%&.&&&%*.#@+++@++...=..%%%%%%%%&.&&&%*..#++@+++...=.....%%%%%&.&&&%*.#@+++@++...=..%%%%%%%%&.&&&%*.#++@++.+%%%=%%%%%%%%%%&.&&&%*.#@+@+@+++%+=%&%%%%%%%%&.&&%*. #@+@++.+++&=%&&%&%%%%%&&&%*.  #@+@+@+++%+=%&%%%%%%%%&.&&%*. ",
"+@+++. ...=...........&&...%*.#+@++... .=.  ........&&...%*.#+@+@+.. .=.     .....&....%*.#+@++... .=.  ........&&...%*.+@+++. ...=...........&&...%*.++++....@%=%%%........&&..%*. +@+@.@.@@%=%%%%%%.....&&.%*.. ++++....@%=%%%........&&..%*. ",
"@+++.     .           .&...%*.#+++..    .           .&..%*. #+++....  .          .&&.%*.. #+++..    .           .&..%*. @+++.     .           .&...%*.+++.    ......        .&...%*.@++. . ..........     .&...%*.+++.    ......        .&...%*.",
"#+@+....              .&&&&%*.##@+@+.... .          .&&&%*. ##@@++++....          .&&%*.  ##@+@+.... .          .&&&%*. #+@+....              .&&&&%*.@++..                 .&&&&%*.++...                 .&&&&%*.@++..                 .&&&&%*.",
"#@+@++++....           .&&&%*.#+++@.@+++.+.          .&&%*. #.++@.@@+@++.         .&&%*.  #+++@.@+++.+.          .&&%*. #@+@++++....           .&&&%*.#@+@+....              .&&&%*.#@+@+. .               .&&&%*.#@+@+....              .&&&%*.",
"#+@+..@.@@+@.           ...%*.#@.++....@.@.           ..%*. ##@@++...@.@.          ..%*.  #@.++....@.@.           ..%*. #+@+..@.@@+@.           ...%*.@++@.@+++..             ...%*.@+.@++.+...             ...%*.@++@.@+++..             ...%*.",
"#@.@++......               .. .#@.@+@+.. .              ..  ....@.++....             ..   .#@.@+@+.. .              ..  #@.@++......               .. #@+@+@.@@.@.               .. @@+..@.@@+@.               .. #@+@+@.@@.@.               .. ",
"...@.@++....                   .. ..@.++..                      . .@+@++.                  .. ..@.++..                  ...@.@++....                  ...@+@+.. .                   #@.@++.....                   ...@+@+.. .                   ",
"   . .@.@@+@.                       . .@.@.                        ..@.@.                       . .@.@.                    . .@.@@+@.                    ..@.++.+.                  .. ..@.++..                      ..@.++.+.                  ",
"      . ....                           . .                           . .                           . .                        . ....                       . .@.@.                       . .@+@.                       . .@.@.                  ",
"                                                                                                                                                              . .                           ...                           . .                   ",
"                                                                                                                                                                                                                                                ",
"                                                                                                                                                                                                                                                ",
"                                                                                                                                                                                                                                                "};
