/* XPM */
/*
  XPenguins theme "Vaporwave" -- sprites generated procedurally.
  Released into the public domain (CC0).
*/
static char * climber_car_xpm[] = {
"240 60 14 1",
" 	c None",
".	c #45356B",
"+	c #FE4450",
"@	c #FFFB96",
"#	c #A8213E",
"$	c #241B2F",
"%	c #FF8D8A",
"&	c #1C1526",
"*	c #9D86C4",
"=	c #E8D9FF",
"-	c #01CDFE",
";	c #7BF1E8",
">	c #FF71CE",
",	c #FF9EDE",
"        ...                           ...                           ...                           ...                           ...                           ...                           ...                           ...                   ",
"       .++@.                         .++@.                         .++@.                         .++@.                         .++@.                         .++@.                         .++@.                         .++@.                  ",
"      .#++@.                        .#++@.                        .#++@.                        .#++@.                        .#++@.                        .#++@.                        .#++@.                        .#++@.                  ",
"  .....#++@.                    .....#++@.                    .....#++@.                    .....#++@.                    .....#++@.                    .....#++@.                    .....#++@.                    .....#++@.                  ",
" .$$$$$#+@%.                   .$$$$$#+@%.                   .$$$$$#+@%.                   .$$$$$#+@%.                   .$$$$$#+@%.                   .$$$$$#+@%.                   .$$$$$#+@%.                   .$$$$$#+@%.                  ",
".$$&*&$$+@%+.                 .$$*&&$$+@%+.                 .$$&&&$$+@%+.                 .$$&&&$$+@%+.                 .$$&&&$$+@%+.                 .$$&&&$$+@%+.                 .$$&&*$$+@%+.                 .$$&*&$$+@%+.                 ",
".$&&*&&$+@%+.                 .$&&&&&$+@%+.                 .$*&&&&$+@%+.                 .$&&&&&$+@%+.                 .$&&&&&$+@%+.                 .$&&&&*$+@%+.                 .$&&&&&$+@%+.                 .$&&&&&$+@%+.                 ",
".$&&=&&$+@%+.                 .$&&=&&$+@%+.                 .$&&=&&$+@%+.                 .$*&=&*$+@%+.                 .$*&=&*$+@%+.                 .$&&=&&$+@%+.                 .$&&=&&$+@%+.                 .$&&=&&$+@%+.                 ",
".$&&*&&$+@%++.                .$&&&&&$+@%++.                .$&&&&*$+@%++.                .$&&&&&$+@%++.                .$&&&&&$+@%++.                .$*&&&&$+@%++.                .$&&&&&$+@%++.                .$&&&&&$+@%++.                ",
".$$&*&$$+@%+-.                .$$&&*$$+@%+-.                .$$&&&$$+@%+-.                .$$&&&$$+@%+-.                .$$&&&$$+@%+-.                .$$&&&$$+@%+-.                .$$*&&$$+@%+-.                .$$&*&$$+@%+-.                ",
" .$$$$$#+@++--.                .$$$$$#+@++--.                .$$$$$#+@++--.                .$$$$$#+@++--.                .$$$$$#+@++--.                .$$$$$#+@++--.                .$$$$$#+@++--.                .$$$$$#+@++--.               ",
"  .....#+@+++--.                .....#+@+++--.                .....#+@+++--.                .....#+@+++--.                .....#+@+++--.                .....#+@+++--.                .....#+@+++--.                .....#+@+++--.              ",
"      .#+@++++-+.                   .#+@++++-+.                   .#+@++++-+.                   .#+@++++-+.                   .#+@++++-+.                   .#+@++++-+.                   .#+@++++-+.                   .#+@++++-+.             ",
"      .#+@++++-;%.                  .#+@++++-;%.                  .#+@++++-;%.                  .#+@++++-;%.                  .#+@++++-;%.                  .#+@++++-;%.                  .#+@++++-;%.                  .#+@++++-;%.            ",
"      .#+@++++-;%.                  .#+@++++-;%.                  .#+@++++-;%.                  .#+@++++-;%.                  .#+@++++-;%.                  .#+@++++-;%.                  .#+@++++-;%.                  .#+@++++-;%.            ",
"      .#+@++++-;%.                  .#+@++++-;%.                  .#+@++++-;%.                  .#+@++++-;%.                  .#+@++++-;%.                  .#+@++++-;%.                  .#+@++++-;%.                  .#+@++++-;%.            ",
"      .#+@++++-;%.                  .#+@++++-;%.                  .#+@++++-;%.                  .#+@++++-;%.                  .#+@++++-;%.                  .#+@++++-;%.                  .#+@++++-;%.                  .#+@++++-;%.            ",
"  .....#+@++++-;%.              .....#+@++++-;%.              .....#+@++++-;%.              .....#+@++++-;%.              .....#+@++++-;%.              .....#+@++++-;%.              .....#+@++++-;%.              .....#+@++++-;%.            ",
" .$$$$$#+@++++-;%.             .$$$$$#+@++++-;%.             .$$$$$#+@++++-;%.             .$$$$$#+@++++-;%.             .$$$$$#+@++++-;%.             .$$$$$#+@++++-;%.             .$$$$$#+@++++-;%.             .$$$$$#+@++++-;%.            ",
".$$&*&$$+@++++++.             .$$*&&$$+@++++++.             .$$&&&$$+@++++++.             .$$&&&$$+@++++++.             .$$&&&$$+@++++++.             .$$&&&$$+@++++++.             .$$&&*$$+@++++++.             .$$&*&$$+@++++++.             ",
".$&&*&&$+@++++-.              .$&&&&&$+@++++-.              .$*&&&&$+@++++-.              .$&&&&&$+@++++-.              .$&&&&&$+@++++-.              .$&&&&*$+@++++-.              .$&&&&&$+@++++-.              .$&&&&&$+@++++-.              ",
".$&&=&&$+@++++.               .$&&=&&$+@++++.               .$&&=&&$+@++++.               .$*&=&*$+@++++.               .$*&=&*$+@++++.               .$&&=&&$+@++++.               .$&&=&&$+@++++.               .$&&=&&$+@++++.               ",
".$&&*&&$+@++++.               .$&&&&&$+@++++.               .$&&&&*$+@++++.               .$&&&&&$+@++++.               .$&&&&&$+@++++.               .$*&&&&$+@++++.               .$&&&&&$+@++++.               .$&&&&&$+@++++.               ",
" .$&*&$$+@++++.                .$&&*$$+@++++.                .$&&&$$+@++++.                .$&&&$$+@++++.                .$&&&$$+@++++.                .$&&&$$+@++++.                .$*&&$$+@++++.                .$&*&$$+@++++.               ",
" .$$$$$#+@++++#.               .$$$$$#+@++++#.               .$$$$$#+@++++#.               .$$$$$#+@++++#.               .$$$$$#+@++++#.               .$$$$$#+@++++#.               .$$$$$#+@++++#.               .$$$$$#+@++++#.              ",
"  .....#+++++.#.                .....#+++++.#.                .....#+++++.#.                .....#+++++.#.                .....#+++++.#.                .....#+++++.#.                .....#+++++.#.                .....#+++++.#.              ",
"      .#+++>+.#.                    .#+++>+.#.                    .#+++>+.#.                    .#+++>+.#.                    .#+++>+.#.                    .#+++>+.#.                    .#+++>+.#.                    .#+++>+.#.              ",
"       .++,>..#.                     .++,>..#.                     .++,>..#.                     .++,>..#.                     .++,>..#.                     .++,>..#.                     .++,>..#.                     .++,>..#.              ",
"        ....  .                       ....  .                       ....  .                       ....  .                       ....  .                       ....  .                       ....  .                       ....  .               ",
"                                                                                                                                                                                                                                                ",
"                   ...                           ...                           ...                           ...                           ...                           ...                           ...                           ...        ",
"                  .@++.                         .@++.                         .@++.                         .@++.                         .@++.                         .@++.                         .@++.                         .@++.       ",
"                  .@++#.                        .@++#.                        .@++#.                        .@++#.                        .@++#.                        .@++#.                        .@++#.                        .@++#.      ",
"                  .@++#.....                    .@++#.....                    .@++#.....                    .@++#.....                    .@++#.....                    .@++#.....                    .@++#.....                    .@++#.....  ",
"                  .%@+#$$$$$.                   .%@+#$$$$$.                   .%@+#$$$$$.                   .%@+#$$$$$.                   .%@+#$$$$$.                   .%@+#$$$$$.                   .%@+#$$$$$.                   .%@+#$$$$$. ",
"                 .+%@+$$&*&$$.                 .+%@+$$&&*$$.                 .+%@+$$&&&$$.                 .+%@+$$&&&$$.                 .+%@+$$&&&$$.                 .+%@+$$&&&$$.                 .+%@+$$*&&$$.                 .+%@+$$&*&$$.",
"                 .+%@+$&&*&&$.                 .+%@+$&&&&&$.                 .+%@+$&&&&*$.                 .+%@+$&&&&&$.                 .+%@+$&&&&&$.                 .+%@+$*&&&&$.                 .+%@+$&&&&&$.                 .+%@+$&&&&&$.",
"                 .+%@+$&&=&&$.                 .+%@+$&&=&&$.                 .+%@+$&&=&&$.                 .+%@+$*&=&*$.                 .+%@+$*&=&*$.                 .+%@+$&&=&&$.                 .+%@+$&&=&&$.                 .+%@+$&&=&&$.",
"                .++%@+$&&*&&$.                .++%@+$&&&&&$.                .++%@+$*&&&&$.                .++%@+$&&&&&$.                .++%@+$&&&&&$.                .++%@+$&&&&*$.                .++%@+$&&&&&$.                .++%@+$&&&&&$.",
"                .-+%@+$$&*&$$.                .-+%@+$$*&&$$.                .-+%@+$$&&&$$.                .-+%@+$$&&&$$.                .-+%@+$$&&&$$.                .-+%@+$$&&&$$.                .-+%@+$$&&*$$.                .-+%@+$$&*&$$.",
"               .--++@+#$$$$$.                .--++@+#$$$$$.                .--++@+#$$$$$.                .--++@+#$$$$$.                .--++@+#$$$$$.                .--++@+#$$$$$.                .--++@+#$$$$$.                .--++@+#$$$$$. ",
"              .--+++@+#.....                .--+++@+#.....                .--+++@+#.....                .--+++@+#.....                .--+++@+#.....                .--+++@+#.....                .--+++@+#.....                .--+++@+#.....  ",
"             .+-++++@+#.                   .+-++++@+#.                   .+-++++@+#.                   .+-++++@+#.                   .+-++++@+#.                   .+-++++@+#.                   .+-++++@+#.                   .+-++++@+#.      ",
"            .%;-++++@+#.                  .%;-++++@+#.                  .%;-++++@+#.                  .%;-++++@+#.                  .%;-++++@+#.                  .%;-++++@+#.                  .%;-++++@+#.                  .%;-++++@+#.      ",
"            .%;-++++@+#.                  .%;-++++@+#.                  .%;-++++@+#.                  .%;-++++@+#.                  .%;-++++@+#.                  .%;-++++@+#.                  .%;-++++@+#.                  .%;-++++@+#.      ",
"            .%;-++++@+#.                  .%;-++++@+#.                  .%;-++++@+#.                  .%;-++++@+#.                  .%;-++++@+#.                  .%;-++++@+#.                  .%;-++++@+#.                  .%;-++++@+#.      ",
"            .%;-++++@+#.                  .%;-++++@+#.                  .%;-++++@+#.                  .%;-++++@+#.                  .%;-++++@+#.                  .%;-++++@+#.                  .%;-++++@+#.                  .%;-++++@+#.      ",
"            .%;-++++@+#.....              .%;-++++@+#.....              .%;-++++@+#.....              .%;-++++@+#.....              .%;-++++@+#.....              .%;-++++@+#.....              .%;-++++@+#.....              .%;-++++@+#.....  ",
"            .%;-++++@+#$$$$$.             .%;-++++@+#$$$$$.             .%;-++++@+#$$$$$.             .%;-++++@+#$$$$$.             .%;-++++@+#$$$$$.             .%;-++++@+#$$$$$.             .%;-++++@+#$$$$$.             .%;-++++@+#$$$$$. ",
"             .++++++@+$$&*&$$.             .++++++@+$$&&*$$.             .++++++@+$$&&&$$.             .++++++@+$$&&&$$.             .++++++@+$$&&&$$.             .++++++@+$$&&&$$.             .++++++@+$$*&&$$.             .++++++@+$$&*&$$.",
"              .-++++@+$&&*&&$.              .-++++@+$&&&&&$.              .-++++@+$&&&&*$.              .-++++@+$&&&&&$.              .-++++@+$&&&&&$.              .-++++@+$*&&&&$.              .-++++@+$&&&&&$.              .-++++@+$&&&&&$.",
"               .++++@+$&&=&&$.               .++++@+$&&=&&$.               .++++@+$&&=&&$.               .++++@+$*&=&*$.               .++++@+$*&=&*$.               .++++@+$&&=&&$.               .++++@+$&&=&&$.               .++++@+$&&=&&$.",
"               .++++@+$&&*&&$.               .++++@+$&&&&&$.               .++++@+$*&&&&$.               .++++@+$&&&&&$.               .++++@+$&&&&&$.               .++++@+$&&&&*$.               .++++@+$&&&&&$.               .++++@+$&&&&&$.",
"               .++++@+$$&*&$.                .++++@+$$*&&$.                .++++@+$$&&&$.                .++++@+$$&&&$.                .++++@+$$&&&$.                .++++@+$$&&&$.                .++++@+$$&&*$.                .++++@+$$&*&$. ",
"              .#++++@+#$$$$$.               .#++++@+#$$$$$.               .#++++@+#$$$$$.               .#++++@+#$$$$$.               .#++++@+#$$$$$.               .#++++@+#$$$$$.               .#++++@+#$$$$$.               .#++++@+#$$$$$. ",
"              .#.+++++#.....                .#.+++++#.....                .#.+++++#.....                .#.+++++#.....                .#.+++++#.....                .#.+++++#.....                .#.+++++#.....                .#.+++++#.....  ",
"              .#.+>+++#.                    .#.+>+++#.                    .#.+>+++#.                    .#.+>+++#.                    .#.+>+++#.                    .#.+>+++#.                    .#.+>+++#.                    .#.+>+++#.      ",
"              .#..>,++.                     .#..>,++.                     .#..>,++.                     .#..>,++.                     .#..>,++.                     .#..>,++.                     .#..>,++.                     .#..>,++.       ",
"               .  ....                       .  ....                       .  ....                       .  ....                       .  ....                       .  ....                       .  ....                       .  ....        ",
"                                                                                                                                                                                                                                                "};
