/* XPM */
/*
  XPenguins theme "Vaporwave" -- sprites generated procedurally.
  Released into the public domain (CC0).
*/
static char * exit_dolphin_xpm[] = {
"240 30 7 1",
" 	c None",
".	c #45356B",
"+	c #7BF1E8",
"@	c #01CDFE",
"#	c #241B2F",
"$	c #FFFFFF",
"%	c #E8D9FF",
"                                                                                                                                                                                                                                                ",
"                                                                                                                                                                                                                                                ",
"                                                                                                                                                                                                                                                ",
"                                                                                                                                                                                                                                                ",
"                                                                                                                                                                                                                                                ",
"                                                                                                                                                                                                                                                ",
"                                             .                                                                                                                                                                                                  ",
"               .                            .+.                                                                                                                                                                                                 ",
"              .+.                          .+@+.                          .+.                                                                                                                                                                   ",
"             .+@+.             .         ...@@@.                         .+@+.                                                                                                                                                                  ",
" .         ...@@@.            .+.      ..+++@@@+...          .         ...@@@.                          .+.                                                                                                                                     ",
".+.      ..+++@@@+...         .@+.    .++@@@@@@@+++..       .+.      ..+++@@@+...                      .+@+.                                                                                                                                    ",
".@+.    .++@@@@@@@+++..       .@@+. ..+@@@@@@@@@@@@++....   .@+.    .++@@@@@@@+++..       .+.      ..+++@@@+...                       .+.                                                                                                       ",
".@@+. ..+@@@@@@@@@@@@++....   .@@@+.++@@@@@@@@@@@@@@#++++.. .@@+. ..+@@@@@@@@@@@@++....   .@+.    .++@@@@@@@+++..        .         ...@@@.                                                                                                      ",
".@@@+.++@@@@@@@@@@@@@@#++++.. .@@@@+@@@@@@@@@@@@@@@@@@@@@++..@$$$$$$$$$$$$$$$$$$$$$$$$$$$ .@@@$$$$$$$$$$$$$$$$$$$$$$$.. .@+. $$$$$$$$$$$$$$$$$$$$$     .    $$$$$$$$$$$$$$$$$$$            $$$$$$$$$$$$$$$$$                    $$$             ",
".@@%%%%%%%%%%%%%%%%%%%%%%%%++. ..%%%%%%%%%%%%%%%%%%%%%%%%++..@%%%%%%%%%%%%%%%%%%%%%%%%%%%..@@@%%%%%%%%%%%%%%%%%%%%%%%++..@@@+%%%%%%%%%%%%%%%%%%%%%+.. .@@@@+%%%%%%%%%%%%%%%%%%%@@++. .     %%%%%%%%%%%%%%%%%                   %$$$%            ",
" ....+%%%%@@@@@@@@@@%%%@@@@++..@@@@.++%%%%%%%%%%%%%%%@%%%%.  ....+%%%%@@@@@@@@@@%%%@@@@++..@@@@.++%%%%%%%%%%%%%%%@%%%%. .@@@@.++%%%%%%%%%%%%%%%@%%%%. .@@+.   .++%%%%%+++++..                                                                   ",
".@@@@.++%%%%%%%%%%%%%%%@%%%%. .@@@+...+%%%%%%%++++%++.....  .@@@@.++%%%%%%%%%%%%%%%@%%%%. .@@@+...+%%%%%%%++++%++.....  .@@+.   .++%%%%%+++++..                                                                                                 ",
".@@@+...+%%%%%%%++++%++.....  .@@+.   .++%%%%%+++++..       .@@@+...+%%%%%%%++++%++.....  .@+.     ..++++++++..         .+.        .....++.                                                                                                     ",
".@@+.   .++%%%%%+++++..       .@+.     ..++++++++..         .@@+.   .++%%%%%+++++..       .+.        .....++.                                                                                                                                   ",
".@+.     ..++++++++..         .+.        .....++.           .@+.     ..++++++++..                                                                                                                                                               ",
".+.        .....++.            .              ..            .+.        .....++.                                                                                                                                                                 ",
" .              ..                                                                                                                                                                                                                              ",
"                                                                                                                                                                                                                                                ",
"                                                                                                                                                                                                                                                ",
"                                                                                                                                                                                                                                                ",
"                                                                                                                                                                                                                                                ",
"                                                                                                                                                                                                                                                ",
"                                                                                                                                                                                                                                                ",
"                                                                                                                                                                                                                                                "};
