/* XPM */
/*
  XPenguins theme "Vaporwave" -- sprites generated procedurally.
  Released into the public domain (CC0).
*/
static char * explosion_xpm[] = {
"320 40 6 1",
" 	c None",
".	c #FF71CE",
"+	c #B967FF",
"@	c #FFFB96",
"#	c #01CDFE",
"$	c #E8D9FF",
"                                                                                                                                                                                                                                                                                                                                ",
"                                                                                                                                                                                                                                                                                                                                ",
"                                                                                                                                                                                                                                                                                                                                ",
"                                                                                                                                                                                                                                                                                                                                ",
"                                                                                                                                                                                                                                                                                                       .         +              ",
"                                                                                                                                                                                                                                                               @         #                             .         +              ",
"                                                                                                                                                                                                                        +       .                               @       #                                                       ",
"                                                                                                                                                                                    +                                                                           @       #                                                       ",
"                                                                                                                                                                                #   +   @                               +       .                                                                                               ",
"                                                                                                                                        .   #   +                               #   +   @                               +       .                                                                                               ",
"                                                                                                    .                                    .  #  +                            .    #  +  @    .                                                                                                 +                           .     ",
"                                                                                                 @  .  #                             @      #      @                         .   #     @   .                                                           #                         @              +                       .       ",
"                                                         +  @  .                              +  @  .  #  +                           @  .  #  +  @                       @   .           .   #                 . .                   + +                #                     @                                                ",
"                  # $ @                                #  + @ .  #                             +  @ . #  +                         +      .   +      .                     @                 #                     .                 +                                                                                          ",
"                .$$$$$$$.                               # + @ . #                           #   + @ . # +   @                       +  @         @  .                       @               #                                                                                                                                   ",
"                $$$$@$$$$                            .    + $ .    +                         #   +     +   @                          +           .                                                                                                                                                                             ",
"              @$$@@@@@@@$$#                           .  $$$$$$$  +                           #           @                      #                     #                ++                     ++                                                                                                                               ",
"              $$@@@@@@@@@$$                         @   $$$$@$$$$   @                      ..  #    $    @  ..                    # #               # #                   ++                 ++                                                                                                                                 ",
"             +$$@@@@@@@@@$$+                         @@@$$@@@@@$$@@@                         ..   $$$$$   ..                         #             #                                                                                                                                                                            ",
"              $$@@@@@@@@@$$                             $$@@@@@$$                                 $$@$$                                     $                                                                                                                                                                                   ",
"             $$@@@@@@@@@@@$$                        +++$$@@@@@@@$$...                     @@@@@  $$@@@$$  #####                  ....      $$$      ++++               ####                   @@@@            +++                       ...         @@ @                         # ##      . .                             + +  ",
"              $$@@@@@@@@@$$                             $$@@@@@$$                                 $$@$$                                     $                                                                                                                                                                                   ",
"             .$$@@@@@@@@@$$.                         ###$$@@@@@$$###                         ++   $$$$$   ++                         @             @                                                                                                                                                                            ",
"              $$@@@@@@@@@$$                         #   $$$$@$$$$   #                      ++  #    $    @  ++                    @ @               @ @                   ..                 ..                                                                                                                                 ",
"              @$$@@@@@@@$$#                           .  $$$$$$$  +                           #           @                      @                     @                ..                     ..                                                                                                                               ",
"                $$$$@$$$$                            .    + $ .    +                         #   .     .   @                          +           .                                                                                                                                                                             ",
"                +$$$$$$$+                               @ + # . @                           #   . @ + # .   @                       +  #         #  .                       @               #                                                                                                                                   ",
"                  # $ @                                @  + # .  @                             .  @ + #  .                         +      .   +      .                     @                 #                     .                 +                                                                                          ",
"                                                         +  #  .                              .  @  +  #  .                           #  .  @  +  #                       @   +           +   #                 . .                   + +                #                     @                                                ",
"                                                                                                 @  +  #                             #      @      #                         +   #     @   +                                                           #                         @              +                       .       ",
"                                                                                                    +                                    .  @  +                            +    #  .  @    +                                                                                                 +                           .     ",
"                                                                                                                                        .   @   +                               #   .   @                               +       .                                                                                               ",
"                                                                                                                                                                                #   .   @                               +       .                                                                                               ",
"                                                                                                                                                                                    .                                                                           @       #                                                       ",
"                                                                                                                                                                                                                        +       .                               @       #                                                       ",
"                                                                                                                                                                                                                                                               @         #                             .         +              ",
"                                                                                                                                                                                                                                                                                                       .         +              ",
"                                                                                                                                                                                                                                                                                                                                ",
"                                                                                                                                                                                                                                                                                                                                ",
"                                                                                                                                                                                                                                                                                                                                "};
