/* XPM */
/*
  XPenguins theme "Vaporwave" -- sprites generated procedurally.
  Released into the public domain (CC0).
*/
static char * faller_xpm[] = {
"240 30 11 1",
" 	c None",
".	c #241B2F",
"+	c #C7B3E8",
"@	c #45356B",
"#	c #6F5A94",
"$	c #2B1B3D",
"%	c #FE4450",
"&	c #E8D9FF",
"*	c #FFFB96",
"=	c #9D86C4",
"-	c #05FFA1",
"                                                                                                                                                                                                                                                ",
"                                                                                                                                                                                                                                                ",
"       ................              ................              ................              ................              ................              ................              ................              ................       ",
"      .++++++++++++++++.            .++++++++++++++++.            .++++++++++++++++.            .++++++++++++++++.            .++++++++++++++++.            .++++++++++++++++.            .++++++++++++++++.            .++++++++++++++++.      ",
"     .+@@@@@@@@@@@@@@@@#.          .+@@@@@@@@@@@@@@@@#.          .+@@@@@@@@@@@@@@@@#.          .+@@@@@@@@@@@@@@@@#.          .+@@@@@@@@@@@@@@@@#.          .+@@@@@@@@@@@@@@@@#.          .+@@@@@@@@@@@@@@@@#.          .+@@@@@@@@@@@@@@@@#.     ",
"     .+@$$$$$$$$$$$$$$@#.          .+@%%%%%%%%%%%%%%@#.          .+@$$$$$$$$$$$$$$@#.          .+@%%%%%%%%%%%%%%@#.          .+@$$$$$$$$$$$$$$@#.          .+@%%%%%%%%%%%%%%@#.          .+@$$$$$$$$$$$$$$@#.          .+@%%%%%%%%%%%%%%@#.     ",
"     .+@$&&$$$*$$$$$$$@#.          .+@%&&%%%*%%%%%%%@#.          .+@$&&$$$*$$$$$$$@#.          .+@%&&%%%*%%%%%%%@#.          .+@$&&$$$*$$$$$$$@#.          .+@%&&%%%*%%%%%%%@#.          .+@$&&$$$*$$$$$$$@#.          .+@%&&%%%*%%%%%%%@#.     ",
"     .+@$&$$$$*$$$$$$$@#.          .+@%&%%%%*%%%%%%%@#.          .+@$&$$$$*$$$$$$$@#.          .+@%&%%%%*%%%%%%%@#.          .+@$&$$$$*$$$$$$$@#.          .+@%&%%%%*%%%%%%%@#.          .+@$&$$$$*$$$$$$$@#.          .+@%&%%%%*%%%%%%%@#.     ",
"     .+@$$$$$$*$$$$$$$@#.          .+@%%%%%%*%%%%%%%@#.          .+@$$$$$$*$$$$$$$@#.          .+@%%%%%%*%%%%%%%@#.          .+@$$$$$$*$$$$$$$@#.          .+@%%%%%%*%%%%%%%@#.          .+@$$$$$$*$$$$$$$@#.          .+@%%%%%%*%%%%%%%@#.     ",
"     .+@$$$$$$*$$$$$$$@#.          .+@%%%%%%*%%%%%%%@#.          .+@$$$$$$*$$$$$$$@#.          .+@%%%%%%*%%%%%%%@#.          .+@$$$$$$*$$$$$$$@#.          .+@%%%%%%*%%%%%%%@#.          .+@$$$$$$*$$$$$$$@#.          .+@%%%%%%*%%%%%%%@#.     ",
"     .+@$$$$$$*$$$$$$$@#.          .+@%%%%%%*%%%%%%%@#.          .+@$$$$$$*$$$$$$$@#.          .+@%%%%%%*%%%%%%%@#.          .+@$$$$$$*$$$$$$$@#.          .+@%%%%%%*%%%%%%%@#.          .+@$$$$$$*$$$$$$$@#.          .+@%%%%%%*%%%%%%%@#.     ",
"     .+@$$$$$$$$$$$$$$@#.          .+@%%%%%%%%%%%%%%@#.          .+@$$$$$$$$$$$$$$@#.          .+@%%%%%%%%%%%%%%@#.          .+@$$$$$$$$$$$$$$@#.          .+@%%%%%%%%%%%%%%@#.          .+@$$$$$$$$$$$$$$@#.          .+@%%%%%%%%%%%%%%@#.     ",
"    #.+@$$$$$$*$$$$$$$@#.         #.+@%%%%%%*%%%%%%%@#.         #.+@$$$$$$*$$$$$$$@#.         #.+@%%%%%%*%%%%%%%@#.     .   #.+@$$$$$$*$$$$$$$@#.     .   #.+@%%%%%%*%%%%%%%@#.         #.+@$$$$$$*$$$$$$$@#.         #.+@%%%%%%*%%%%%%%@#.     ",
".  # .+@$$$$$$$$$$$$$$@#.        # .+@%%%%%%%%%%%%%%@#.        # .+@$$$$$$$$$$$$$$@#.     .  # .+@%%%%%%%%%%%%%%@#.     .### .+@$$$$$$$$$$$$$$@#.     .### .+@%%%%%%%%%%%%%%@#.     .  # .+@$$$$$$$$$$$$$$@#.        # .+@%%%%%%%%%%%%%%@#.     ",
".##  .+@@@@@@@@@@@@@@@@#.     .    .+@@@@@@@@@@@@@@@@#.     .    .+@@@@@@@@@@@@@@@@#.     .##  .+@@@@@@@@@@@@@@@@#.          .+@@@@@@@@@@@@@@@@#.          .+@@@@@@@@@@@@@@@@#.     .##  .+@@@@@@@@@@@@@@@@#.     .    .+@@@@@@@@@@@@@@@@#.     ",
"     .=++++++++++++++++#.     .##  .=++++++++++++++++#.     .##  .=++++++++++++++++#.          .=++++++++++++++++#.          .=++++++++++++++++#.          .=++++++++++++++++#.          .=++++++++++++++++#.     .##  .=++++++++++++++++#.     ",
"      .==#=#=#=======-=.            .==#=#=#=======-=.            .==#=#=#=======-=.            .==#=#=#=======-=.            .==#=#=#=======-=.            .==#=#=#=======-=.            .==#=#=#=======-=.            .==#=#=#=======-=.      ",
"       ................              ................              ................              ................              ................              ................              ................              ................       ",
"             =##=                          =##=                          =##=                          =##=                          =##=                          =##=                          =##=                          =##=             ",
"             ####                          ####                          ####                          ####                          ####                          ####                          ####                          ####             ",
"         .++++++++++.                  .++++++++++.                  .++++++++++.                  .++++++++++.                  .++++++++++.                  .++++++++++.                  .++++++++++.                  .++++++++++.         ",
"         ............                  ............                  ............                  ............                  ............                  ............                  ............                  ............         ",
"            ++  ++++                      ++  ++                        ++  ++                        ++  ++                        ++  ++                      ++++  ++                       +++  ++++                    ++++  +++           ",
"           ++      +++                    ++   ++                       + + ++                        ++  +                        ++   ++                    +++      ++                    +++       +++                +++       +++         ",
"          ++        ++                    ++    ++                       ++ ++                        ++ ++                       ++    ++                    ++        ++                 +++          ++                ++          +++       ",
"          ++       &&&&                  &&&&   ++                       ++&&&&                      &&&&++                       ++   &&&&                  &&&&       ++                 ++          &&&&              &&&&          ++       ",
"         &&&&      ....                  ....  &&&&                     &&&....                      ...&&&&                     &&&&  ....                  ....      &&&&               &&&&         ....              ....         &&&&      ",
"         ....                                  ....                     ....                            ....                     ....                                  ....               ....                                        ....      ",
"                                                                                                                                                                                                                                                ",
"                                                                                                                                                                                                                                                "};
