/* XPM */
/*
  XPenguins theme "Vaporwave" -- sprites generated procedurally.
  Released into the public domain (CC0).
*/
static char * floater_statue_xpm[] = {
"240 44 16 1",
" 	c None",
".	c #241B2F",
"+	c #7BF1E8",
"@	c #C7B3E8",
"#	c #01CDFE",
"$	c #9D86C4",
"%	c #E8D9FF",
"&	c #FF71CE",
"*	c #B967FF",
"=	c #45356B",
"-	c #00A678",
";	c #05FFA1",
">	c #CBBCDD",
",	c #9C8BB0",
"'	c #FFFFFF",
"~	c #EFE6F7",
"                                                                                                                                                                                                                                                ",
"       .................              .................              .................            .................            .................            .................            .................              .................       ",
"      .++++.@@@@@@.+++++.            .++++.@@@@@@.+++++.            .++++.@@@@@@.+++++.          .++++.@@@@@@.+++++.          .++++.@@@@@@.+++++.          .++++.@@@@@@.+++++.          .++++.@@@@@@.+++++.            .++++.@@@@@@.+++++.      ",
"     ..####.$$$$@@.######.          ..####.$$$$@@.######.          ..####.$$$$@@.######.        ..####.$$$$@@.######.        ..####.$$$$@@.######.        ..####.$$$$@@.######.        ..####.$$$$@@.######.          ..####.$$$$@@.######.     ",
"     ..####.$$$$@@.######.          ..####.$$$$@@.######.          ..####.$$$$@@.######.        ..####.$$$$@@.######.        ..####.$$$$@@.######.        ..####.$$$$@@.######.        ..####.$$$$@@.######.          ..####.$$$$@@.######.     ",
"     ..####.$$$$@@.######.          ..####.$$$$@@.######.          ..####.$$$$@@.######.        ..####.$$$$@@.######.        ..####.$$$$@@.######.        ..####.$$$$@@.######.        ..####.$$$$@@.######.          ..####.$$$$@@.######.     ",
"     .#####.$$$$@@.######.          .#####.$$$$@@.######.          .#####.$$$$@@.######.        .#####.$$$$@@.######.        .#####.$$$$@@.######.        .#####.$$$$@@.######.        .#####.$$$$@@.######.          .#####.$$$$@@.######.     ",
"     .###################.          .###################.          .###################.        .###################.        .###################.        .###################.        .###################.          .###################.     ",
"     .#%%%%%%%%%%%%%%%%##.          .#%%%%%%%%%%%%%%%%##.          .#%%%%%%%%%%%%%%%%##.        .#%%%%%%%%%%%%%%%%##.        .#%%%%%%%%%%%%%%%%##.        .#%%%%%%%%%%%%%%%%##.        .#%%%%%%%%%%%%%%%%##.          .#%%%%%%%%%%%%%%%%##.     ",
"     .#%&&&&&&&&&%%%%%%##.          .#%&&&&&&&&&%%%%%%##.          .#%&&&&&&&&&%%%%%%##.        .#%&&&&&&&&&%%%%%%##.        .#%&&&&&&&&&%%%%%%##.        .#%&&&&&&&&&%%%%%%##.        .#%&&&&&&&&&%%%%%%##.          .#%&&&&&&&&&%%%%%%##.     ",
"     .#%%%%%%%%%%%%%%%%##.          .#%%%%%%%%%%%%%%%%##.          .#%%%%%%%%%%%%%%%%##.        .#%%%%%%%%%%%%%%%%##.        .#%%%%%%%%%%%%%%%%##.        .#%%%%%%%%%%%%%%%%##.        .#%%%%%%%%%%%%%%%%##.          .#%%%%%%%%%%%%%%%%##.     ",
"     .#%*******%%%%%%%%##.          .#%*******%%%%%%%%##.          .#%*******%%%%%%%%##.        .#%*******%%%%%%%%##.        .#%*******%%%%%%%%##.        .#%*******%%%%%%%%##.        .#%*******%%%%%%%%##.          .#%*******%%%%%%%%##.     ",
"     .#%%%%%%%%%%%%%%%%##.          .#%%%%%%%%%%%%%%%%##.          .#%%%%%%%%%%%%%%%%##.        .#%%%%%%%%%%%%%%%%##.        .#%%%%%%%%%%%%%%%%##.        .#%%%%%%%%%%%%%%%%##.        .#%%%%%%%%%%%%%%%%##.          .#%%%%%%%%%%%%%%%%##.     ",
"     .#%%%%%%%%%%%%%%%%##.          .#%%%%%%%%%%%%%%%%##.          .#%%%%%%%%%%%%%%%%##.        .#%%%%%%%%%%%%%%%%##.        .#%%%%%%%%%%%%%%%%##.        .#%%%%%%%%%%%%%%%%##.        .#%%%%%%%%%%%%%%%%##.          .#%%%%%%%%%%%%%%%%##.     ",
"      .#=-=#======#=-=##.            .=-=#======#=-=###.            =-=#======#=-=####.          .=-=#======#=-=###.          .#=-=#======#=-=##.          .##=-=#======#=-=#.          .###=-=#======#=-=.            .##=-=#======#=-=#.      ",
"       %=;-=>>>>>>=-;=.%              =;-=>>>>>>=-;=..%             =;-=>>>>>>=-;=...%            =;-=>>>>>>=-;=..%            %=;-=>>>>>>=-;=.%            %.=;-=>>>>>>=-;=%            %..=;-=>>>>>>=-;=              %.=;-=>>>>>>=-;=%       ",
"       =-==,'>,'>,'==-=              =-==,'>,'>,'==-=%             =-==,'>,'>,'==-=%%            =-==,'>,'>,'==-=%             =-==,'>,'>,'==-=              =-==,'>,'>,'==-=             %=-==,'>,'>,'==-=              =-==,'>,'>,'==-=       ",
"       =;->>>>>>>>>>-;=              =;->>>>>>>>>>-;=              =;->>>>>>>>>>-;=              =;->>>>>>>>>>-;=              =;->>>>>>>>>>-;=              =;->>>>>>>>>>-;=              =;->>>>>>>>>>-;=              =;->>>>>>>>>>-;=       ",
"        =->>>>>>>>>>-=                =->>>>>>>>>>-=                =->>>>>>>>>>-=                =->>>>>>>>>>-=                =->>>>>>>>>>-=                =->>>>>>>>>>-=                =->>>>>>>>>>-=                =->>>>>>>>>>-=        ",
"        =;->>>>>>>>-;=                =;->>>>>>>>-;=                =;->>>>>>>>-;=                =;->>>>>>>>-;=                =;->>>>>>>>-;=                =;->>>>>>>>-;=                =;->>>>>>>>-;=                =;->>>>>>>>-;=        ",
"         =,'''~~~~~,=                  =,'''~~~~~,=                  =,'''~~~~~,=                  =,'''~~~~~,=                  =,'''~~~~~,=                  =,'''~~~~~,=                  =,'''~~~~~,=                  =,'''~~~~~,=         ",
"          ='''~~~~~=                    ='''~~~~~=                    ='''~~~~~=                    ='''~~~~~=                    ='''~~~~~=                    ='''~~~~~=                    ='''~~~~~=                    ='''~~~~~=          ",
"          ='',~~,~~~=                   ='',~~,~~~=                   ='',~~,~~~=                   ='',~~,~~~=                   ='',~~,~~~=                   ='',~~,~~~=                   ='',~~,~~~=                   ='',~~,~~~=         ",
"          ='''~~~~~>=                   ='''~~~~~>=                   ='''~~~~~>=                   ='''~~~~~>=                   ='''~~~~~>=                   ='''~~~~~>=                   ='''~~~~~>=                   ='''~~~~~>=         ",
"          ='''~>>>~=                    ='''~>>>~=                    ='''~>>>~=                    ='''~>>>~=                    ='''~>>>~=                    ='''~>>>~=                    ='''~>>>~=                    ='''~>>>~=          ",
"           =~~~~~~=                      =~~~~~~=                      =~~~~~~=                      =~~~~~~=                      =~~~~~~=                      =~~~~~~=                      =~~~~~~=                      =~~~~~~=           ",
"            =~~~~=                        =~~~~=                        =~~~~=                        =~~~~=                        =~~~~=                        =~~~~=                        =~~~~=                        =~~~~=            ",
"           ==>>>>==                      ==>>>>==                      ==>>>>==                      ==>>>>==                      ==>>>>==                      ==>>>>==                      ==>>>>==                      ==>>>>==           ",
"          ='''~~~~~=                    ='''~~~~~=                    ='''~~~~~=                    ='''~~~~~=                    ='''~~~~~=                    ='''~~~~~=                    ='''~~~~~=                    ='''~~~~~=          ",
"          =,,,~~~,,,=                   =,,,~~~,,,=                   =,,,~~~,,,=                   =,,,~~~,,,=                   =,,,~~~,,,=                   =,,,~~~,,,=                   =,,,~~~,,,=                   =,,,~~~,,,=         ",
"          =,''~~~~~,=                   =,''~~~~~,=                   =,''~~~~~,=                   =,''~~~~~,=                   =,''~~~~~,=                   =,''~~~~~,=                   =,''~~~~~,=                   =,''~~~~~,=         ",
"          ='''~~~~>=                    ='''~~~~>=                    ='''~~~~>=                    ='''~~~~>=                    ='''~~~~>=                    ='''~~~~>=                    ='''~~~~>=                    ='''~~~~>=          ",
"          =''>~~>~>=                    =''>~~>~>=                    =''>~~>~>=                    =''>~~>~>=                    =''>~~>~>=                    =''>~~>~>=                    =''>~~>~>=                    =''>~~>~>=          ",
"          =''>~~>~>=                    =''>~~>~>=                    =''>~~>~>=                    =''>~~>~>=                    =''>~~>~>=                    =''>~~>~>=                    =''>~~>~>=                    =''>~~>~>=          ",
"          =~~>~~>~>=                    =~~>~~>~>=                    =~~>~~>~>=                    =~~>~~>~>=                    =~~>~~>~>=                    =~~>~~>~>=                    =~~>~~>~>=                    =~~>~~>~>=          ",
"          =~~>~~>~>=                    =~~>~~>~>=                    =~~>~~>~>=                    =~~>~~>~>=                    =~~>~~>~>=                    =~~>~~>~>=                    =~~>~~>~>=                    =~~>~~>~>=          ",
"          =,,,,,,,,=                    =,,,,,,,,=                    =,,,,,,,,=                    =,,,,,,,,=                    =,,,,,,,,=                    =,,,,,,,,=                    =,,,,,,,,=                    =,,,,,,,,=          ",
"           =>>==>>=                      =>>==>>=                      =>>==>>=                      =>>==>>=                      =>>==>>=                      =>>==>>=                      =>>==>>=                      =>>==>>=           ",
"           =>>==>>=                      =>>==>>=                      =>>==>>=                      =>>==>>=                      =>>==>>=                      =>>==>>=                      =>>==>>=                      =>>==>>=           ",
"           =>>==>>=                      =>>==>>=                      =>>==>>=                      =>>==>>=                      =>>==>>=                      =>>==>>=                      =>>==>>=                      =>>==>>=           ",
"           =>>==>>=                      =>>==>>=                      =>>==>>=                      =>>==>>=                      =>>==>>=                      =>>==>>=                      =>>==>>=                      =>>==>>=           ",
"          =~~~~~~~~=                    =~~~~~~~~=                    =~~~~~~~~=                    =~~~~~~~~=                    =~~~~~~~~=                    =~~~~~~~~=                    =~~~~~~~~=                    =~~~~~~~~=          ",
"          =........=                    =........=                    =........=                    =........=                    =........=                    =........=                    =........=                    =........=          ",
"           ========                      ========                      ========                      ========                      ========                      ========                      ========                      ========           "};
