/* XPM */
/*
  XPenguins theme "Vaporwave" -- sprites generated procedurally.
  Released into the public domain (CC0).
*/
static char * floater_bird_xpm[] = {
"240 44 13 1",
" 	c None",
".	c #241B2F",
"+	c #7BF1E8",
"@	c #C7B3E8",
"#	c #01CDFE",
"$	c #9D86C4",
"%	c #E8D9FF",
"&	c #FF71CE",
"*	c #B967FF",
"=	c #45356B",
"-	c #FFB7CA",
";	c #FF7A9E",
">	c #CE4A76",
"                                                                                                                                                                                                                                                ",
"       .................              .................              .................            .................            .................            .................            .................              .................       ",
"      .++++.@@@@@@.+++++.            .++++.@@@@@@.+++++.            .++++.@@@@@@.+++++.          .++++.@@@@@@.+++++.          .++++.@@@@@@.+++++.          .++++.@@@@@@.+++++.          .++++.@@@@@@.+++++.            .++++.@@@@@@.+++++.      ",
"     ..####.$$$$@@.######.          ..####.$$$$@@.######.          ..####.$$$$@@.######.        ..####.$$$$@@.######.        ..####.$$$$@@.######.        ..####.$$$$@@.######.        ..####.$$$$@@.######.          ..####.$$$$@@.######.     ",
"     ..####.$$$$@@.######.          ..####.$$$$@@.######.          ..####.$$$$@@.######.        ..####.$$$$@@.######.        ..####.$$$$@@.######.        ..####.$$$$@@.######.        ..####.$$$$@@.######.          ..####.$$$$@@.######.     ",
"     ..####.$$$$@@.######.          ..####.$$$$@@.######.          ..####.$$$$@@.######.        ..####.$$$$@@.######.        ..####.$$$$@@.######.        ..####.$$$$@@.######.        ..####.$$$$@@.######.          ..####.$$$$@@.######.     ",
"     .#####.$$$$@@.######.          .#####.$$$$@@.######.          .#####.$$$$@@.######.        .#####.$$$$@@.######.        .#####.$$$$@@.######.        .#####.$$$$@@.######.        .#####.$$$$@@.######.          .#####.$$$$@@.######.     ",
"     .###################.          .###################.          .###################.        .###################.        .###################.        .###################.        .###################.          .###################.     ",
"     .#%%%%%%%%%%%%%%%%##.          .#%%%%%%%%%%%%%%%%##.          .#%%%%%%%%%%%%%%%%##.        .#%%%%%%%%%%%%%%%%##.        .#%%%%%%%%%%%%%%%%##.        .#%%%%%%%%%%%%%%%%##.        .#%%%%%%%%%%%%%%%%##.          .#%%%%%%%%%%%%%%%%##.     ",
"     .#%&&&&&&&&&%%%%%%##.          .#%&&&&&&&&&%%%%%%##.          .#%&&&&&&&&&%%%%%%##.        .#%&&&&&&&&&%%%%%%##.        .#%&&&&&&&&&%%%%%%##.        .#%&&&&&&&&&%%%%%%##.        .#%&&&&&&&&&%%%%%%##.          .#%&&&&&&&&&%%%%%%##.     ",
"     .#%%%%%%%%%%%%%%%%##.          .#%%%%%%%%%%%%%%%%##.          .#%%%%%%%%%%%%%%%%##.        .#%%%%%%%%%%%%%%%%##.        .#%%%%%%%%%%%%%%%%##.        .#%%%%%%%%%%%%%%%%##.        .#%%%%%%%%%%%%%%%%##.          .#%%%%%%%%%%%%%%%%##.     ",
"     .#%*******%%%%%%%%##.          .#%*******%%%%%%%%##.          .#%*******%%%%%%%%##.        .#%*******%%%%%%%%##.        .#%*******%%%%%%%%##.        .#%*******%%%%%%%%##.        .#%*******%%%%%%%%##.          .#%*******%%%%%%%%##.     ",
"     .#%%%%%%%%%%%%%%%%##.          .#%%%%%%%%%%%%%%%%##.          .#%%%%%%%%%%%%%%%%##.        .#%%%%%%%%%%%%%%%%##.        .#%%%%%%%%%%%%%%%%##.        .#%%%%%%%%%%%%%%%%##.        .#%%%%%%%%%%%%%%%%##.          .#%%%%%%%%%%%%%%%%##.     ",
"     .#%%%%%%%%%%%%%%%%##.          .#%%%%%%%%%%%%%%%%##.          .#%%%%%%%%%%%%%%%%##.        .#%%%%%%%%%%%%%%%%##.        .#%%%%%%%%%%%%%%%%##.        .#%%%%%%%%%%%%%%%%##.        .#%%%%%%%%%%%%%%%%##.          .#%%%%%%%%%%%%%%%%##.     ",
"      .#################.            .#################.            .#################.          .#################.          .#################.          .###############===          .################===           .###############===      ",
"       %.............===              %...............%              %...............%            %...............%            %.............===            %.............=---=          %..............=---=           %.............=---=     ",
"        %           =---=              %           ===                %          ===%              %           ===              %           =---=            %           =--.--===        %%           =--.--===         %           =--.--===  ",
"         %         =--.--===            %         =---=               %         =---=               %         =---=              %         =--.--===          %%         =-----%%%=         %          =-----%%%=         %%         =-----%%%= ",
"          %        =-----%%%=           %        =--.--===            %        =--.--===            %        =--.--===            %        =-----%%%=           %        =;---=%%..=         %%        =;---=%%..=          %        =;---=%%..=",
"           %       =;---=%%..=           %       =-----%%%=            %       =-----%%%=            %       =-----%%%=            %       =;---=%%..=           %       =;-== ==..=           %       =;-== ==..=           %       =;-== ==..=",
"                   =;-== ==..=                   =;---=%%..=                   =;---=%%..=                   =;---=%%..=                   =;-== ==..=                   =;-=    ==                    =;-=    ==                    =;-=    == ",
"                   =;-=    ==                    =;-== ==..=                   =;-== ==..=                   =;-== ==..=                   =;-=    ==                    =-=                           =-=                           =-=        ",
"                   =-=                           =;-=    ==                    =;-=    ==                    =;-=    ==                    =-=                          =;-=                          =;-=                          =;-=        ",
"                  =;-=                           =-=                           =-=                           =-=                          =;-=                         =;=-=                         =;=-=                         =;=-=        ",
"         =========;=-=                 ==========;-=                 ==========;-=                 ==========;-=                 =========;=-=                 =========;-=                  =========;-=                  =========;-=         ",
"        =---------;-=                 =---------;=-=                =---------;=-=                =---------;=-=                =---------;-=                 =----------=                  =----------=                  =----------=          ",
"        =;;;;;;;;;;=                  =;;;;;;;;;;-=                 =;;;;;;;;;;-=                 =;;;;;;;;;;-=                 =;;;;;;;;;;=                  =;;;;;;;;;;=                  =;;;;;;;;;;=                  =;;;;;;;;;;=          ",
"       =;;;------;;;=                =;;;------;;;=                =;;;------;;;=                =;;;------;;;=                =;;;------;;;=                =;;;------;;;=                =;;;------;;;=                =;;;------;;;=         ",
"      =;;;--------;;;=              =;;;--------;;;=              =;;;--------;;;=              =;;;--------;;;=              =;;;--------;;;=              =;;;--------;;;=              =;;;--------;;;=              =;;;--------;;;=        ",
"     =;;>----------;;=             =;;>----------;;=             =;;>----------;;=             =;;>----------;;=             =;;>----------;;=             =;;>----------;;=             =;;>----------;;=             =;;>----------;;=        ",
"      =>;;---->>>>;;;=              =>;;---->>>>;;;=              =>;;---->>>>;;;=              =>;;---->>>>;;;=              =>;;---->>>>;;;=              =>;;---->>>>;;;=              =>;;---->>>>;;;=              =>;;---->>>>;;;=        ",
"       =;;>>>>---;;;=                =;;>>>>---;;;=                =;;>>>>---;;;=                =;;>>>>---;;;=                =;;>>>>---;;;=                =;;>>>>---;;;=                =;;>>>>---;;;=                =;;>>>>---;;;=         ",
"        =;;;;;;;;;;=                  =;;;;;;;;;;=                  =;;;;;;;;;;=                  =;;;;;;;;;;=                  =;;;;;;;;;;=                  =;;;;;;;;;;=                  =;;;;;;;;;;=                  =;;;;;;;;;;=          ",
"       =>>>>>>>>>>>>=                =>>>>>>>>>>>>=                =>>>>>>>>>>>>=                =>>>>>>>>>>>>=                =>>>>>>>>>>>>=                =>>>>>>>>>>>>=                =>>>>>>>>>>>>=                =>>>>>>>>>>>>=         ",
"        ====>===>===                  ====>===>===                  ====>===>===                  ====>===>===                  ====>===>===                  ====>====>==                  ====>====>==                  ====>====>==          ",
"           =>= =>=                       =>= =>=                       =>= =>=                       =>= =>=                       =>= =>=                       =>=  =>=                      =>=  =>=                      =>=  =>=           ",
"          =>= =>=                       =>= =>=                       =>= =>=                       =>= =>=                       =>= =>=                       =>=  =>=                      =>=  =>=                      =>=  =>=            ",
"          =>= =;=                       =>= =;=                       =>= =;=                       =>= =;=                       =>= =;=                       =>=  =>=                      =>=  =>=                      =>=  =>=            ",
"          =;=  =                        =;=  =                        =;=  =                        =;=  =                        =;=  =                        =;=  =;=                      =;=  =;=                      =;=  =;=            ",
"          =>=                           =>=                           =>=                           =>=                           =>=                           =>=  =>=                      =>=  =>=                      =>=  =>=            ",
"           =>=                           =>=                           =>=                           =>=                           =>=                           =>=  =>=                      =>=  =>=                      =>=  =>=           ",
"           =>=                           =>=                           =>=                           =>=                           =>=                           =>=  =>=                      =>=  =>=                      =>=  =>=           ",
"          =;;;=                         =;;;=                         =;;;=                         =;;;=                         =;;;=                         =;;;==;;;=                    =;;;==;;;=                    =;;;==;;;=          ",
"           ===                           ===                           ===                           ===                           ===                           ===  ===                      ===  ===                      ===  ===           "};
