/* XPM */
/*
  XPenguins theme "Vaporwave" -- sprites generated procedurally.
  Released into the public domain (CC0).
*/
static char * floater_tape_xpm[] = {
"240 44 12 1",
" 	c None",
".	c #241B2F",
"+	c #7BF1E8",
"@	c #C7B3E8",
"#	c #01CDFE",
"$	c #9D86C4",
"%	c #E8D9FF",
"&	c #FF71CE",
"*	c #B967FF",
"=	c #FF9EDE",
"-	c #6F5A94",
";	c #2B1B3D",
"                                                                                                                                                                                                                                                ",
"       .................              .................              .................            .................            .................            .................            .................              .................       ",
"      .++++.@@@@@@.+++++.            .++++.@@@@@@.+++++.            .++++.@@@@@@.+++++.          .++++.@@@@@@.+++++.          .++++.@@@@@@.+++++.          .++++.@@@@@@.+++++.          .++++.@@@@@@.+++++.            .++++.@@@@@@.+++++.      ",
"     ..####.$$$$@@.######.          ..####.$$$$@@.######.          ..####.$$$$@@.######.        ..####.$$$$@@.######.        ..####.$$$$@@.######.        ..####.$$$$@@.######.        ..####.$$$$@@.######.          ..####.$$$$@@.######.     ",
"     ..####.$$$$@@.######.          ..####.$$$$@@.######.          ..####.$$$$@@.######.        ..####.$$$$@@.######.        ..####.$$$$@@.######.        ..####.$$$$@@.######.        ..####.$$$$@@.######.          ..####.$$$$@@.######.     ",
"     ..####.$$$$@@.######.          ..####.$$$$@@.######.          ..####.$$$$@@.######.        ..####.$$$$@@.######.        ..####.$$$$@@.######.        ..####.$$$$@@.######.        ..####.$$$$@@.######.          ..####.$$$$@@.######.     ",
"     .#####.$$$$@@.######.          .#####.$$$$@@.######.          .#####.$$$$@@.######.        .#####.$$$$@@.######.        .#####.$$$$@@.######.        .#####.$$$$@@.######.        .#####.$$$$@@.######.          .#####.$$$$@@.######.     ",
"     .###################.          .###################.          .###################.        .###################.        .###################.        .###################.        .###################.          .###################.     ",
"     .#%%%%%%%%%%%%%%%%##.          .#%%%%%%%%%%%%%%%%##.          .#%%%%%%%%%%%%%%%%##.        .#%%%%%%%%%%%%%%%%##.        .#%%%%%%%%%%%%%%%%##.        .#%%%%%%%%%%%%%%%%##.        .#%%%%%%%%%%%%%%%%##.          .#%%%%%%%%%%%%%%%%##.     ",
"     .#%&&&&&&&&&%%%%%%##.          .#%&&&&&&&&&%%%%%%##.          .#%&&&&&&&&&%%%%%%##.        .#%&&&&&&&&&%%%%%%##.        .#%&&&&&&&&&%%%%%%##.        .#%&&&&&&&&&%%%%%%##.        .#%&&&&&&&&&%%%%%%##.          .#%&&&&&&&&&%%%%%%##.     ",
"     .#%%%%%%%%%%%%%%%%##.          .#%%%%%%%%%%%%%%%%##.          .#%%%%%%%%%%%%%%%%##.        .#%%%%%%%%%%%%%%%%##.        .#%%%%%%%%%%%%%%%%##.        .#%%%%%%%%%%%%%%%%##.        .#%%%%%%%%%%%%%%%%##.          .#%%%%%%%%%%%%%%%%##.     ",
"     .#%*******%%%%%%%%##.          .#%*******%%%%%%%%##.          .#%*******%%%%%%%%##.        .#%*******%%%%%%%%##.        .#%*******%%%%%%%%##.        .#%*******%%%%%%%%##.        .#%*******%%%%%%%%##.          .#%*******%%%%%%%%##.     ",
"     .#%%%%%%%%%%%%%%%%##.          .#%%%%%%%%%%%%%%%%##.          .#%%%%%%%%%%%%%%%%##.        .#%%%%%%%%%%%%%%%%##.        .#%%%%%%%%%%%%%%%%##.        .#%%%%%%%%%%%%%%%%##.        .#%%%%%%%%%%%%%%%%##.          .#%%%%%%%%%%%%%%%%##.     ",
"     .#%%%%%%%%%%%%%%%%##.          .#%%%%%%%%%%%%%%%%##.          .#%%%%%%%%%%%%%%%%##.        .#%%%%%%%%%%%%%%%%##.        .#%%%%%%%%%%%%%%%%##.        .#%%%%%%%%%%%%%%%%##.        .#%%%%%%%%%%%%%%%%##.          .#%%%%%%%%%%%%%%%%##.     ",
"      .#################.            .#################.            .#################.          .#################.          .#################.          .#################.          .#################.            .#################.      ",
"       %...............%              %...............%              %...............%            %...............%            %...............%            %...............%            %...............%              %...............%       ",
"        %             %                %             %                %            %%              %             %              %             %              %             %              %%            %                %             %        ",
"         %           %                  %          %%                 %           %                 %          %%                %           %                %%          %                 %           %                 %%          %         ",
"          %         %                   %         %                   %         %%                  %         %                   %         %                   %         %                  %%         %                   %         %         ",
"      ..................            ..................            ..................            ..................            ..................            ..................            ..................            ..................      ",
"     .==================.          .==================.          .==================.          .==================.          .==================.          .==================.          .==================.          .==================.     ",
"    .&##@@@@@@@@@@@@@@@@&.        .&##@@@@@@@@@@@@@@@@&.        .&##@@@@@@@@@@@@@@@@&.        .&##@@@@@@@@@@@@@@@@&.        .&##@@@@@@@@@@@@@@@@&.        .&##@@@@@@@@@@@@@@@@&.        .&##@@@@@@@@@@@@@@@@&.        .&##@@@@@@@@@@@@@@@@&.    ",
"    .&##%%%%%%%%%%%%%%%%&.        .&##%%%%%%%%%%%%%%%%&.        .&##%%%%%%%%%%%%%%%%&.        .&##%%%%%%%%%%%%%%%%&.        .&##%%%%%%%%%%%%%%%%&.        .&##%%%%%%%%%%%%%%%%&.        .&##%%%%%%%%%%%%%%%%&.        .&##%%%%%%%%%%%%%%%%&.    ",
"    .&%%$$$$$$$$$$$$$%%%&.        .&%%$$$$$$$$$$$$$%%%&.        .&%%$$$$$$$$$$$$$%%%&.        .&%%$$$$$$$$$$$$$%%%&.        .&%%$$$$$$$$$$$$$%%%&.        .&%%$$$$$$$$$$$$$%%%&.        .&%%$$$$$$$$$$$$$%%%&.        .&%%$$$$$$$$$$$$$%%%&.    ",
"    .&%%$$$$$$$$$%%%%%%%&.        .&%%$$$$$$$$$%%%%%%%&.        .&%%$$$$$$$$$%%%%%%%&.        .&%%$$$$$$$$$%%%%%%%&.        .&%%$$$$$$$$$%%%%%%%&.        .&%%$$$$$$$$$%%%%%%%&.        .&%%$$$$$$$$$%%%%%%%&.        .&%%$$$$$$$$$%%%%%%%&.    ",
"    .&%%%%%%%%%%%%%%%%%%&.        .&%%%%%%%%%%%%%%%%%%&.        .&%%%%%%%%%%%%%%%%%%&.        .&%%%%%%%%%%%%%%%%%%&.        .&%%%%%%%%%%%%%%%%%%&.        .&%%%%%%%%%%%%%%%%%%&.        .&%%%%%%%%%%%%%%%%%%&.        .&%%%%%%%%%%%%%%%%%%&.    ",
"$ - .&&&&&&&&&&&&&&&&&&&&.    $ - .&&&&&&&&&&&&&&&&&&&&.    $ - .&&&&&&&&&&&&&&&&&&&&.    $ - .&&&&&&&&&&&&&&&&&&&&.    $ - .&&&&&&&&&&&&&&&&&&&&.    $ - .&&&&&&&&&&&&&&&&&&&&.    $ - .&&&&&&&&&&&&&&&&&&&&.    $ - .&&&&&&&&&&&&&&&&&&&&.    ",
" - -.&.....@......@.....&.     - -.&.....@......@.....&.     - -.&.....@......@.....&.     - -.&.....@......@.....&.     - -.&.....@......@.....&.     - -.&.....@......@.....&.     - -.&.....@......@.....&.     - -.&.....@......@.....&.    ",
"  - .&.;;;;@@;--;;@@;;;.&.      - .&.;;;;@@;--;;@@;;;.&.      - .&.;;;;@@;--;;@@;;;.&.      - .&.;;;;@@;--;;@@;;;.&.      - .&.;;;;@@;--;;@@;;;.&.      - .&.;;;;@@;--;;@@;;;.&.      - .&.;;;;@@;--;;@@;;;.&.      - .&.;;;;@@;--;;@@;;;.&.    ",
"    .&.;;@@#@;--@@#@;;;.&.        .&.;;@@#@;--@@#@;;;.&.        .&.;;@@#@;--@@#@;;;.&.        .&.;;@@#@;--@@#@;;;.&.        .&.;;@@#@;--@@#@;;;.&.        .&.;;@@#@;--@@#@;;;.&.        .&.;;@@#@;--@@#@;;;.&.        .&.;;@@#@;--@@#@;;;.&.    ",
"    .&.;;;;@@;--;;@@;;;.&.        .&.;;;;@@;--;;@@;;;.&.        .&.;;;;@@;--;;@@;;;.&.        .&.;;;;@@;--;;@@;;;.&.        .&.;;;;@@;--;;@@;;;.&.        .&.;;;;@@;--;;@@;;;.&.        .&.;;;;@@;--;;@@;;;.&.        .&.;;;;@@;--;;@@;;;.&.    ",
"    .&.....@......@.....&.        .&.....@......@.....&.        .&.....@......@.....&.        .&.....@......@.....&.        .&.....@......@.....&.        .&.....@......@.....&.        .&.....@......@.....&.        .&.....@......@.....&.    ",
"     .***..***..****..**.          .***..***..****..**.          .***..***..****..**.          .***..***..****..**.          .***..***..****..**.          .***..***..****..**.          .***..***..****..**.          .***..***..****..**.     ",
"      ..................            ..................            ..................            ..................            ..................            ..................            ..................            ..................      ",
"           **    **                      **    **                      **    **                      **    **                      **    **                      **    **                      **    **                      **    **           ",
"           **    **                      **    **                      **    **                      **    **                      **    **                      **    **                      **    **                      **    **           ",
"           **    **                      **    **                      **    **                      **    **                      **    **                      **    **                      **    **                      **    **           ",
"           **    **                      **    **                      **    **                      **    **                      **    **                      **    **                      **    **                      **    **           ",
"           **    **                      **    **                      **    **                      **    **                      **    **                      **    **                      **    **                      **    **           ",
"           **    **                      **    **                      **    **                      **    **                      **    **                      **    **                      **    **                      **    **           ",
"           **    **                      **    **                      **    **                      **    **                      **    **                      **    **                      **    **                      **    **           ",
"          ====  ====                    ====  ====                    ====  ====                    ====  ====                    ====  ====                    ====  ====                    ====  ====                    ====  ====          ",
"          ....  ....                    ....  ....                    ....  ....                    ....  ....                    ....  ....                    ....  ....                    ....  ....                    ....  ....          ",
"                                                                                                                                                                                                                                                "};
