/* XPM */
/*
  XPenguins theme "Vaporwave" -- sprites generated procedurally.
  Released into the public domain (CC0).
*/
static char * floater_palm_xpm[] = {
"240 44 17 1",
" 	c None",
".	c #241B2F",
"+	c #7BF1E8",
"@	c #C7B3E8",
"#	c #01CDFE",
"$	c #9D86C4",
"%	c #E8D9FF",
"&	c #FF71CE",
"*	c #B967FF",
"=	c #45356B",
"-	c #96FFD0",
";	c #05FFA1",
">	c #00A678",
",	c #5C3780",
"'	c #925CC4",
"~	c #FFC25E",
"!	c #FFFB96",
"                                                                                                                                                                                                                                                ",
"       .................              .................              .................            .................            .................            .................            .................              .................       ",
"      .++++.@@@@@@.+++++.            .++++.@@@@@@.+++++.            .++++.@@@@@@.+++++.          .++++.@@@@@@.+++++.          .++++.@@@@@@.+++++.          .++++.@@@@@@.+++++.          .++++.@@@@@@.+++++.            .++++.@@@@@@.+++++.      ",
"     ..####.$$$$@@.######.          ..####.$$$$@@.######.          ..####.$$$$@@.######.        ..####.$$$$@@.######.        ..####.$$$$@@.######.        ..####.$$$$@@.######.        ..####.$$$$@@.######.          ..####.$$$$@@.######.     ",
"     ..####.$$$$@@.######.          ..####.$$$$@@.######.          ..####.$$$$@@.######.        ..####.$$$$@@.######.        ..####.$$$$@@.######.        ..####.$$$$@@.######.        ..####.$$$$@@.######.          ..####.$$$$@@.######.     ",
"     ..####.$$$$@@.######.          ..####.$$$$@@.######.          ..####.$$$$@@.######.        ..####.$$$$@@.######.        ..####.$$$$@@.######.        ..####.$$$$@@.######.        ..####.$$$$@@.######.          ..####.$$$$@@.######.     ",
"     .#####.$$$$@@.######.          .#####.$$$$@@.######.          .#####.$$$$@@.######.        .#####.$$$$@@.######.        .#####.$$$$@@.######.        .#####.$$$$@@.######.        .#####.$$$$@@.######.          .#####.$$$$@@.######.     ",
"     .###################.          .###################.          .###################.        .###################.        .###################.        .###################.        .###################.          .###################.     ",
"     .#%%%%%%%%%%%%%%%%##.          .#%%%%%%%%%%%%%%%%##.          .#%%%%%%%%%%%%%%%%##.        .#%%%%%%%%%%%%%%%%##.        .#%%%%%%%%%%%%%%%%##.        .#%%%%%%%%%%%%%%%%##.        .#%%%%%%%%%%%%%%%%##.          .#%%%%%%%%%%%%%%%%##.     ",
"     .#%&&&&&&&&&%%%%%%##.          .#%&&&&&&&&&%%%%%%##.          .#%&&&&&&&&&%%%%%%##.        .#%&&&&&&&&&%%%%%%##.        .#%&&&&&&&&&%%%%%%##.        .#%&&&&&&&&&%%%%%%##.        .#%&&&&&&&&&%%%%%%##.          .#%&&&&&&&&&%%%%%%##.     ",
"     .#%%%%%%%%%%%%%%%%##.          .#%%%%%%%%%%%%%%%%##.          .#%%%%%%%%%%%%%%%%##.        .#%%%%%%%%%%%%%%%%##.        .#%%%%%%%%%%%%%%%%##.        .#%%%%%%%%%%%%%%%%##.        .#%%%%%%%%%%%%%%%%##.          .#%%%%%%%%%%%%%%%%##.     ",
"     .#%*******%%%%%%%%##.          .#%*******%%%%%%%%##.          .#%*******%%%%%%%%##.        .#%*******%%%%%%%%##.        .#%*******%%%%%%%%##.        .#%*******%%%%%%%%##.        .#%*******%%%%%%%%##.          .#%*******%%%%%%%%##.     ",
"     .#%%%%%%%%%%%%%%%%##.          .#%%%%%%%%%%%%%%%%##.          .#%%%%%%%%%%%%%%%%##.        .#%%%%%%%%%%%%%%%%##.        .#%%%%%%%%%%%%%%%%##.        .#%%%%%%%%%%%%%%%%##.        .#%%%%%%%%%%%%%%%%##.          .#%%%%%%%%%%%%%%%%##.     ",
"     .#%%%%%%%%%%%%%%%%##.          .#%%%%%%%%%%%%%%%%##.          .#%%%%%%%%%%%%%%%%##.        .#%%%%%%%%%%%%%%%%##.        .#%%%%%%%%%%%%%%%%##.        .#%%%%%%%%%%%%%%%%##.        .#%%%%%%%%%%%%%%%%##.          .#%%%%%%%%%%%%%%%%##.     ",
"      =----;>-->--->;--=.            =------=-----;--=#.           =-----==-=-------=#.          =------=-----;--=#.          =----;>-->--->;--=.          .=-;-;>>->=;;>;;-=.          .=-;;->;>->--;;>-=.            .=-;-;>>->=;;>;;-=.      ",
"      =;>;>>;>;>-;>;;>;=            =-;>->>;=-;;;;;>;-=            =-=->>-=--=->>>>;-=          =-;>->>;=-;;;;;>;-=           =;>;>>;>;>-;>;;>;=            =;>;>>>;>--;>;;;=            =;;>;>>;;;;;;>>;=              =;>;>>>;>--;>;;;=       ",
"      ==;>;>>>;>;>;>>;==            =;=>;>;>=;->;;>;=;=            =;>;>;>=;;-;>;;;>;=          =;=>;>;>=;->;;>;=;=           ==;>;>>>;>;>;>>;==            =>>>>>>>>;;>>>>>=             =>=>=>>>>=;>>=>>=             =>>>>>>>>;;>>>>>=       ",
"     =;;>;>>>;;=;;>;;>>;=            =>>>>>>=>;;>>=>;=>=           =;>;>>>=;;;>>>>>;==           =>>>>>>=>;;>>=>;=>=         =;;>;>>>;;=;;>;;>>;=          =;;;;==>;>;>>;==;=            =;=;;==;;>;>=;=;;=            =;;;;==>;>;>>;==;=       ",
"      =>=>==>>>;;>=>==>=            =;>;;=>>>;>>=>;;>;;=          =;>;>=;;>;;>;=;;=>>;=         =;>;;=>>>;>>=>;;>;;=          =>=>==>>>;;>=>==>=           =>>=>= =>;;;=>>=>>=           =>=>>= =>>>>=>=>>=            =>>=>= =>;;;=>>=>>=      ",
"     =;>=>=%=>>>>= =>==>=           =>==>==;=>;= =>>=>=>=          =>=>=>>;>;;>=>===>=          =>==>==;=>;= =>>=>=>=        =;>=>=%=>>>>= =>==>=         =;;;;= %=;>>>=;;=;;=          =;>;>= =;>;>==;>=;;=          =;;;;= %=;>>>=;;=;;=      ",
"    =;>=;>=  =>>>= =;= =;=         =;;=;= =>>>>=  =;==;;=         =>=;>==>>>>>= =;>==>=        =;;=;= =>>>>=  =;==;;=       =;>=;>=  =>>>= =;= =;=         =>=>=  =>>>>==>==>=           ====   ==>>>=== ==            =>=>=  =>>>>==>==>=      ",
"     =>==>= =>>>>>==>= =>=          =>=>= =>>>>>= =>= =>=        =;>=;>==>>>>>=  =;= =;=        =>=>= =>>>>>= =>= =>=        =>==>= =>>>>>==>= =>=        =>=;>=  =>>>>>=>==;>=         =>=;>= =;>>>>>;>==>=          =>=;>=  =>>>>>=>==;>=     ",
"    =;==;=  =,>>>,==;= =;=         =>==>=  =>>>',==;>==;>=       =>==>=  =>>>',= =>= =>=       =>==>=  =>>>',==;>==;>=      =;==;=  =,>>>,==;= =;=       =;>=;>= =;>>>>==;= =;=        =;>=;=  =;>>>>==;==;=         =;>=;>= =;>>>>==;= =;=     ",
"    =;==;=  =,;>,,= =;= =;=       =;>=;>= ==,>',,= =;= =;=      =;;=;;= ==,>',,= =;= =;;=     =;>=;>= ==,>',,= =;= =;=      =;==;=  =,;>,,= =;= =;=       == ==  =,,'>,====  =         =>==>=  =,>'>,==>= =>=         == ==  =,,'>,====  =      ",
"    =>==>= =~,>'',!==>= =>=        == == =~=,'''!=  =   ==       =>==>==~=,>''!=  =>= =>=      == == =~=,'''!=  =   ==      =>==>= =~,>'',!==>= =>=      =;>=;=  =~>'',=!;>==;=        =;==;=  =~''',=!;==;=         =;>=;=  =~>'',=!;>==;=     ",
"    =;==;=  =~;'',= =;= =;=       =;==;>= =~,;'',= =;= =;>=     =;>=;>= =~,;'',= =;>= =;=     =;==;>= =~,;'',= =;= =;>=     =;==;=  =~;'',= =;= =;=       == =   =,~'',====  =          =  =   =,~'',===  =           == =   =,~'',====  =      ",
"     =  =   =,,',,=  =   =         =  ==   =,,',,=  =   ==       == ==   =,,',,=  ==   =       =  ==   =,,',,=  =   ==       =  =   =,,',,=  =   =               =,,',,=                       =,,',,=                       =,,',,=            ",
"            =,''',=                        =,''',=                       =,''',=                       =,''',=                      =,''',=                      =,''',=                       =,''',=                       =,''',=            ",
"            =,''',=                       =,''',=                        =,''',=                      =,''',=                       =,''',=                       =,''',=                      =,''',=                        =,''',=           ",
"            =,,',,=                       =,,',,=                        =,,',,=                      =,,',,=                       =,,',,=                       =,,',,=                      =,,',,=                        =,,',,=           ",
"            =,''',=                       =,''',=                        =,''',=                      =,''',=                       =,''',=                       =,''',=                      =,''',=                        =,''',=           ",
"            =,''',=                       =,''',=                       =,''',=                       =,''',=                       =,''',=                       =,''',=                       =,''',=                       =,''',=           ",
"            =,,',,=                       =,,',,=                       =,,',,=                       =,,',,=                       =,,',,=                       =,,',,=                       =,,',,=                       =,,',,=           ",
"            =,''',=                       =,''',=                       =,''',=                       =,''',=                       =,''',=                       =,''',=                       =,''',=                       =,''',=           ",
"            =,''',=                       =,''',=                       =,''',=                       =,''',=                       =,''',=                       =,''',=                       =,''',=                       =,''',=           ",
"            =,,',,=                       =,,',,=                       =,,',,=                       =,,',,=                       =,,',,=                       =,,',,=                       =,,',,=                       =,,',,=           ",
"           =''==''=                      =''==''=                      =''==''=                      =''==''=                      =''==''=                      =''==''=                      =''==''=                      =''==''=           ",
"           =''==''=                      =''==''=                      =''==''=                      =''==''=                      =''==''=                      =''==''=                      =''==''=                      =''==''=           ",
"           =''==''=                      =''==''=                      =''==''=                      =''==''=                      =''==''=                      =''==''=                      =''==''=                      =''==''=           ",
"           =''==''=                      =''==''=                      =''==''=                      =''==''=                      =''==''=                      =''==''=                      =''==''=                      =''==''=           ",
"           =''==''=                      =''==''=                      =''==''=                      =''==''=                      =''==''=                      =''==''=                      =''==''=                      =''==''=           ",
"          =,,,,,,,,=                    =,,,,,,,,=                    =,,,,,,,,=                    =,,,,,,,,=                    =,,,,,,,,=                    =,,,,,,,,=                    =,,,,,,,,=                    =,,,,,,,,=          ",
"          =........=                    =........=                    =........=                    =........=                    =........=                    =........=                    =........=                    =........=          ",
"           ========                      ========                      ========                      ========                      ========                      ========                      ========                      ========           "};
