/* XPM */
/*
  XPenguins theme "Vaporwave" -- sprites generated procedurally.
  Released into the public domain (CC0).
*/
static char * runner_statue_xpm[] = {
"240 60 11 1",
" 	c None",
".	c #45356B",
"+	c #00A678",
"@	c #05FFA1",
"#	c #CBBCDD",
"$	c #FFFFFF",
"%	c #9C8BB0",
"&	c #EFE6F7",
"*	c #FF9EDE",
"=	c #7BF1E8",
"-	c #241B2F",
"        .+. ...... .+.                .+. ...... .+.                 .          .                  .          .                 .+. ...... .+.                .+. ...... .+.                 .          .                  .          .         ",
"        .@+.######.+@.                .@+.######.+@.                .+. ...... .+.                .+. ...... .+.                .@+.######.+@.                .@+.######.+@.                .+. ...... .+.                .+. ...... .+.        ",
"       .+..$%#$%#$%..+.              .+..$%#$%#$%..+.               .@+.######.+@.                .@+.######.+@.               .+..$%#$%#$%..+.              .+..$%#$%#$%..+.               .@+.######.+@.                .@+.######.+@.        ",
"       .@+##########+@.              .@+##########+@.              .+..$%#$%#$%..+.              .+..$%#$%#$%..+.              .@+##########+@.              .@+##########+@.              .+..$%#$%#$%..+.              .+..$%#$%#$%..+.       ",
"        .+##########+.                .+##########+.               .@+##########+@.              .@+##########+@.               .+##########+.                .+##########+.               .@+##########+@.              .@+##########+@.       ",
"        .@+########+@.                .@+########+@.                .+##########+.                .+##########+.                .@+########+@.                .@+########+@.                .+##########+.                .+##########+.        ",
"         .%&&&&&$$$%.                  .%&&&&&$$$%.                 .@+########+@.                .@+########+@.                 .%&&&&&$$$%.                  .%&&&&&$$$%.                 .@+########+@.                .@+########+@.        ",
"          .&&&&&$$$.                    .&&&&&$$$.                   .%&&&&&$$$%.                  .%&&&&&$$$%.                   .&&&&&$$$.                    .&&&&&$$$.                   .%&&&&&$$$%.                  .%&&&&&$$$%.         ",
"         .&&&%&&%$$.                   .&&&%&&%$$.                    .&&&&&$$$.                    .&&&&&$$$.                   .&&&%&&%$$.                   .&&&%&&%$$.                    .&&&&&$$$.                    .&&&&&$$$.          ",
"         .#&&&&&$$$.      ****         .#&&&&&$$$.     ****          .&&&%&&%$$.    ****           .&&&%&&%$$.      ****         .#&&&&&$$$.     ****          .#&&&&&$$$.    ****           .&&&%&&%$$.      ****         .&&&%&&%$$.     **** ",
"          .&###&$$$.                    .&###&$$$.                   .#&&&&&$$$.                   .#&&&&&$$$.                    .&###&$$$.                    .&###&$$$.                   .#&&&&&$$$.                   .#&&&&&$$$.          ",
"           .&&&&&&.                      .&&&&&&.                     .&###&$$$.                    .&###&$$$.                     .&&&&&&.                      .&&&&&&.                     .&###&$$$.                    .&###&$$$.          ",
"            .&&&&.                        .&&&&.                       .&&&&&&.                      .&&&&&&.                       .&&&&.                        .&&&&.                       .&&&&&&.                      .&&&&&&.           ",
"           ..####..                      ..####..                       .&&&&.                        .&&&&.                       ..####..                      ..####..                       .&&&&.                        .&&&&.            ",
"          .&&&&&$$$.                    .&&&&&$$$.                     ..####..                      ..####..                     .&&&&&$$$.                    .&&&&&$$$.                     ..####..                      ..####..           ",
"         .%%%&&&%%%.   =====           .%%%&&&%%%.     =====          .&&&&&$$$.    =====           .&&&&&$$$.   =====           .%%%&&&%%%.     =====         .%%%&&&%%%.    =====           .&&&&&$$$.   =====            .&&&&&$$$.     =====",
"         .%&&&&&$$%.                   .%&&&&&$$%.                   .%%%&&&%%%.                   .%%%&&&%%%.                   .%&&&&&$$%.                   .%&&&&&$$%.                   .%%%&&&%%%.                   .%%%&&&%%%.          ",
"          .#&&&&$$$.                    .#&&&&$$$.                   .%&&&&&$$%.                   .%&&&&&$$%.                    .#&&&&$$$.                    .#&&&&$$$.                   .%&&&&&$$%.                   .%&&&&&$$%.          ",
"          .#&#&&#$$.                    .#&#&&#$$.                    .#&&&&$$$.                    .#&&&&$$$.                    .#&#&&#$$.                    .#&#&&#$$.                    .#&&&&$$$.                    .#&&&&$$$.          ",
"          .#&#&&#$$.                    .#&#&&#$$.                    .#&#&&#$$.                    .#&#&&#$$.                    .#&#&&#$$.                    .#&#&&#$$.                    .#&#&&#$$.                    .#&#&&#$$.          ",
"          .#&#&&#&&.                    .#&#&&#&&.                    .#&#&&#$$.                    .#&#&&#$$.                    .#&#&&#&&.                    .#&#&&#&&.                    .#&#&&#$$.                    .#&#&&#$$.          ",
"          .#&#&&#&&.      ***           .#&#&&#&&.     ***            .#&#&&#&&.       ***          .#&#&&#&&.      ***           .#&#&&#&&.     ***            .#&#&&#&&.       ***          .#&#&&#&&.      ***           .#&#&&#&&.     ***  ",
"          .%%%%%%%%.                    .%%%%%%%%.                    .#&#&&#&&.                    .#&#&&#&&.                    .%%%%%%%%.                    .%%%%%%%%.                    .#&#&&#&&.                    .#&#&&#&&.          ",
"           .##..##.                      .##.###.                     .%%%%%%%%.                    .%%%%%%%%.                     .##..##.                    ..###..##..                    .%%%%%%%%.                    .%%%%%%%%.          ",
"           .##.&&&&.                      .###..                       .######.                      .######.                     .&&&&.##.                   .###..  .###.                 ..####..####..                 ..###..###...        ",
"           .##.----.                     .&&&##.                       .######.                       .#&&&&.                     .----.##.                  .&&&&.    ..##.               .###...  ...###.               .###..  ..&&&&.       ",
"           .##.....                      .---##.                       .##..##.                       .#----.                      .....##.                  .----.     .##.               .##.        .##.               .##.     .----.       ",
"          .&&&&.                          ..&&&&.                     .&&&&&&&&.                     .&&&&..                          .&&&&.                  ....     .&&&&.             .&&&&.      .&&&&.             .&&&&.     ....        ",
"          .----.                           .----.                     .--------.                     .----.                           .----.                           .----.             .----.      .----.             .----.                 ",
"           ....                             ....                       ........                       ....                             ....                             ....               ....        ....               ....                  ",
"        .+. ...... .+.                .+. ...... .+.                 .          .                  .          .                 .+. ...... .+.                .+. ...... .+.                 .          .                  .          .         ",
"        .@+.######.+@.                .@+.######.+@.                .+. ...... .+.                .+. ...... .+.                .@+.######.+@.                .@+.######.+@.                .+. ...... .+.                .+. ...... .+.        ",
"       .+..%$#%$#%$..+.              .+..%$#%$#%$..+.               .@+.######.+@.                .@+.######.+@.               .+..%$#%$#%$..+.              .+..%$#%$#%$..+.               .@+.######.+@.                .@+.######.+@.        ",
"       .@+##########+@.              .@+##########+@.              .+..%$#%$#%$..+.              .+..%$#%$#%$..+.              .@+##########+@.              .@+##########+@.              .+..%$#%$#%$..+.              .+..%$#%$#%$..+.       ",
"        .+##########+.                .+##########+.               .@+##########+@.              .@+##########+@.               .+##########+.                .+##########+.               .@+##########+@.              .@+##########+@.       ",
"        .@+########+@.                .@+########+@.                .+##########+.                .+##########+.                .@+########+@.                .@+########+@.                .+##########+.                .+##########+.        ",
"         .%$$$&&&&&%.                  .%$$$&&&&&%.                 .@+########+@.                .@+########+@.                 .%$$$&&&&&%.                  .%$$$&&&&&%.                 .@+########+@.                .@+########+@.        ",
"          .$$$&&&&&.                    .$$$&&&&&.                   .%$$$&&&&&%.                  .%$$$&&&&&%.                   .$$$&&&&&.                    .$$$&&&&&.                   .%$$$&&&&&%.                  .%$$$&&&&&%.         ",
"          .$$%&&%&&&.                   .$$%&&%&&&.                   .$$$&&&&&.                    .$$$&&&&&.                    .$$%&&%&&&.                   .$$%&&%&&&.                   .$$$&&&&&.                    .$$$&&&&&.          ",
"****      .$$$&&&&&#.          ****     .$$$&&&&&#.           ****    .$$%&&%&&&.         ****      .$$%&&%&&&.          ****     .$$$&&&&&#.           ****    .$$$&&&&&#.         ****      .$$%&&%&&&.          ****     .$$%&&%&&&.         ",
"          .$$$&###&.                    .$$$&###&.                    .$$$&&&&&#.                   .$$$&&&&&#.                   .$$$&###&.                    .$$$&###&.                    .$$$&&&&&#.                   .$$$&&&&&#.         ",
"           .&&&&&&.                      .&&&&&&.                     .$$$&###&.                    .$$$&###&.                     .&&&&&&.                      .&&&&&&.                     .$$$&###&.                    .$$$&###&.          ",
"            .&&&&.                        .&&&&.                       .&&&&&&.                      .&&&&&&.                       .&&&&.                        .&&&&.                       .&&&&&&.                      .&&&&&&.           ",
"           ..####..                      ..####..                       .&&&&.                        .&&&&.                       ..####..                      ..####..                       .&&&&.                        .&&&&.            ",
"          .$$$&&&&&.                    .$$$&&&&&.                     ..####..                      ..####..                     .$$$&&&&&.                    .$$$&&&&&.                     ..####..                      ..####..           ",
"  =====   .%%%&&&%%%.         =====     .%%%&&&%%%.          =====    .$$$&&&&&.            =====   .$$$&&&&&.          =====     .%%%&&&%%%.          =====    .%%%&&&%%%.           =====   .$$$&&&&&.          =====     .$$$&&&&&.          ",
"          .%$$&&&&&%.                   .%$$&&&&&%.                   .%%%&&&%%%.                   .%%%&&&%%%.                   .%$$&&&&&%.                   .%$$&&&&&%.                   .%%%&&&%%%.                   .%%%&&&%%%.         ",
"          .$$$&&&&#.                    .$$$&&&&#.                    .%$$&&&&&%.                   .%$$&&&&&%.                   .$$$&&&&#.                    .$$$&&&&#.                    .%$$&&&&&%.                   .%$$&&&&&%.         ",
"          .$$#&&#&#.                    .$$#&&#&#.                    .$$$&&&&#.                    .$$$&&&&#.                    .$$#&&#&#.                    .$$#&&#&#.                    .$$$&&&&#.                    .$$$&&&&#.          ",
"          .$$#&&#&#.                    .$$#&&#&#.                    .$$#&&#&#.                    .$$#&&#&#.                    .$$#&&#&#.                    .$$#&&#&#.                    .$$#&&#&#.                    .$$#&&#&#.          ",
"          .&&#&&#&#.                    .&&#&&#&#.                    .$$#&&#&#.                    .$$#&&#&#.                    .&&#&&#&#.                    .&&#&&#&#.                    .$$#&&#&#.                    .$$#&&#&#.          ",
" ***      .&&#&&#&#.            ***     .&&#&&#&#.          ***       .&&#&&#&#.           ***      .&&#&&#&#.            ***     .&&#&&#&#.          ***       .&&#&&#&#.           ***      .&&#&&#&#.            ***     .&&#&&#&#.          ",
"          .%%%%%%%%.                    .%%%%%%%%.                    .&&#&&#&#.                    .&&#&&#&#.                    .%%%%%%%%.                    .%%%%%%%%.                    .&&#&&#&#.                    .&&#&&#&#.          ",
"           .##..##.                      .###.##.                     .%%%%%%%%.                    .%%%%%%%%.                     .##..##.                     ..##..###..                   .%%%%%%%%.                    .%%%%%%%%.          ",
"          .&&&&.##.                       ..###.                       .######.                      .######.                      .##.&&&&.                   .###.  ..###.                ..####..####..                ...###..###..         ",
"          .----.##.                       .##&&&.                      .######.                      .&&&&#.                       .##.----.                  .##..    .&&&&.              .###...  ...###.              .&&&&..  ..###.        ",
"           .....##.                       .##---.                      .##..##.                      .----#.                       .##.....                   .##.     .----.              .##.        .##.              .----.     .##.        ",
"              .&&&&.                     .&&&&..                      .&&&&&&&&.                      ..&&&&.                     .&&&&.                     .&&&&.     ....              .&&&&.      .&&&&.              ....     .&&&&.       ",
"              .----.                     .----.                       .--------.                       .----.                     .----.                     .----.                       .----.      .----.                       .----.       ",
"               ....                       ....                         ........                         ....                       ....                       ....                         ....        ....                         ....        "};
