/* XPM */
/*
  XPenguins theme "Vaporwave" -- sprites generated procedurally.
  Released into the public domain (CC0).
*/
static char * runner_bird_xpm[] = {
"240 60 9 1",
" 	c None",
".	c #45356B",
"+	c #FFB7CA",
"@	c #241B2F",
"#	c #E8D9FF",
"$	c #FF7A9E",
"%	c #FF9EDE",
"&	c #CE4A76",
"*	c #7BF1E8",
"                                                                                                                                                            ...                                                                                 ",
"      ...                                                                                                                     ...                          .+++.                          ...                           ...                     ",
"     .+++.                          ...                                                                                      .+++.                      ...++@++.                        .+++.                         .+++.                    ",
"  ...++@++.                        .+++.                          ...                           ...                       ...++@++.                    .###+++++.                     ...++@++.                     ...++@++.                   ",
" .###+++++.                     ...++@++.                        .+++.                         .+++.                     .###+++++.                   .@@##.+++$.                    .###+++++.                    .###+++++.                   ",
".@@##.+++$.                    .###+++++.                     ...++@++.                     ...++@++.                   .@@##.+++$.                   .@@.. ..+$.                   .@@##.+++$.                   .@@##.+++$.                   ",
".@@.. ..+$.                   .@@##.+++$.                    .###+++++.                    .###+++++.                   .@@.. ..+$.                    ..    .+$.                   .@@.. ..+$.                   .@@.. ..+$.                   ",
" ..    .+$.                   .@@.. ..+$.                   .@@##.+++$.                   .@@##.+++$.                    ..    .+$.                           .+.                    ..    .+$.                    ..    .+$.                   ",
"        .+.                    ..    .+$.                   .@@.. ..+$.                   .@@.. ..+$.                           .+.                           .+$.                          .+.                           .+.                   ",
"        .+$.              %%%%        .+.              %%%%  ..    .+$.             %%%%   ..    .+$.               %%%%        .+$.             %%%%         .+.$.           %%%%          .+$.              %%%%        .+$.             %%%% ",
"        .+.$.........                 .+$..........                 .+.                           .+.                           .+.$.........                  .+$.........                 .+.$.                         .+.$.                 ",
"         .+$+++++++++.                .+.$+++++++++.                .+$..........                 .+$..........                  .+$+++++++++.                  .++++++++++.                 .+$.........                  .+$.........         ",
"          .$$$$$$$$$$.                 .+$$$$$$$$$$.                .+.$+++++++++.                .+.$+++++++++.                  .$$$$$$$$$$.                  .$$$$$$$$$$.                  .++++++++++.                  .++++++++++.        ",
"         .$$$++++++$$$.                .$$$++++++$$$.                .+$$$$$$$$$$.                 .+$$$$$$$$$$.                 .$$$++++++$$$.                .$$$++++++$$$.                 .$$$$$$$$$$.                  .$$$$$$$$$$.        ",
"        .$$$++++++++$$$.              .$$$++++++++$$$.               .$$$++++++$$$.                .$$$++++++$$$.               .$$$++++++++$$$.              .$$$++++++++$$$.               .$$$++++++$$$.                .$$$++++++$$$.       ",
"        .$$++++++++++&$$.***          .$$++++++++++&$$.*****        .$$$++++++++$$$.*****         .$$$++++++++$$$.****          .$$++++++++++&$$.*****        .$$++++++++++&$$.****         .$$$++++++++$$$.****          .$$$++++++++$$$. *****",
"        .$$$&&&&++++$$&.              .$$$&&&&++++$$&.              .$$++++++++++&$$.             .$$++++++++++&$$.             .$$$&&&&++++$$&.              .$$$&&&&++++$$&.              .$$++++++++++&$$.             .$$++++++++++&$$.     ",
"         .$$$+++&&$&$$.                .$$$+++&&&&$$.               .$$$&&&&++++$$&.              .$$$&&&&++++$$&.               .$$$$++&&&&$$.                .$$$+++&&&&$$.               .$$$&&&&++++$$&.              .$$$&&&&++++$$&.      ",
"          .$$$$$$&&$$.                  .$$$$$$$$$$.                 .$$$+++&&&&$$.                .$$$+++&&&&$$.                 .$$&$$$$$$$.                  .$$$$$$$$$$.                 .$$$+++&&&&$$.                .$$$+++&&&&$$.       ",
"         .&&&&&&&&&&&&.                .&&&&&&&&$&&&.                 .$$$$$$$$$$.                  .$$$$$$$$$$.                 .&&&&&&&&&&&&.                .&&&$&&&&&&&&.                 .$$$$$$$$$$.                  .$$$$$$$$$$.        ",
"          ..&....&....                  ..&...&&....                 .&&&&&&&&&&&&.                .&&&&&&&&&&&&.                 ..&....&....                 ..&&....&....                 .&&&&&&&&&&&&.                .&&&&&&&&&&&&.       ",
"           .&. .$$$.      %%%            .&.&&..       %%%            ..&....&....     %%%          ....&&.&....    %%%           .$$$. .&.      %%%          .&&..   .&.        %%%          ..&....&....    %%%           ..&......&&.   %%%  ",
"            .&. ...                     .&.&..                        .&.   .&.                         ..&&.                      ...   .&.                 .&..    .&.                        .&. .&.                       .&.    ..&.       ",
"            .&.                         .&$$$.                        .&.    .&.                        .$$$&.                           .&.                .$$$.    .&.                        .&..&.                        .&.    .$$$.      ",
"            .$.                         .$...                         .$&.  .&$.                         ...$.                           .$.                 ...     .$..                      .&$..$&.                      ..$.     ...       ",
"            .&.                          .&&..                         ..&..&..                         ..&&.                            .&.                          .&&..                 ...&..  ..&...                 ..&&.                ",
"           .&.                            ..&&.                         .&&&&.                         .&&..                            .&.                            ..&&.               .&&&.      .&&&.               .&&..                 ",
"           .&.                              ..&.                       .&....&.                       .&..                              .&.                              ..&.             .&...        ...&.             .&..                   ",
"          .$$$.                             .$$$.                     .$$$..$$$.                     .$$$.                             .$$$.                             .$$$.           .$$$.          .$$$.           .$$$.                   ",
"           ...                               ...                       ...  ...                       ...                               ...                               ...             ...            ...             ...                    ",
"                                                                                                                                                                           ...                                                                  ",
"                     ...                                                                                                                     ...                          .+++.                          ...                           ...      ",
"                    .+++.                          ...                                                                                      .+++.                        .++@++...                      .+++.                         .+++.     ",
"                   .++@++...                      .+++.                          ...                           ...                         .++@++...                     .+++++###.                    .++@++...                     .++@++...  ",
"                   .+++++###.                    .++@++...                      .+++.                         .+++.                        .+++++###.                    .$+++.##@@.                   .+++++###.                    .+++++###. ",
"                   .$+++.##@@.                   .+++++###.                    .++@++...                     .++@++...                     .$+++.##@@.                   .$+.. ..@@.                   .$+++.##@@.                   .$+++.##@@.",
"                   .$+.. ..@@.                   .$+++.##@@.                   .+++++###.                    .+++++###.                    .$+.. ..@@.                   .$+.    ..                    .$+.. ..@@.                   .$+.. ..@@.",
"                   .$+.    ..                    .$+.. ..@@.                   .$+++.##@@.                   .$+++.##@@.                   .$+.    ..                    .+.                           .$+.    ..                    .$+.    .. ",
"                   .+.                           .$+.    ..                    .$+.. ..@@.                   .$+.. ..@@.                   .+.                          .$+.                           .+.                           .+.        ",
"%%%%              .$+.         %%%%              .+.          %%%%             .$+.    .. %%%%               .$+.    ..  %%%%             .$+.          %%%%           .$.+.        %%%%              .$+.         %%%%             .$+.        ",
"         .........$.+.                 ..........$+.                           .+.                           .+.                 .........$.+.                 .........$+.                          .$.+.                         .$.+.        ",
"        .+++++++++$+.                 .+++++++++$.+.                 ..........$+.                 ..........$+.                .+++++++++$+.                 .++++++++++.                   .........$+.                  .........$+.         ",
"        .$$$$$$$$$$.                  .$$$$$$$$$$+.                 .+++++++++$.+.                .+++++++++$.+.                .$$$$$$$$$$.                  .$$$$$$$$$$.                  .++++++++++.                  .++++++++++.          ",
"       .$$$++++++$$$.                .$$$++++++$$$.                 .$$$$$$$$$$+.                 .$$$$$$$$$$+.                .$$$++++++$$$.                .$$$++++++$$$.                 .$$$$$$$$$$.                  .$$$$$$$$$$.          ",
"      .$$$++++++++$$$.              .$$$++++++++$$$.               .$$$++++++$$$.                .$$$++++++$$$.               .$$$++++++++$$$.              .$$$++++++++$$$.               .$$$++++++$$$.                .$$$++++++$$$.         ",
"  ***.$$&++++++++++$$.        *****.$$&++++++++++$$.         *****.$$$++++++++$$$.          ****.$$$++++++++$$$.        *****.$$&++++++++++$$.         ****.$$&++++++++++$$.          ****.$$$++++++++$$$.        ***** .$$$++++++++$$$.        ",
"      .&$$++++&&&&$$$.              .&$$++++&&&&$$$.             .$$&++++++++++$$.             .$$&++++++++++$$.              .&$$++++&&&&$$$.              .&$$++++&&&&$$$.             .$$&++++++++++$$.             .$$&++++++++++$$.        ",
"       .$$&$&&+++$$$.                .$$&&&&+++$$$.               .&$$++++&&&&$$$.              .&$$++++&&&&$$$.               .$$&&&&++$$$$.                .$$&&&&+++$$$.               .&$$++++&&&&$$$.              .&$$++++&&&&$$$.        ",
"        .$$&&$$$$$$.                  .$$$$$$$$$$.                 .$$&&&&+++$$$.                .$$&&&&+++$$$.                 .$$$$$$$&$$.                  .$$$$$$$$$$.                 .$$&&&&+++$$$.                .$$&&&&+++$$$.         ",
"       .&&&&&&&&&&&&.                .&&&$&&&&&&&&.                 .$$$$$$$$$$.                  .$$$$$$$$$$.                 .&&&&&&&&&&&&.                .&&&&&&&&$&&&.                 .$$$$$$$$$$.                  .$$$$$$$$$$.          ",
"        ....&....&..                  ....&&...&..                 .&&&&&&&&&&&&.                .&&&&&&&&&&&&.                 ....&....&..                  ....&....&&..                .&&&&&&&&&&&&.                .&&&&&&&&&&&&.         ",
" %%%      .$$$. .&.             %%%       ..&&.&.           %%%     ....&....&..           %%%    ....&.&&....            %%%      .&. .$$$.          %%%        .&.   ..&&.         %%%    ....&....&..            %%%   .&&......&..          ",
"           ... .&.                          ..&.&.                     .&.   .&.                     .&&..                        .&.   ...                       .&.    ..&.                  .&. .&.                   .&..    .&.            ",
"               .&.                          .$$$&.                    .&.    .&.                    .&$$$.                        .&.                             .&.    .$$$.                  .&..&.                  .$$$.    .&.            ",
"               .$.                           ...$.                    .$&.  .&$.                    .$...                         .$.                            ..$.     ...                  .&$..$&.                  ...     .$..           ",
"               .&.                          ..&&.                      ..&..&..                      .&&..                        .&.                          ..&&.                        ...&..  ..&...                        .&&..         ",
"                .&.                        .&&..                        .&&&&.                        ..&&.                        .&.                        .&&..                        .&&&.      .&&&.                        ..&&.        ",
"                .&.                       .&..                         .&....&.                         ..&.                       .&.                       .&..                         .&...        ...&.                         ..&.       ",
"               .$$$.                     .$$$.                        .$$$..$$$.                        .$$$.                     .$$$.                     .$$$.                        .$$$.          .$$$.                        .$$$.      ",
"                ...                       ...                          ...  ...                          ...                       ...                       ...                          ...            ...                          ...       "};
