/* XPM */
/*
  XPenguins theme "Vaporwave" -- sprites generated procedurally.
  Released into the public domain (CC0).
*/
static char * splatted_dolphin_xpm[] = {
"240 30 8 1",
" 	c None",
".	c #FF71CE",
"+	c #01CDFE",
"@	c #45356B",
"#	c #7BF1E8",
"$	c #241B2F",
"%	c #E8D9FF",
"&	c #1A1224",
"                                                                                                                                                                                                                                                ",
"                                                                                                                                                                                                                                                ",
"                                                                                                                                                                                                                                                ",
"                                                                                                                                                                                                                                                ",
"                                                                                                                                                                                                                                                ",
"                                                                                                                                                                                                                                                ",
"                                                                                                                                                                                                                                                ",
"                                                                                                                                                                                                                                                ",
"                                                                                                                                                                                                                                                ",
"                                                                                                                                                                                                                                                ",
"                                                                                                                                                                                                                                                ",
"                                                                                                                                                                                                                                                ",
"                                                                                                                                                                                                                                .               ",
"                                                                                                                                                                                                  .                    +                  +     ",
"                                                                                                                                                                                          +                +                                    ",
"                                                                                                                                                                    .                                                                           ",
"                                                                                                                                      .                      +              +                                                                   ",
"                                                                                                                                +            +                                      .                                                           ",
"                                                                                                   +    .     +                                        .                          .                                                             ",
"                                                                          .                                                .                      .                                                                                             ",
"                                                                      +        +               .                  .                                                                                                                             ",
"              @#@                        +  .   +                  .              .                                                                                                                                                             ",
"          @@@@+++@@                    .     @#@@ .                                                                                                                                                                                             ",
"#@     @##+.++.+++.###@@@                @@@@++++@                        @#@@              +           @#@@         +  +                            +                                                                                          ",
"++#@###++++++++++++++++$$####@#@     +###+++++++++##+#@@         + @@@####++++#@@@@ +            @@#####++++#@@@@                     @#@@                                                                                                      ",
"@@@#%%%%%++++++++++++%%%%++++#++#@@##++++++++++++++++++$####@@ @@@#++++++++++++++++###@@@@@ @@@##++++++++++++++++###@@@@      @@@#####++++#@@@@@                   @##+##@                                                                      ",
"++#@@@@#%%%%%%%%#####%###@@@@@+++@@##%%%%%%%%%%%%%%%%%%%++%%@@#%%%%%++++++++++++++%%%%++++@#%%%%%%++++++++++++++%%%%++++##++++++++++++++++++++++++++++@ @@@##++++++++++++++++++###@@            @##++#@@                      @##++#@@          ",
"#@      @@##########@@        +#@    @###%%%%%%#######@@    ##@@@@#%%%%%%%%%######%###@@@@#@@@@##%%%%%%%%%######%###@@@@@@@@@#%%%%%%%%%%######%%###@@@+@###%%%%%%%%%%%%%%%%%%%%%%%+%#+++++++++++++++++++++++++++++++++++++++++++++++++++++++++++",
"                @@@           @          @@@@@@###@                   @@@@@@###@                   @@@@@@@###@@                  @@@@@@@###@@                   @@@@@@@###@@             @@@@############@@@@          @@@##############@@@     ",
"  &&&&&&&&&&&&&&&&&&&&&&&&&&    &&&&&&&&&&&&&&&&&&&&&&&&&&    &&&&&&&&&&&&&&&&&&&&&&&&&&    &&&&&&&&&&&&&&&&&&&&&&&&&&    &&&&&&&&&&&&&&&&&&&&&&&&&&    &&&&&&&&&&&&&&&&&&&&&&&&&&    &&&&&&&&&&&&&&&&&&&&&&&&&&    &&&&&&&&&&&&&&&&&&&&&&&&&&  "};
