/* XPM */
/*
  XPenguins theme "Vaporwave" -- sprites generated procedurally.
  Released into the public domain (CC0).
*/
static char * splatted_bird_xpm[] = {
"240 30 10 1",
" 	c None",
".	c #FF71CE",
"+	c #01CDFE",
"@	c #45356B",
"#	c #FFB7CA",
"$	c #E8D9FF",
"%	c #FF7A9E",
"&	c #241B2F",
"*	c #CE4A76",
"=	c #1A1224",
"                                                                                                                                                                                                                                                ",
"                                                                                                                                                                                                                                                ",
"                                                                                                                                                                                                                                                ",
"                                                                                                                                                                                                                                                ",
"                                                                                                                                                                                                                                                ",
"                                                                                                                                                                                                                                                ",
"                                                                                                                                                                                                                                                ",
"                                                                                                                                                                                                                                                ",
"                                                                                                                                                                                                                                                ",
"                                                                                                                                                                                                                                                ",
"                                                                                                                                                                                                                                                ",
"                                                                                                                                                                                                                                                ",
"                                                                                                                                                                                                                                .               ",
"                                                                                                                                                                                                  .                    +                  +     ",
"                                                                                                                                                                                          +                +                                    ",
"                 @####@                                                                                                                                             .                                                                           ",
"                @######$$$$@                    @####@@                                                                               .                      +              +                                                                   ",
"                @%#@@@ @@&&&@                  @#######$$$@@                   @####@@                                          +            +                                      .                                                           ",
"                @#@                            @%##@@  @@&&&                  @#######$$$$         +    .     +                                        .                          .                                                             ",
"    @@@@@@@@@@%%@#@                            @#@@                       .   @%##@     @@                  @@####@        .                      .                                                                                             ",
"  @@%%%%%%%%%%%%@                @############%#@                     +     @@%+@@             .           @%%####.$$$&&                   @####@@                                                                                              ",
"@%%%%#########%%%%@             @%%%%####+##.%%%+              @###.########%%#@  .                        @##@                          @@%####@@$$$&                                                                                          ",
"@*%%%#####****%%%%@           %%%*#####.#######%%@.         @%%%%###########%%%%@@          @#############%#@@                          @%%#@                            @###&&###@@                                                            ",
"  @@%%%%%%%.+%.%@+.             @%%******###%%%%@           @**%%######*****%%%%@@        %%+%############%%%%@      +  +@@%%%%%%%%%%%%%%@@          +                   @%%#@@                       @####&###@@@                              ",
"  @@@@@*@@@@*@@@@               @****+**********@   +        @@**+*************@    +     **%%######******%%%%@         %**##############%%%@           @##############%%#@@                          @##@@                          @@###&&###@",
"     @*@  +*@      +               @@*@  @*@                       @*@@ @**@              @@****************@@           @@%%%%%%%%%%%%%%@@           %%*################%%%@       @%%%%##########%%%%@@                          @@%%#@@      ",
"     @%@   @                       @@%@   @                      @@*@  @%@@                   @@*@@ @**@                      @**@ @@*@@              @@******************@@        @%%%******#####%%%%@@         %**################%%%@@      ",
"      @*@@                           @*@@                          @*@@                       @@*@@                         @@*@@                          @**@  @%%@                   @**@  @@*@@                     @@*@@  @**@             ",
"     @%%%%@                        @@%%%%@                       @@%%%%@                      @@%%%%@                       @@%%%%@                         @@*@@                        @@*@@                          @@*@@                   ",
"  ==========================    ==========================    ==========================    ==========================    ==========================    ==========================    ==========================    ==========================  "};
