/* XPM */
/*
  XPenguins theme "Vaporwave" -- sprites generated procedurally.
  Released into the public domain (CC0).
*/
static char * splatted_boom_xpm[] = {
"240 30 11 1",
" 	c None",
".	c #FF71CE",
"+	c #01CDFE",
"@	c #45356B",
"#	c #6F5A94",
"$	c #9D86C4",
"%	c #241B2F",
"&	c #2B1B3D",
"*	c #C7B3E8",
"=	c #7BF1E8",
"-	c #1A1224",
"                                                                                                                                                                                                                                                ",
"                                                                                                                                                                                                                                                ",
"                                                                                                                                                                                                                                                ",
"                                                                                                                                                                                                                                                ",
"                                                                                                                                                                                                                                                ",
"                                                                                                                                                                                                                                                ",
"                                                                                                                                                                                                                                                ",
"                                                                                                                                                                                                                                                ",
"                                                                                                                                                                                                                                                ",
"                                                                                                                                                                                                                                                ",
"                                                                                                                                                                                                                                                ",
"                                                                                                                                                                                                                                                ",
"                                                                                                                                                                                                                                .               ",
"                                                                                                                                                                                                  .                    +                  +     ",
"        @############@       @                                                                                                                                                            +                +                                    ",
"        @#@        @#@      @$       @#############@@                                                                                                               .                                                                           ",
"@@%%%%%%%%%%%%%%%%%%%%%%%%%%$@       @##@        @#@@      @                                                                          .                      +              +                                                                   ",
"@@@@@$$$$$$$$$$$$$$$$$$$$@@@@%@%%%%%%%%%%%%%%%%%%%%%%%%%%%%$       @##############@                                             +            +                                      .                                                           ",
"@@@@@$&&&###*****####&&$$@@@@%@@@@@$$$$$$$$$$$$$$$$$$$$@@@@@       @#@@        @##@             @##+####.#####+@@                                      .                          .                                                             ",
"@@@@@$&&&############&&$$@@@@%@@@@@$&&####*****####&&&$@@@@@##############.###############@@@@@@@##@@@@@@@@@@@#@@@@@@@@$   .                      .                                                                                             ",
"@@@%%%%%%@#@@@@#@@@@#%%%%%%@@%@@@@@$&&#############&&&$@@@@@@@@@$&&&&#+&&&&&&&&+&&&&$$@@@@#####.##################.####%      @###############@                                                                                                 ",
"%%%#++++#%%@##@#@##%%#++++#%%%@@%%%%%%@@#+@@.#@@+@#%%%%%%%@@@@@@$&&.##############.&$$@@@@@@@$$&&#####*****####&&&$@@@@@%%%%%%%%%%%%%%%%%%%%%%%%%%%%%%     @@###############@                                                                   ",
"%%#+#=##+#%@@@@@@@@%#+#==#+#%%%#+++#++#.%@@@@@@@@%.+++#+++#%@%%%%%%%@##@@@@#@@@@##%%%%%%@@@@@$$$$$$#$$$$$$$$##$$$$$@@@@@@@@$&&&&##&&&&&&&&&#&&&&$$@@@@%%%%%%%%%%%%%%%%%%%%%%%%%%%%%%                                                            ",
"%%%#++++#%%.+*.$@+.%%#++++#%%%%#+++#++##%@**@$@$$%#+++#+++#%#+++#+++#%%@@@@@@@@%##++##++##%%+###%%%#@@#@##@#@@%%%####+%@+@@$&&&###############&&$$@@@+@@$$&&&####******#####&&&$@@@@      @##@@@@@@@@@@@@##@                                    ",
"%%%%%%%%%%%%%%%%%%%%%%%%%%%%%@@%%####+%%@@@@@@@@@@%%+###%%%@#+++#+++#%%@*@@$@@$%##+++#++###+#==#+##%@@@@@@@@%%#++#=##+#%#+++++#%%%@##@##@##%%%#++++##%%%%%%%%@##@@@@##@@@@##%%%%%%%@@@$$$$$$$$$$$$$$$$$$$$$$$$$$@@     @@#@@          @@#@@     ",
"  @@@@@@@@+#@@@@@##+@@@@@@@@  @%%%%%%%%%%%%%%%%%%%%%%%%%%%%@%%%%%%%%%%%%%%%%%%%%%%%%%%%%%%%%####%%%@@@@@@@@@@@%%%####%%@+++#+++#%%@**@$$@$$%##++##+++#++##+++#%%@@@@@@@@@%##+++#+++#@@$$$$$$$#$$$$$$$$$$#$$$$$$$@@@@$&&&&#####******#####&&&$$@@",
"         @##@@  @###@                 @@##@@  @###@         @@@@@@@@@###@@@@@@##@@@@@@@@@@@@@@@@@@@###@@@@@###@@@@@@@@@ %%%%%%%%%%%%%%%%%%%%%%%%%%%%%%%####%%%@@@@@@@@@@@@%%%#####%%+#==##+##%@@@@@@@@@@%##+##==#++++++##%%%@@#@@##@##%%%##+++++",
"        @*****@@*****@                @@##@@  @###@                 @###@   @@##@@               @@###@   @###@                @###@@   @###@@               @###@@   @###@@        %%%%%%%%%%%%%%%%%%%%%%%%%%%%%%%%%%%%%%%%%%%%%%%%%%%%%%%%%%%%",
"         @@@@@  @@@@@                @%%%%%%@@%%%%%@@              @%%%%%@@@%%%%%%@             @%%%%%%@@@%%%%%@@             @%%%%%%@@@%%%%%%@            @@%%%%%%@@@%%%%%%@             @******@@@@******@           @@******@@@@******@@     ",
"  --------------------------    --------------------------    --------------------------    --------------------------    --------------------------    --------------------------    --------------------------    --------------------------  "};
