/* XPM */
/*
  XPenguins theme "Vaporwave" -- sprites generated procedurally.
  Released into the public domain (CC0).
*/
static char * splatted_statue_xpm[] = {
"240 30 12 1",
" 	c None",
".	c #FF71CE",
"+	c #01CDFE",
"@	c #45356B",
"#	c #05FFA1",
"$	c #00A678",
"%	c #CBBCDD",
"&	c #FFFFFF",
"*	c #EFE6F7",
"=	c #9C8BB0",
"-	c #241B2F",
";	c #1A1224",
"                                                                                                                                                                                                                                                ",
"                                                                                                                                                                                                                                                ",
"                                                                                                                                                                                                                                                ",
"                                                                                                                                                                                                                                                ",
"                                                                                                                                                                                                                                                ",
"                                                                                                                                                                                                                                                ",
"                                                                                                                                                                                                                                                ",
"                                                                                                                                                                                                                                                ",
"                                                                                                                                                                                                                                                ",
"                                                                                                                                                                                                                                                ",
"                                                                                                                                                                                                                                                ",
"                                                                                                                                                                                                                                                ",
"                                                                                                                                                                                                                                .               ",
"                                                                                                                                                                                                  .                    +                  +     ",
"      @##$@%%%%%%%@$##@                                                                                                                                                                   +                +                                    ",
"     @#$$%%%%%%%%%%%$$#@            @##$@%%%%%%%%@$#@@                                                                                                              .                                                                           ",
"      @##$%%%%%%%%%$##@            @#$$%%%%%%%%%%%%$##@                                                                               .                      +              +                                                                   ",
"         @&&&******@                @##$%%%%%%%%%%$#@@           @@#$@@%%%%%%%@@$#@@                                            +            +                                      .                                                           ",
"         @&&&******%@@                 @&&&&******@             @##$%%%%%%%%%%%%%$##@          @##$+@%%%.%%%%@+$##@                                    .                          .                                                             ",
"          @*******@                    @&&&&******%@               @=&&&&*.*****=@             @$$%%%%%%%%%%%%%%$$@        .                      .                                                                                             ",
"          @@%%%%%@@                     @********@                  @&+&=***=**+*@             .@@=&&&&&*******=@@.          @##$@@%%%%%%%%@@$##@                                                                                               ",
"         @===****===@@                  @+@%.%%@+@                 . @@*******@@  .               @&&&&&*******%@@           @##$%%%%%%%%%%%%$##@         @##$$@%%%%%%%%%@@$##@                                                                 ",
"         @&&&*****%@                   .=&&&******.@                 @@@%%%%%@@@                     @******@                   @&&&==**==****@@          @##$$%%%%%%%%%%%%$##@                                                                 ",
"         @&.+*.*%+.@                   @&&&%**%**%@                 @==&&*******=@          +     @&&&&&*******@     +  +        @@********@@        +       @@&&&&********%@@        @@$@@@==&%%==&%%=&&@@@$@@                                 ",
"         @**%***%*%@                 + @***%**%**%@ +            +  @&&&%***%*%%@   +             @&&&&&*****%%@                @=====****====@@               @@%%%%%%@@@@                @&&&&&********@          @@#$$%%%%%%%%%%%%%%%%$$#@@  ",
"          +%%@@@%%@+                   @==========@                 @***%***%*%%@                 @***%%**%%*%%@                @&&&%%**%%*%%@               @@=&&&********=@@                @*******@                  @&&&&&*********%@@     ",
"          @%%@@@%%@                     @%%%@@%%%@                   @@%%@@@%%@@                   @@%%%@@%%%@@                 @***%%**%%*%%@               @@**%%***%**%%@               @&&&&&******%%@               @=====*****=====@@     ",
"         @*********@                    @%%%@@%%%@                   @@%%@@@%%@@                   @@%%%@@%%%@@                  @@%%%@@%%%@@                  @%%%@@@%%%@@                @=============@               @****%****%**%%@       ",
"          @@@@@@@@@                    @----------@                 @-----------@                 @------------@                @------------@               @@------------@               @*************@               @**************@       ",
"  ;;;;;;;;;;;;;;;;;;;;;;;;;;    ;;;;;;;;;;;;;;;;;;;;;;;;;;    ;;;;;;;;;;;;;;;;;;;;;;;;;;    ;;;;;;;;;;;;;;;;;;;;;;;;;;    ;;;;;;;;;;;;;;;;;;;;;;;;;;    ;;;;;;;;;;;;;;;;;;;;;;;;;;    ;;;;;;;;;;;;;;;;;;;;;;;;;;    ;;;;;;;;;;;;;;;;;;;;;;;;;;  "};
