/* XPM */
/*
  XPenguins theme "Vaporwave" -- sprites generated procedurally.
  Released into the public domain (CC0).
*/
static char * squashed_statue_xpm[] = {
"240 30 12 1",
" 	c None",
".	c #45356B",
"+	c #05FFA1",
"@	c #00A678",
"#	c #CBBCDD",
"$	c #9C8BB0",
"%	c #FFFFFF",
"&	c #EFE6F7",
"*	c #FF71CE",
"=	c #01CDFE",
"-	c #241B2F",
";	c #1A1224",
"        .+@.######.@+.                                                                                                                                                                                                                          ",
"       .@..$%#$%#$%..@.                                                                                                                                                                                                                         ",
"       .+@##########@+.                                                                                                                                                                                                                         ",
"        .@##########@.               .@. ....... .@.                                                                                                                                                                                            ",
"        .+@########@+.               .+@.#######.@+.                                                                                                                                                                                            ",
"         .$%%%&&&&&$.               .@..$%#$%%#$%..@.                                                                                                                                                                                           ",
"          .%%%&&&&&.                 .@###########@.                                                                                                                                                                                            ",
"          .%%$&&$&&&.                .+@#########@+.               .@.  ...... ..@.                                                                                                                                                             ",
"          .%%%&&&&&#.                 .$%%%&&&&&&$.               .@..$$%#$%#$%...@.                                                                                                                                                            ",
"          .%%%&###&.                   .%%%&&&&&&.                .+@############@+.                                                                                                                                                            ",
"           .&&&&&&.                    .%%$&&&$&&&.                .@############@.                                                                                                                                                             ",
"            .&&&&.                     .%%%&&&&&&#.                 .$%%%%&&&&&$$.              .@@. ....... .@@.                                                                                                                               ",
"           ..####..                    .%%%&####&.                   .%%%%&&&&&..              .@...$%#$%%#$%...@.                                                                                                                              ",
"          .%%%&&&&&.                     .&&&&&.                     .%%%$&&$&&&&.              .@@###########@@.                                                                                                                               ",
"          .$$$&&&$$$.                   ..#####..                    .%%%%&###&..               .++@#########@++.             .++@.########.@+..                                                                                                ",
"          .$%%&&&&&$.                  .%%%&&&&&&.                    ..&&&&&&.                    .%%%&&&&&&.               .+@@############@++.                                                                                               ",
"          .%%%&&&&#.                   .$$$&&&&$$$.                     .&&&&.                     .%%%&&&&&&#..              .++@##########@+..                                                                                                ",
"          .%%#&&#&#.                   .$%%&&&&&&$.                  .%%%%&&&&&..                  .%%%&####&.                   .%%%%&&&&&&.                                                                                                   ",
"          .%%#&&#&#.                   .%%%&&&&&#.                   .$$$$&&&$$$$.                   .&&&&&.                     .%%%%&&&&&&#.              .++@.########.@++.                                                                  ",
"          .&&#&&#&#.                   .%%#&&&#&#.                   .%%%%&&&&#..                  .%%%&&&&&&.                    .&&&&&&&&.                .@@############@@.                                                                  ",
"          .&&#&&#&#.                   .&&#&&&#&#.                   .%%%#&&#&#..                  .$$$&&&&$$$..                  ...####...                 ..$%%%%&&&&&&$..                                                                   ",
"          .$$$$$$$$.                   .&&#&&&#&#.                   .%%%#&&#&#..                  .%%%&&&&&#.                   .$$$$&&&$$$$.                 .%%%%&&&&&&#..                                                                   ",
"           .##..##.                    .$$$$$$$$$.                   .&&&#&&#&#..                  .%%#&&&#&#.                   .%%%%&&&&&#.                    .&&&&&&.               .@@..$$%##$%##$%%..@@.                                  ",
"           .##..##.              *      .##...##.       =    *       .$$$$$$$$$..       = *        .&&#&&&#&#.                   .%%%#&&#&&#.                  .%%%%&&&&&&.                .$%%%%%&&&&&&&$.                                     ",
"           .##..##.                     .##...##.                     ..##..##.                    .$$$$$$$$$.                   .&&&#&&#&&#.                  .%%%%&&&&&#.                 .%%%%%&####&&.                                      ",
"           .##..##.               *     .##...##.      =      *       ..##..##.        =  *         .##...##.          =          .###..###.                   .&&##&&##&#.                 .$$$$$&&&&$$$$.          .++@###############@++.    ",
"          .&&&&&&&&.                   .&&&&&&&&&.                    ..##..##.                     .##...##.                     .###..###.                    .###..###.                  .%%%##&&##&##.                 .&&&&&&&&&.          ",
"          .--------.               *   .---------.    =        *     .&&&&&&&&&..     =    *       .&&&&&&&&&.        =          .&&&&&&&&&&.                   .###..###.                   ..###..###..                ..%%%#&&&#&&#..        ",
"           ........                     .........                     .........                     .........                     ..........                   .----------.                 .&&&&&&&&&&&&.                 .###...###.          ",
"                                                                                             ;;;;;;;;;;;;;;;;;;;;;;;;;     ;;;;;;;;;;;;;;;;;;;;;;;;;     ;;;;;;;;;;;;;;;;;;;;;;;;;     ;;;;;;;;;;;;;;;;;;;;;;;;;     ;;;;;;;;;;;;;;;;;;;;;;;;;  "};
