/* XPM */
/*
  XPenguins theme "Vaporwave" -- sprites generated procedurally.
  Released into the public domain (CC0).
*/
static char * squashed_palm_xpm[] = {
"240 30 13 1",
" 	c None",
".	c #45356B",
"+	c #05FFA1",
"@	c #00A678",
"#	c #96FFD0",
"$	c #5C3780",
"%	c #FFC25E",
"&	c #925CC4",
"*	c #FFFB96",
"=	c #FF71CE",
"-	c #01CDFE",
";	c #241B2F",
">	c #1A1224",
"     .+@+@@+@+@#+@++@+.                                                                                                                                                                                                                         ",
"     ..+@+@@@+@+@+@@+..                                                                                                                                                                                                                         ",
"    .++@+@@@++.++@++@@+.                                                                                                                                                                                                                        ",
"     .@.@..@@@++@.@..@.            .####+@##@@###@+##.                                                                                                                                                                                          ",
"    .+@.@. .@@@@. .@..@.           .+@+@@+@+@@#+@++@+.                                                                                                                                                                                          ",
"   .+@.+@.  .@@@. .+. .+.          ..+@+@@@+@@+@+@@+..                                                                                                                                                                                          ",
"    .@..@. .@@@@@..@. .@.          .@.@..@@@+++@.@..@.                                                                                                                                                                                          ",
"   .+..+.  .$@@@$..+. .+.         .+@.@. .@@@@@. .@..@.         .#####+@##@@###@+##..                                                                                                                                                           ",
"   .+..+.  .$+@$$. .+. .+.       .+@.+@.  .@@@@. .+. .+.        ...+@+@@@+@@+@+@@+...                                                                                                                                                           ",
"   .@..@. .%$@&&$*..@. .@.        .@..@. .@@@@@@..@. .@.       .+++@+@@@++..++@++@@++.                                                                                                                                                          ",
"   .+..+.  .%+&&$. .+. .+.       .+..+.  .$@@@@$..+. .+.        .@@.@..@@@+++@.@..@..                                                                                                                                                           ",
"    .  .   .$$&$$.  .   .        .+..+.  .$+@@$$. .+. .+.     .+@..+@.  .@@@@. .+. ..+.      ..####+@@##@####@+##.                                                                                                                              ",
"           .$&&&$.               .@..@. .%$@&&&$*..@. .@.      .@...@. .@@@@@@..@. ..@.      ...+@+@@@@+@+@++@@+..                                                                                                                              ",
"           .$&&&$.                .  .   .$$&&$$.  .   .      .+...+.  .$@@@@$..+. ..+.      ..@.@..@@@@++@..@..@.                                                                                                                              ",
"           .$$&$$.                       .$&&&&$.             .@...@. .%$@&&&$*..@.  .@.    .++@.@. ..@@@@.  .@..@..       .+@++@@+@@+@#++@++@@+.                                                                                               ",
"           .$&&&$.                       .$&&&&$.             .+...+.  .%+&&&$. .+.  .+.    .@@..@. ..@@@@@...@. .@@.    ..++@++@@@+++.+++@++@@@+.                                                                                              ",
"           .$&&&$.                       .$$&&$$.              .   .   .$$&&$$.  .    .    .+...+.  ..$+@$$.. .+. ..+.   ..+@.@@. .@@@@@.. .@...@.                                                                                              ",
"           .$$&$$.                       .$&&&&$.                      .$&&&&$.            .@...@. .%%$@&&$**..@. ..@.   ..@..@@. .@@@@@@@..@.. .@..                                                                                            ",
"           .$&&&$.                       .$&&&&$.                      .$$&&$$.             .   .   ..$$&$$..  .    .   .++..+..  .$$+@$$$. .++. .++.    .+@@+@@++@+@@#+@@++@++.                                                                ",
"           .$&&&$.                       .$&&&&$.                      .$&&&&$.                     ..$&&&$..           .++..+..  .%%+&&$$. .++. .++.    .@..@..@@@@+++@..@..@@.                                                                ",
"           .$$&$$.                       .$&&&&$.                      .$$&&$$.                     ..$$&$$..                     .$$&&&$$.           .++@.++@.   .@@@@.  .+.  .+..                                                             ",
"          .&&..&&.                       .$$&&$$.                      .$&&&&$.                     ..$&&&$..                     .$$$&$$$.           .++..++.  ..$+@@$$.. .+.. .++.                                                            ",
"          .&&..&&.                      .&&...&&.                      .$$&&$$.                     ..$&&&$..                     .$$&&&$$.            ..  ..   ..$$&&$$..  .    ..    ..++@+@@@@++@++@+@@@+...                                 ",
"          .&&..&&.               =      .&&...&&.       -    =        .&&...&&.         - =         ..$&&&$..                     .$$&&&$$.                     ..$&&&&$..          .++@.++@.   .@@@@@. ..+.  .+..                              ",
"          .&&..&&.                      .&&...&&.                     .&&...&&.                    .&&&..&&..                     .$$$&$$$.                     ..$&&&&$..          .@@..@@. ..%$@@&&&$*...@.. .@@                              ",
"          .&&..&&.                =     .&&...&&.      -      =       .&&...&&.        -  =        .&&&..&&..          -         .&&&..&&&.                     ..$&&&&$..                     .$$$&$$$.          ..+++@++@@@@+++.+++@@++@@@++. ",
"         .$$$$$$$$.                    .$$$$$$$$$.                    .&&...&&.                    .&&&..&&..                    .&&&..&&&.                    .&&&...&&..                     .$&&&&&$.          ++...+..  ..%++&&&$.. .++.  .+",
"         .;;;;;;;;.                =   .;;;;;;;;;.    -        =     .$$$$$$$$$.      -    =      .$$$$$$$$$$.        -         .$$$$$$$$$$.                   .&&&...&&..                   ..&&...&&&.                    ..$$$&$$$..         ",
"          ........                      .........                     .........                    ..........                    ..........                   .;;;;;;;;;;;.                 .$$$$$$$$$$$..                 .&&&...&&&..         ",
"                                                                                             >>>>>>>>>>>>>>>>>>>>>>>>>     >>>>>>>>>>>>>>>>>>>>>>>>>     >>>>>>>>>>>>>>>>>>>>>>>>>     >>>>>>>>>>>>>>>>>>>>>>>>>     >>>>>>>>>>>>>>>>>>>>>>>>>  "};
