/* XPM */
/*
  XPenguins theme "Vaporwave" -- sprites generated procedurally.
  Released into the public domain (CC0).
*/
static char * squashed_dolphin_xpm[] = {
"240 30 8 1",
" 	c None",
".	c #45356B",
"+	c #7BF1E8",
"@	c #01CDFE",
"#	c #241B2F",
"$	c #E8D9FF",
"%	c #FF71CE",
"&	c #1A1224",
"                                                                                                                                                                                                                                                ",
"                                                                                                                                                                                                                                                ",
"                                                                                                                                                                                                                                                ",
"                                                                                                                                                                                                                                                ",
"                                                                                                                                                                                                                                                ",
"                                                                                                                                                                                                                                                ",
"                                                                                                                                                                                                                                                ",
"                                                                                                                                                                                                                                                ",
"                                                                                                                                                                                                                                                ",
"                                                                                                                                                                                                                                                ",
"                                                                                                                                                                                                                                                ",
"                                                                                                                                                                                                                                                ",
"                                                                                                                                                                                                                                                ",
"               .                                                                                                                                                                                                                                ",
"              .+.                                                                                                                                                                                                                               ",
"             .+@+.                           .                                                                                                                                                                                                  ",
" .         ...@@@.                          .+.                                                                                                                                                                                                 ",
".+.      ..+++@@@+...                      .+@+.                           .                                                                                                                                                                    ",
".@+.    .++@@@@@@@+++..       .          ...@@@.                         .+@+.                                                                                                                                                                  ",
".@@+. ..+@@@@@@@@@@@@++....   @+.     .++@@@@@@@+++...                ....@@@.                           ..                                                                                                                                     ",
".@@@+.++@@@@@@@@@@@@@@#++++.. @@+. ...+@@@@@@@@@@@@+++....  .       ..++++@@@+....                     .+@@+.                                                                                                                                   ",
".@@@@+@@@@@@@@@@@@@@@@@@@@@++.@@@+.+++@@@@@@@@@@@@@@##++++..+..    .++@@@@@@@@++++..      .       ...+++@@@@+...                      ..+.                                                                                                      ",
" ....+$$$$@@@@@@@@@@$$$@@@@++.@@@@+@@@@@@@@@@@@@@@@@@@@@@@++@@@+.++@@@@@@@@@@@@@@@@#+++++.+..    .+++@@@@@@@@+++...                ...@@@@.                                                                                                     ",
".@@@@.++$$$$$$$$$$$$$$$@$$$$. ...%+$$$$$@@@@@@@@@@$$$$@@@@++@%@@+@@@@@@@@@@@@@@@@@@@@@@@@+%@@+.++@@@@@@@@@@@@@@@@@#++++.+.     .+++@@@@@@@@++++..                   .++.                                                                        ",
".@@@+...+$$$$$$$++++$++.....  @@@@.+++$$$$$$$$$$$$$$$$@$$$$.@@@@.++$$$$$$$$$$$$$$$$$@$$$$$@@@@+@@@@@@@@@@@@@@@@@@@@@@@@+@@+.+++@@@@@@@@@@@@@@@@@#+++++        ..++++@@@@+....                                                                   ",
".@@+.   .++$$$$$+++++..       @@@+%...+$$$$$$$++++$+++.@... @@%+...+$$$$$$$$+++++$++...@..%@@@.++$$$$$$$$$$$$$$$$$$@$$$@...+$$$$$@@@@@@@@@@@@@$$$@@@@@+.  ..++@@@@@@@@@@@@@@@+++....             ..+@@+.                                        ",
".@+.     ..++++++++..         @+.      ..++++++++..         @++.   .++$$$$$$++++++..      @@@+...+$$$$$$$$$++++$+++.....@@+....+$$$$$$$$$+++++$++.......++$$$$$@@@@@@@@@@@@@$$$$@@@@+.. ...+@@@@@@@@@@@@@@@@+++...                              ",
".+.        .....++.           +.   %     .....++.     @     .  %      ......++..      @   +%.     ...+++++++++..      @ +.      ...+++++++++...       @+....++$$$$$$$$$+++++$+++....@@@.+++$$$$$$$$$$$$$$$$$$$$@$$++.         ...++++@@@@++.... ",
" .              ..            .               ..                            ..                             ..                            ..                     .......++..                    .......++..        @@@++.    ..+++$$$$$$$+++++++.",
"                                                                                             &&&&&&&&&&&&&&&&&&&&&&&&&     &&&&&&&&&&&&&&&&&&&&&&&&&     &&&&&&&&&&&&&&&&&&&&&&&&&     &&&&&&&&&&&&&&&&&&&&&&&&&     &&&&&&&&&&&&&&&&&&&&&&&&&  "};
