/* XPM */
/*
  XPenguins theme "Vaporwave" -- sprites generated procedurally.
  Released into the public domain (CC0).
*/
static char * tumbler_xpm[] = {
"240 30 9 1",
" 	c None",
".	c #241B2F",
"+	c #C7B3E8",
"@	c #6F5A94",
"#	c #45356B",
"$	c #E8D9FF",
"%	c #2B1B3D",
"&	c #9D86C4",
"*	c #05FFA1",
"                                             .  .                          ..                                                                                                                                                .  .               ",
"                                            ..++..                         @                                                       ........                                                                                 ..+@..              ",
"       ................                    ..+##+..                        @                                                       $$$$$$$$                                                                                ..+##@..             ",
"      .++++++++++++++++.           .      ..+##+#+..                        @                    .$                                 ++  ++                                 $.                                             ..+#%##@..            ",
"     .+################@.          .     ..+##+%%#+..                        @                  .$$                .                ++  ++                                 $$.                                           ..+#+%%##@..           ",
"     .+#+%%&%+&%+&%+%%#@.           @  @..+##%$$%&#+..                    ............         .$$++              @..               ++  ++                                ++$$.         ............                    ..+#%+++%##@..          ",
"     .+#+$$+&%+%%&%+&%#@.              ..+##&+%%+%%#+..                  .&+++++++++++.       .$$ +++   .        @@                 ++  ++                           .   +++ $$.       .@@@@@@@@@@@@.                  ..+#&&%%%++##@..         ",
"     .+#%$%%&%+&%+&%+%#@.             ..+##&%+&%&&+&#+..                .&+###########+.     .$$   +++ .+   .  .                    ++  ++                    .  .   +. +++   $$.     .+###########+&.                ..+#%+&+&%&%+##@..        ",
"     .+#%+&%+&%+%%&%+&#@.            ..+##%&++%+&%+%%#+..               .&+#%%+&&%%++#+.     $$++   ++.+   ..&&..                ............                ..@&..   +.++   ++$$     .+#%%%&++%%&#+*.               ..+#&%%%+%+&&&%##@..       ",
"     .+#&%+%%&%+&%+&%+#@.             &+#%&%%&%%&+&%+&#+..          ..  .@+#+&&%%+$$%#+.       +++   .+   ..&+#+..@              .++++++++++.               ..@++*..   +.   +++       .+#%&++%%&&+#+&.  ..          ..+#%++&&%%%%+%&&#+@        ",
"     .+#&%+&%+&%+%%&%+#@.             &++#&%+%%+%+&%&&%#+..         .+  .&+#&%%++&%$%#+.        +++ .+@  ..&+###+..                  @@@@                  ..@##++&..  @+. +++        .+#++%%&&+%%#+&.  +.         ..+#&%&%++++%&%%%#++&        ",
"     .+#+&%+%%&%+&%+&%#@.            ..&++#%&&%&%+%++%++#+.. .$     .+  .@+#%++&%%%+&#+.         ++.+@@&..@+##%##+..                 &@@&                 ..@##&#++&..&@@+.++         .+#%%&&+%%%&#+&.  +.     $. ..+#%%+&&&%%%+++&#++*..       ",
"    @.+#%&%+&%+&%+%%&%#@.             ..&++#+%+%%+%%&%+%%#+  .$+++++.+  .&+#+&%%%+&&%#+.          .+@@@..&+##&&%##+..          ................          ..@##%&%#++&..@@@+.          .+#&&+%%%&++#+&.  +.+++++$.  +#+%$%%+%+&%&%+#++&..        ",
".  @ .+#%+&%+%%&%+&%+&#@.              ..@++#%&&+%%+%%+%##@  .$+++++.+@&.@+#%%%+&&%%+#+.         .+  &..&+##%%%&&##+..        .&*&&&&&&&@&@&@&&.        ..@##+&%%&#++&..&  +.         .+#+%%%&++%%#+&.&@+.+++++$.  +##+$%&%%%%+&&#++&..         ",
".@@  .+################@.               ..&++#&%+&%&&+%##@.. .$     .+@@.&+#%+&&%%++&#+.        .+   ..&+##+&+%+%&##+..      .@++++++++++++++++&.      ..@##+%&+%++#++&..   +.        .+#%%&++%%&&#+&.@@+.     $. ..+##%+++&%&%%#++&..          ",
"     .&++++++++++++++++@.           .+   ..&++#++%+&%+##@..  .$     .+@@.&+#&&%%++&%%#+.            ..&+##%%&%&+++%##+..     .@################+.  @@...@##%+&&%&+%&#++&..            .+#&++%%&&+%#+&.@@+.     $.  ..+##&%+%+&+#++&..   +.      ",
"      .&&@&@&@&&&&&&&*&.             .+  &..&++#&%%&+##@..   .$+++++.+@&.&+#%%++&%%%+#+.           ..&+##&&+%%%%&%$+##+      .@#&+%&+%&%%+%&+%#+. @  . @##%+%%+%%+&+%#++@..           .+#+%%&&+%%%#+@.&@+.+++++$.   ..+##&&%%%#++&..&  +.       ",
"       ................               .+@@@..&++#%&%##@..    .$+++++.+  .&+#++&%%%+&&#+.          ..&+##+%&%&+%+%%$%+#+      .@#%&%%+%&+%&+%&%#+.@     +#%%+%&%%+%&+%+#++&..          .+#%&&+%%%&+#+&.  +.+++++$.    ..+##%&&#++&..@@@+.        ",
"             &@@&                    ++.+@@&..&++#&##@..     .$     .+  .&+#&%%%+&&%%#+.         ..*+##&+++%%%&&&+%%#+..     .@#%&+%&+%&%%+%&+#+.     ..+#++%++%+&&%&&%#++&..         .+#&+%%%&++%#+@.  +.     $.     ..+##%#++@..&@@+.++       ",
"             @@@@                   +++ .+@  ..&++##@..             .+  .&+#%%+&&%%++#+.          &+##%%%&%++++%&%&#+..      .@#+%&%%+%&+%&+%&#+.      ..+#%&&%&%%+%%+%&#++&          .+#%$%&++%%&#+&.  +.             ..+##++&..  @+. +++      ",
"         .++++++++++.              +++   .+   ..*++@..              ..  .&+#+&&%%++&%#+.          @##&&%+%%%%&&++%#+..       .@#+%&+%&+%&%%+%&#+.       ..+#&+%++&%%&%%&%#+&          .+#%$$+%%&&+#+@.  ..             @..+++&..   +.   +++     ",
"         ............            $$++   ++.+   ..&@..                   .*+#&%%++&%%%#+.         ..@##%&&&+%+%%%&#+..        .@#&+%&%%+%&+%&+%#+.        ..+#%&+%&+%++&%##+..         .+#++%%&&+%%#+&.                   ..&&..   +.++   ++$$   ",
"            ++  ++               .$$   +++ .+   .  .                    .&+###########+.          ..@##+%&%&+&+%#+..         .@#%+%&+%&+%&%%$%#+.         ..+#&+&&%&+%&##+..          .+###########+&.                    .  .   +. +++   $$.   ",
"            ++  ++                .$$ +++   .                            .@@@@@@@@@@@@.            ..@##++%%%&&#+..          .@#%&+%&%%+%&+$$+#+.          ..+#%%+%%+&##+..            .+++++++++++&.                  @         .   +++ $$.    ",
"            ++  ++                 .$$++                                  ............              ..@##%+++%#+..           .@#%%+%&+%&+%&%%+#+.           ..+#&%$$%##+..@  @          ............                 ..               ++$$.     ",
"            ++  ++                  .$$                                                              ..@##%%+#+..            .@################+.            ..+#%%+##+..     .                 @                                      $$.      ",
"            ++  ++                   .$                                                               ..@##%#+..              .++++++++++++++++.              ..+#+##+..      .                  @                                     $.       ",
"           $$$$$$$$                                                                                    ..@##+..                ................                ..+##+..                           @                                             ",
"           ........                                                                                     ..@+..                                                  ..++..                            @                                             ",
"                                                                                                         .  .                                                    .  .                            ..                                             "};
