/* XPM */
/*
  XPenguins theme "Vaporwave" -- sprites generated procedurally.
  Released into the public domain (CC0).
*/
static char * tumbler_tape_xpm[] = {
"240 30 11 1",
" 	c None",
".	c #9D86C4",
"+	c #6F5A94",
"@	c #241B2F",
"#	c #FF71CE",
"$	c #FF9EDE",
"%	c #01CDFE",
"&	c #B967FF",
"*	c #C7B3E8",
"=	c #E8D9FF",
"-	c #2B1B3D",
"                                                                             .                                                                                                                                                                  ",
"                                                                            +                                                     @@@@  @@@@                                                                                                    ",
"                                    .     @#@@@                            + +                    @$                              $$$$  $$$$                              $@                                                   @@@#@            ",
"                                    .    @##%$@@                            +                    @$$                               &&    &&                               $$@                                                 @@$*##@           ",
"                                    +++ @##%%%$@@                       @@@@@@@@@@@             @$$&                               &&    &&                               &$$@             @@@@@@@@@@@                       @@$**=##@          ",
"      @@@@@@@@@@@@@@@@@@            +  @##==%**$@@                     @###########@             $&&&      @ @@                    &&    &&                    @@ @      &&&$             @###########@                     @@$**===##@         ",
"     @$$$$$$$$$$$$$$$$$$@             @##===.=**$@@                   @&@@@@@#===%%$@         @    &&&    @@&##@ +++..             &&    &&                   @##&@@    &&&    @         @$*====#@@@@@&@                   @@$**=====##@        ",
"    @#%%****************#@           @####=...=**$@@                  @&@---@#===%%$@        @$$    &&&  @@&@@##@  +               &&    &&                  @##@@&@@  &&&    $$@        @$*====#@---@&@                  @@$**=.===####@       ",
"    @#%%================#@          @##@@##=...=**$@@                 @&@---@#=..=*$@       @$$&     &&&@@@@@-@##@ +               &&    &&                 @##@-@@@@@&&&     &$$@       @$*====#@---@@@                 @@$**=.===##@@##@      ",
"    @#==.............===#@         @##@--@##=...=**$@@                @@@-*-@#=..=*$@       $$&&&     &@@@@@---@##@                &&    &&                @##@---@@&@@&     &&&$$       @$*=.==#@---@@@                @@$**=.===##@--@##@     ",
"    @#==.........=======#@         @#@----@##=...=**$@@      @$       @@@-*-@#=..=*$@          &&&    @@&*@-*--@###@          @@@@@@@@@@@@@@@@@@          @###@---*@*&@@    &&&          @$*=.==#@***@&@       $@      @@$**=..==##@----@#@     ",
"    @#==================#@          &@@-**-*##=...=**$@@     @$&&&&&&&@&**%**#=..=*$@           &&&  @@&@@**--@##=##@        @&&@@&&&&@@&&&@@&&&@        @##=##@-***@@&@@  &&&           @$*=.==#**%**&@&&&&&&&$@     @@$**=...=##***--@@&      ",
". + @####################@         @@&@@-*%*@##=...=**$@@    @$&&&&&&&@&@***@#=..=*$@            &&&@@@@@***-@##===##@      @#@@@@@*@@@@@@*@@@@@#@      @##===##@*%*-@@@@@&&&            @$*=.==#@-*-@&@&&&&&&&$@    @@$**=...=##@-%**@@&@@     ",
" + +@#@@@@@*@@@@@@*@@@@@#@          @@@@@***-@##===.=**$@@   @$       @&@---@#=..=*$@             &@@&@@+-***##=.==%##      @#@---**--++-**----@#@      ##=====##*-**+@@&@@&             @$*=..=#@-*-@&@       $@   @@$**=...=##@-***@@@@@      ",
"  + @#@----**-++--**---@#@           @@@*@*-++@##===.=**$@            @@@+++@#=..=*$@             @@&@@+++-@##=...%%%@      @#@---*%**++-*%**--@#@      @**=====##@-+++@@&@@             @$*=..=#@+++@@@            @$%*=...=##@++*-@*&@@       ",
"    @#@--**%*-++**%*---@#@            @@&@@+++-@##=====**@            @@@+++@#=..=*$@            @@&*@-*++@##=...=*%$@      @#@---**--++-**----@#@ +    @$**=.===##@++-*@*@@@            @$*=..=#@+++@@@            @%%%...=##@-+++@@&@@        ",
"    @#@----**-++--**---@#@            &@@&@@+**-*##=====##   @$       @&@-*-@#=..=*$@           @@@@@**--@##=...=**$@@      @#@@@@@*@@@@@@*@@@@@#@+ +   @@$**=.===##@-***@@@@@           @$*=..=#@---@&@       $@   ##%==.=##***-+@@&@@&        ",
"    @#@@@@@*@@@@@@*@@@@@#@           &&&@@@@@-*%*@##===##@   @$&&&&&&&@&@-*-@#==.=*$@          @@&@@***-@##=...=**$@@       @####################@ + .   @@$**=...=##@*%*-@@&@@          @$*=..=#@***@&@&&&&&&&$@   @##===##@-%**@@@@@&&&       ",
"     @&&&@@&&&@@&&&&@@&&@           &&&  @@&@@***-@##=##@    @$&&&&&&&@&**%**#==.=*$@           &@@--***##=...=**$@@        @#==================#@        @@$**=...=##*-**-@@&           @$*=..=#**%**&@&&&&&&&$@    @##=##@-***@@&@@  &&&      ",
"      @@@@@@@@@@@@@@@@@@           &&&    @@&*@*---@###@     @$       @&@***@#==.=*$@          @#@----@##==..=**$@@         @#=======.........==#@         @@$**=...=##@----@#@          @$*=..=#@-*-@@@       $@     @###@--*-@*&@@    &&&     ",
"           &&    &&             $$&&&     &@@&@@---@##@               @@@---@#==.=*$@          @##@--@##===.=**$@@          @#===.............==#@          @@$**=...=##@--@##@          @$*=..=#@-*-@@@               @##@---@@@@@&     &&&$$  ",
"           &&    &&             @$$&     &&&@@@@@-@##@                @@@---@#====*$@           @##@@##===.=**$@@           @#================%%#@           @@$**=...=##@@##@           @$*=..=#@---@&@              + @##@-@@@@@&&&     &$$@  ",
"           &&    &&              @$$    &&&  @@&@@##@                 @&@---@#====*$@            @####===.=**$@@            @#****************%%#@            @@$**=...=####@            @$%%===#@---@&@              +  @##@@&@@  &&&    $$@   ",
"           &&    &&               @    &&&    @@&##@                  @&@@@@@#====*$@             @##=====**$@@              @$$$$$$$$$$$$$$$$$$@              @@$**=.===##@             @$%%===#@@@@@&@            ..++  @##&@@    &&&    @    ",
"           &&    &&                  $&&&      @ @@                    @###########@               @##===**$@@                @@@@@@@@@@@@@@@@@@                @@$**%==##@  +            @###########@                    @@ @      &&&$       ",
"           &&    &&                 @$$&                                @@@@@@@@@@@                 @##=**$@@                                                    @@$%%%##@ +++             @@@@@@@@@@@                                &$$@      ",
"           &&    &&                  @$$                                                             @##*$@@                                                      @@$%##@    .                   +                                    $$@       ",
"          $$$$  $$$$                  @$                                                              @#@@@                                                        @@@#@     .                  + +                                   $@        ",
"          @@@@  @@@@                                                                                                                                                                             +                                              ",
"                                                                                                                                                                                                .                                               "};
