/* XPM */
/*
  XPenguins theme "Vaporwave" -- sprites generated procedurally.
  Released into the public domain (CC0).
*/
static char * tumbler_car_xpm[] = {
"240 30 14 1",
" 	c None",
".	c #45356B",
"+	c #241B2F",
"@	c #1C1526",
"#	c #A8213E",
"$	c #9D86C4",
"%	c #FE4450",
"&	c #FFFB96",
"*	c #FF9EDE",
"=	c #FF71CE",
"-	c #E8D9FF",
";	c #FF8D8A",
">	c #01CDFE",
",	c #7BF1E8",
"                                                                                                  ..+@+++.  .                .....         ....               ...#..+$@@@+..                           ...                                      ",
"                                                                    ....  .                      ..+@@@$++.#.%.             .+++++.       .++++..            ..%%##+@@$@@@+                           .&%%.                                     ",
"                                                                   .%%*=..#.                      ++@@$@@+##%%*.           .++@@@++.     .++@@@++.            &&%%#++@@-@++.                          .&%%#.                                    ",
"                                                                  .#%%%=%.#.                      ++@$@@@+#%%%*=           .+@@@@@+.     .+@@@@@+.            .&&&%++@@@$++.                          .&%%#.....                                ",
"                                                              .....#%%%%%.#.                     ..+$@@@++%&%%=..          .+$$-$$+.     .+$$-$$+.             .;;&%++@@++.                           .;&%#+++++.                               ",
"                                   ..                        .+++++#%&%%%%#.                      ..+@+++%&%%%%%.#         .+@@@@@+.     .+@@@@@+.              %;;&%++++.                           .%;&%++@$@++.                              ",
"                                   ##.                       .+@$@++%&%%%%.                        ..+++%&%%%%%.#..       ..++@@@++.......++@@@++..            ..%;;&%##.                            .%;&%+@@$@@+.                              ",
"                                  ..##.                     .+@@$@@+%&%%%%.                         .##%&%%%%%%#..       .###+++++#########+++++###.            ..%;;&%##.     .  .                  .%;&%+@@-@@+.                            . ",
"                                .=.%.##                     .+@@-@@+%&%%%%.               . ..     .##%&%%%%%%...       .%%%%%%%%%%%%%%%%%%%%%%%%%%%.            .%%%%&%##.   ..++..                .%%;&%+@@$@@+.                          .&..",
"                               .**=%%%..                    .+@@$@@+%&%%%%>.              .+++.   .##%&%%%%%%.          .%%%&&&&&&&&&&&&&&&&&&&&&%%%.            .>>%%%&%##. ..++++.                .>%;&%++@$@++.                       . .&&%.",
"                               %%%%%%%%.... .               .++@$@++%&%%%%%%.             +@+++. .##%&%%%%%%>           .&&&;;;;;;%%%%%%%%%%%%%%%%%*.             >>%%%%&%##..+$@@@+               .>>%%&%#+++++.                       ..%;&%%.",
"                              ..%%%%%%%%>%%;..               .+++++#%&%%%%>,;.            @@@$++.##%&%%%%%%%%.           ....%%%%%%%%%%%%%%%%%%%%%==.            ..>%%%%%&%##+@@$@@@              .>>%%%&%#.....                    . ...%;;&%##",
"           ......              ##%&%%%%%%%>,;..               .....#%&%%%%>,;.            @@-@@+##%&%%%%%%>,%.               ...%>>%%%%%%%%%%%%%%%%.              >>%%%%%%&%#++@@$@+             .%>%%%%&%#.                   ...%>.>>%%;;&%##.",
"          .;;;;;;.             .##%&%%%%%%>>,;..                  .#%&%%%%>,;.            @$@@@+#%&%%%%%%>,,;                   ..>>%%%%%%%%%%%%%...              %>>%%%%%%&%++@@@$+            .;,>%%%%&%#.                  ..;,>>>>>%;;&%+++.",
"  ....   .%,,,,,,%.           .++++%&%%%%%%>>,;.                  .#%&%%%%>,;.            $@@@++%&%%%%%%>,,;..                    .>>>>>>>>%>...####.             .,>>%%%%%%&%++@@++            .;,>%%%%&%#.                 ..;,>>%%%%%;&%+++@+",
" .####...>%>>>>>>>>.          ++@@++%&%%%%%%>>,.                  .#%&%%%%>,;.            +@+++%&;%%%%%>,,;..                      .%,,,,,,%.   ....              .;,>>%%%%%%&%++++.            .;,>%%%%&%#.                ..;,>>%%%%%%&%++@@@$",
"  ...%%%%%%%%%%%%%>>..        +$@@@++%&%%%%%%>>%                  .#%&%%%%>,;.            .+++%&;;%>>>>%,;..                        .;;;;;;.                      ..;,>>%%%%%%&%##.             .;,>%%%%&%#.                 ;,>>%%%%%%&%#+@@@$@",
"  .%%%%%%%%%%%%%%%%>>%...     +@$@@++#%&%%%%%%>>                  .#%&%%%%>%.             .##%&;;%%>>..%...                          ......                        ..;,>%%%%%%%&%##             .;,>%%%%&%#.....            .%>>%%%%%%&%##+@@-@@",
" .==%%%%%%%%%%%%%%%%%%%%%.... @@@$@@+##%&%%%%%>..             .....#%&%%%>>.              ##%&;;%...                                                                ..;%%>%%%%%%%%..            .;,>%%%%&%#+++++.           .%%%%%%%%&%##.++$@@@",
" .*%%%%%%%%%%%%%%%%%;;;;;;&&&.+@@@$+..##%&%%%%>>             .+++++#%&%%>>.               .%%&;%..                                                                   . ....%%%%%%%%              .%%%%%%&%++@$@++.          .>%%%%%%&%##. .+++@+",
" .%%%&&&&&&&&&&&&&&&&&&&&&%%%..++++.. .##%&%%%>>.           .++@$@++%&;%>.                .%&&. .                                                                         ..%%%=**.               .>%%%%&%+@@$@@+.         ..%%%%%%&%##.   .+++.",
" .%%%%%%%%%%%%%%%%%%%%%%%%%%%...++..   .##%&%%%%.           .+@@$@@+%&;%%.                ..&.                                                                             ##.%.=.                 .%%%%&%+@@-@@+.       .#.%%%%%%&%##.     .. .",
"  .###+++++#########+++++###.  .  .     .##%&;;%..          .+@@-@@+%&;%.                  .                                                                               .##..                   .%%%%&%+@@$@@+.      .##%%%%%%&%##.          ",
"   ..++@@@++.......++@@@++..             .##%&;;%..         .+@@$@@+%&;%.                                                                                                   .##                    .%%%%&%++@$@+.      .##.%%%%%&%+++..         ",
"    .+@@@@@+.     .+@@@@@+.             .++++%&;;%          .++@$@++%&;%.                                                                                                    ..                   .#%%%%&%#+++++.      .#.%%%%%&%+++@+..        ",
"    .+$$-$$+.     .+$$-$$+.            .++@@++%&;;.          .+++++#%&;.                                                                                                                          .#.%%%%%#.....         ..=%%&%++@@@$+..       ",
"    .+@@@@@+.     .+@@@@@+.           .++$@@@++%&&&.          .....#%%&.                                                                                                                          .#.%=%%%#.              =*%%%#+@@@$@++        ",
"    .++@@@++.     .++@@@++.           .++@-@@++#%%&&              .#%%&.                                                                                                                          .#..=*%%.               .*%%##+@@$@@++        ",
"     ..++++.       .+++++.             +@@@$@@+##%%..              .%%&.                                                                                                                           .  ....                 .%.#.++$@@@+..       ",
"       ....         .....             ..+@@@$+..#...                ...                                                                                                                                                      .  .+++@+..        "};
