/* XPM */
/*
  XPenguins theme "Vaporwave" -- sprites generated procedurally.
  Released into the public domain (CC0).
*/
static char * walker_dolphin_xpm[] = {
"240 60 6 1",
" 	c None",
".	c #45356B",
"+	c #7BF1E8",
"@	c #01CDFE",
"#	c #E8D9FF",
"$	c #241B2F",
"                                                                                                                                                                                                                                                ",
"                                                                                                                                                                                                                                                ",
"                                                                                                                                                                                                                                                ",
"                                                                                                                                                                                                                                                ",
"                                                                                                                                                                                                                                                ",
"                                          .                               .                                                                                                                                                                     ",
"                                          +.             +.              .+.                              .                                                                                                                                     ",
"            .             ..             .@++. .        .@.             .+@+.                           .++.                            .                                                                                                       ",
"            +.            .@.            .@@@..+..     .+@.             .@@@...         .              .+@+.                           .+.                                                                                                      ",
"           .@+....       .+@.            .@@@++@++. . .+@@.          ...+@@@+++..      .+.          ....@@@.                         .++@+                           .                                                                          ",
"           .+@@.++...   .+@@.         ...+@@@@@@@@+.+.+@@@.        ..+++@@@@@@@++.    .+@.  . ......++++@@@+..            . ... .....+@@@.                          .+.                                                        .             .  ",
"           .@@@+@@+++.. +@@@@.       .+++@@@@@@@@@@+@+@@@..    ....++@@@@@@@@@@@@+.. .+@@..+++++++++@@@@@@@@++..        .++.++..+++++@@@@...                       .+@+.                          .                           .+.            .+.",
"         ..+@@@@@@@@@@+++@@..       .+@@@@@@@@@@@@@@##+..@@. ..++++$@@@@@@@@@@@@@@++.+@@@..++@@@@@@@@@@@@@@@@@++.      ..++@@@+$@@@@@@@@@+++.                . ...+@@@@.                         .+.                          +@++...        +@.",
"        .++@@@@@@@@@@@@@+..@@.  .....$@@@@@@@@@@@@##++.@@@@..++@@@@@@@@@@@@@@@@@@@@@+@@@@. .+@@@@#@@@@@@@@@@@@@+.    ..+ .#@@@@@@@@@@@@@@@@@+.         . ....+.+++@@@@++.                       .+@+.                         .@@@.++..     .+@.",
"       ..@@@@@@@@@@@####.@@@@.  .++++@@@@@@@@@@#####+..+@@@..++@@@@###@@@@@@@@@@####+....   ####@###@@@@@@@@@@@@+. .+@@.  ####@###@@@@@@@@@@@.       ..+.++++++@@@@@@@@@+..                     .@@@...         .             +@@@+@@++. . .+@@.",
"      .++@@@@@@@@@@@##++..+@@@ .+@@@@###@@@########+.  .+@@. .####@###############++.@@@@.  .....#####@@@@@@@@@@@+.+@@@.  ....@###@@@@@@@@@@@+..  .++..++@@@@$@@@@@@@@@@@++.     ..          ...+@@@+++..      .+.         ...+@@@@@@@@+.+.+@@@.",
"   ...+$@@@@@@@@@#####+.  .++@.++@@@@######+#####++.     ..+  .....++#++++#######+...+@@@.       ++#++#####@@@##@@+@@@@.      ++#####@@@@@@@@@++ .++@..#@@@@@@@@@@@@@@@@@@@+    .++.       ..+++@@@@@@@++.    .+@.        .+++@@@@@@@@@@+@+@@@..",
"   +++@@@@#@@@#######+.    ..+.++###@#+#++++####++..       .       ..+++++#####++.   .+@@.       .+++++###########+..@@.      ..+++++###@@@#@@@@.+@@@. .###@###@@@@@@@@@@@@@.. .++@.   ....++@@@@@@@@@@@@+.. .+@@.       .+@@@@@@@@@@@@@@##+..@@",
" ..+@@@@######+#####+.         .#.......++++++++..                   ..++++++++..     .+@.        ..+++#######+.+.@@@..         .++++##########+@@@@@.  ....+#####@@@@@@@@@@+.++@@@. ..++++$@@@@@@@@@@@@@@++.+@@@.   .....$@@@@@@@@@@@@##++.@@@@",
" .++@@@@###++++##+++.                   ..+++...                       .++.....        .+.          .++++++#++. ..+@@@.          .+++########+++...@.       .+#+++#####@@###@+@@@@. .++@@@@@@@@@@@@@@@@@@@@@+@@@@.   .++++@@@@@@@@@@#####...+@@@",
" .+####.++++++++++...                     ...                           ..              .            .+....+..    .+@@.          .++++++##+++...@@@.         .+++++########+#+...@. .++@@@@###@@@@@@@@@@####+....   .+@@@@###@@#########+   .++@",
"  .....  . ..+++..                                                                                    .    .       .+@.           ......+..    .+@@@.         ..+++#######+.+.@@@.   .####@###############++.@@@@. .++@@@@#####++#####++.      .",
"             ...                                                                                                    .@.                 .      .+@@.           .+++++++#++. ..+@@@.   .....++#++++#######+...+@@@. .+####@++#++++###+++..       ",
"                                                                                                                     +.                         .+@.            .........    ..+@@.        ..+++++#####++.   .+@@.  ...... ..+++++++...         ",
"                                                                                                                                                 .@.                          .+@.           ..++++++++..     .+@.           ...++..            ",
"                                                                                                                                                  +.           #         #     .+.           # .++.....#       .+.         #    ..   #          ",
"                                                                                                                                                                                ..              ..              .                               ",
"                                                                                                                                                             +  +       +  +               +  +       +  +               +  +       +  +        ",
"                                                                                                                                                                                                                                                ",
"                                                                                                                                                                                                                                                ",
"                                                                                                                                                                                                                                                ",
"                                                                                                                                                                                                                                                ",
"                                                                                                                                                                                                                                                ",
"                                                                                                                                                                                                                                                ",
"                                                                                                                                                                                                                                                ",
"                                               .                           .                                                                                                                                                                    ",
"                               .+             .+                          .+.                          .                                                                                                                                        ",
"  ..             .             .@.        . .++@.                        .+@+.                        .++.                           .                                                                                                          ",
" .@.            .+             .@+.     ..+..@@@.            .         ...@@@.                        .+@+.                         .+.                                                                                                         ",
" .@+.       ....+@.            .@@+. . .++@++@@@.           .+.      ..+++@@@+...                     .@@@....                      +@++.                           .                                                                           ",
" .@@+.   ...++.@@+.            .@@@+.+.+@@@@@@@@+...        .@+.    .++@@@@@@@+++..                 ..+@@@++++...... .              .@@@+..... ... .               .+.                                              .             .             ",
".@@@@+ ..+++@@+@@@.            ..@@@+@+@@@@@@@@@@+++.       .@@+. ..+@@@@@@@@@@@@++....           ..++@@@@@@@@+++++++++.          ...@@@@+++++..++.++.            .+@+.                            .              .+.            .+.            ",
" ..@@+++@@@@@@@@@@+..         .@@..+##@@@@@@@@@@@@@@+.      .@@@+.++@@@@@@@@@@@@@@$++++.. .      .++@@@@@@@@@@@@@@@@@++.         .+++@@@@@@@@@$+@@@++.            .@@@@+... .                     .+.             .@+        ...++@+            ",
".@@..+@@@@@@@@@@@@@++.        .@@@@.++##@@@@@@@@@@@@$.....  .@@@@+@@@@@@@@@@@@@@@@@@@@@++.+..    .+@@@@@@@@@@@@@#@@@@+.         .+@@@@@@@@@@@@@@@@@#.            .++@@@@+++.+.... .              .+@+.            .@+.     ..++.@@@.            ",
".@@@@.####@@@@@@@@@@@..       .@@@+..+#####@@@@@@@@@@++++.   ....+####@@@@@@@@@@###@@@@++..@@+. .+@@@@@@@@@@@@###@####  .       .@@@@@@@@@@@###@####           ..+@@@@@@@@@++++++.+. .         ...@@@.            .@@+. . .++@@+@@@+            ",
"@@@+..++##@@@@@@@@@@@++.      .@@+.  .+########@@@###@@@@+. .@@@@.++###############@####. .@@@+.+@@@@@@@@@@@#####.....  .++.  ..+@@@@@@@@@@@###@....   ..     .++@@@@@@@@@@@$@@@@++..+.      ..+++@@@+...         .@@@+.+.+@@@@@@@@+...         ",
"@++.  .+#####@@@@@@@@@$+...   +..     .++#####+######@@@@++..@@@+...+#######++++#++.....  .@@@@+@@##@@@#####++#++       .@++. ++@@@@@@@@@#####++      .++.    +@@@@@@@@@@@@@@@@@@@#..@+.    .++@@@@@@@+++..       ..@@@+@+@@@@@@@@@@+++.        ",
"+..    .+#######@@@#@@@@+++   .       ..++####++++#+#@###++..@@+.   .++#####+++++..       .@@..+###########+++++.       .@@@+.@@@@#@@@###+++++..      .@++. ..@@@@@@@@@@@@@###@###. .@@+. ..+@@@@@@@@@@@@++....   @@..+##@@@@@@@@@@@@@@+.       ",
"        .+#####+######@@@@+..           ..++++++++.......#. .@+.     ..++++++++..          ..@@@.+.+#######+++..        .@@@@@+##########++++.        .@@@++.+@@@@@@@@@@#####+....  .@@@+.++@@@@@@@@@@@@@@$++++.. @@@@.++##@@@@@@@@@@@@$.....   ",
"         .+++##++++###@@@@++.             ...+++..          .+.        .....++.            .@@@+.. .++#++++++.           .@...+++########+++.          .@@@@+@###@@#####+++#+.      .@@@@+@@@@@@@@@@@@@@@@@@@@@++.@@@+...#####@@@@@@@@@@++++.   ",
"         ...++++++++++.####+.                ...             .              ..             .@@+.    ..+....+.             .@@@...+++##++++++.          .@...+#+########+++++.        ....+####@@@@@@@@@@###@@@@++.@++.   +#########@@###@@@@+.  ",
"            ..+++.. .  .....                                                               .@+.       .    .             .@@@+.    ..+......            .@@@.+.+#######+++..        .@@@@.++###############@####. .      .++#####++#####@@@@++. ",
"              ...                                                                          .@.                            .@@+.      .                 .@@@+.. .++#+++++++.         .@@@+...+#######++++#++.....         ..+++###++++#++@####+. ",
"                                                                                           .+                             .@+.                         .@@+..    .........          .@@+.   .++#####+++++..                ...+++++++.. ......  ",
"                                                                                                                          .@.                           .@+.                        .@+.     ..++++++++..                     ..++...           ",
"                                                                                                                          .+                            .+.     #         #         .+.       #.....++. #                   #   ..    #         ",
"                                                                                                                                                        ..                           .              ..                                          ",
"                                                                                                                                                              +  +       +  +               +  +       +  +               +  +       +  +       ",
"                                                                                                                                                                                                                                                ",
"                                                                                                                                                                                                                                                "};
