/* XPM */
/*
  XPenguins theme "Vaporwave" -- sprites generated procedurally.
  Released into the public domain (CC0).
*/
static char * walker_car_xpm[] = {
"240 60 15 1",
" 	c None",
".	c #45356B",
"+	c #FF8D8A",
"@	c #FE4450",
"#	c #7BF1E8",
"$	c #01CDFE",
"%	c #A8213E",
"&	c #FF71CE",
"*	c #FFFB96",
"=	c #FF9EDE",
"-	c #C7B3E8",
";	c #241B2F",
">	c #9D86C4",
",	c #1C1526",
"'	c #E8D9FF",
"                                                                                                                                                                                                                                                ",
"                                                                                                                                                                                                                                                ",
"                                                                                                                                                                                                                                                ",
"                                                                                                                                                                                                                                                ",
"                                                                                                                                                                                                                                                ",
"                                                                                                                                                                                                                                                ",
"                                                                                                                                                                                                                                                ",
"                                                                                                                                                                                                                                                ",
"                                                                                                                                                                                                                                                ",
"                                                                                                                                                                                                                                                ",
"                                                                                                                                                                                                                                                ",
"                                                                                                                                                                                                                                                ",
"             ......                        ......                                                                                    ......                        ......                                                                       ",
"            .++++++.                      .++++++.                                                                                  .++++++.                      .++++++.                                                                      ",
"           .@######@.   ....             .@######@.   ....               ......                        ......                      .@######@.   ....             .@######@.   ....               ......                        ......           ",
"          .$$$$$$$$@$...%%%%.           .$$$$$$$$@$...%%%%.             .++++++.                      .++++++.                    .$$$$$$$$@$...%%%%.           .$$$$$$$$@$...%%%%.             .++++++.                      .++++++.          ",
"        ..$$@@@@@@@@@@@@@...          ..$$@@@@@@@@@@@@@...             .@######@.   ....             .@######@.   ....          ..$$@@@@@@@@@@@@@...          ..$$@@@@@@@@@@@@@...             .@######@.   ....             .@######@.   ....  ",
"     ...@$$@@@@@@@@@@@@@@@@.       ...@$$@@@@@@@@@@@@@@@@.            .$$$$$$$$@$...%%%%.           .$$$$$$$$@$...%%%%.      ...@$$@@@@@@@@@@@@@@@@.       ...@$$@@@@@@@@@@@@@@@@.            .$$$$$$$$@$...%%%%.           .$$$$$$$$@$...%%%%. ",
" ....@@@@@@@@@@@@@@@@@@@@@&&.  ....@@@@@@@@@@@@@@@@@@@@@&&.         ..$$@@@@@@@@@@@@@...          ..$$@@@@@@@@@@@@@...   ....@@@@@@@@@@@@@@@@@@@@@&&.  ....@@@@@@@@@@@@@@@@@@@@@&&.         ..$$@@@@@@@@@@@@@...          ..$$@@@@@@@@@@@@@...  ",
".***++++++@@@@@@@@@@@@@@@@@=. .***++++++@@@@@@@@@@@@@@@@@=.      ...@$$@@@@@@@@@@@@@@@@.       ...@$$@@@@@@@@@@@@@@@@.  .***++++++@@@@@@@@@@@@@@@@@=. .***++++++@@@@@@@@@@@@@@@@@=.      ...@$$@@@@@@@@@@@@@@@@.       ...@$$@@@@@@@@@@@@@@@@.  ",
".@@@*********************@@@...@@@*********************@@@.. ....@@@@@@@@@@@@@@@@@@@@@&&.  ....@@@@@@@@@@@@@@@@@@@@@&&. .@@@*********************@@@...@@@*********************@@@.. ....@@@@@@@@@@@@@@@@@@@@@&&.  ....@@@@@@@@@@@@@@@@@@@@@&&. ",
".@@@@@@@@@@@@@@@@@@@@@@@@@@@.-.@@@@@@@@@@@@@@@@@@@@@@@@@@@.-.***++++++@@@@@@@@@@@@@@@@@=. .***++++++@@@@@@@@@@@@@@@@@=. .@@@@@@@@@@@@@@@@@@@@@@@@@@@.-.@@@@@@@@@@@@@@@@@@@@@@@@@@@.-.***++++++@@@@@@@@@@@@@@@@@=. .***++++++@@@@@@@@@@@@@@@@@=. ",
" .%%%;;;;;%%%%%%%%%;;;;;%%%.>. .%%%;;;;;%%%%%%%%%;;;;;%%%.>..@@@*;;;;;*********;;;;;*@@@. .@@@*;;;;;*********;;;;;*@@@.  .%%%;;;;;%%%%%%%%%;;;;;%%%.>. .%%%;;;;;%%%%%%%%%;;;;;%%%.>..@@@*;;;;;*********;;;;;*@@@. .@@@*;;;;;*********;;;;;*@@@. ",
"  ..;;,,,;;.......;;,,,;;.. .   ..;;,,,;;.......;;,,,;;.. . .@@@;;,,>;;@@@@@@@;;,,>;;@@@. .@@@;;,>,;;@@@@@@@;;,>,;;@@@.   ..;;,>,;;.......;;,>,;;.. .   ..;;>,,;;.......;;>,,;;.. . .@@@;;,,,;;@@@@@@@;;,,,;;@@@. .@@@;;,,,;;@@@@@@@;;,,,;;@@@. ",
"   .;,,,,,;.     .;,,,,,;.       .;,,,,>;.     .;,,,,>;.     .%%;,,,,,;%%%%%%%;,,,,,;%%.   .%%;,,,,,;%%%%%%%;,,,,,;%%.     .;,,,,,;.     .;,,,,,;.       .;,,,,,;.     .;,,,,,;.     .%%;>,,,,;%%%%%%%;>,,,,;%%.   .%%;,,,,,;%%%%%%%;,,,,,;%%.  ",
"   .;>>'>>;.     .;>>'>>;.       .;,,',,;.     .;,,',,;.      ..;,,',,;.......;,,',,;..     ..;,,',,;.......;,,',,;..      .;,,',,;.     .;,,',,;.       .;,,',,;.     .;,,',,;.      ..;,,',,;.......;,,',,;..     ..;>,',>;.......;>,',>;..   ",
"   .;,,,,,;.     .;,,,,,;.       .;>,,,,;.     .;>,,,,;.       .;,,,,,;.     .;,,,,,;.       .;,,,,,;.     .;,,,,,;.       .;,,,,,;.     .;,,,,,;.       .;,,,,,;.     .;,,,,,;.       .;,,,,>;.     .;,,,,>;.       .;,,,,,;.     .;,,,,,;.    ",
"   .;;,,,;;.     .;;,,,;;.       .;;,,,;;.     .;;,,,;;.       .;;>,,;;.     .;;>,,;;.       .;;,>,;;.     .;;,>,;;.       .;;,>,;;.     .;;,>,;;.       .;;,,>;;.     .;;,,>;;.       .;;,,,;;.     .;;,,,;;.       .;;,,,;;.     .;;,,,;;.    ",
"    .;;;;;.       .;;;;..         .;;;;;.       .;;;;..         .;;;;;.       .;;;;..         .;;;;;.       .;;;;..         .;;;;;.       .;;;;..         .;;;;;.       .;;;;..         .;;;;;.       .;;;;..         .;;;;;.       .;;;;..     ",
"     .....         ....            .....         ....            .....         ....            .....         ....            .....         ....            .....         ....            .....         ....            .....         ....       ",
"                                                                                                                                                                                                                                                ",
"                                                                                                                                                                                                                                                ",
"                                                                                                                                                                                                                                                ",
"                                                                                                                                                                                                                                                ",
"                                                                                                                                                                                                                                                ",
"                                                                                                                                                                                                                                                ",
"                                                                                                                                                                                                                                                ",
"                                                                                                                                                                                                                                                ",
"                                                                                                                                                                                                                                                ",
"                                                                                                                                                                                                                                                ",
"                                                                                                                                                                                                                                                ",
"                                                                                                                                                                                                                                                ",
"           ......                        ......                                                                                    ......                        ......                                                                         ",
"          .++++++.                      .++++++.                                                                                  .++++++.                      .++++++.                                                                        ",
"  ....   .@######@.             ....   .@######@.                      ......                        ......               ....   .@######@.             ....   .@######@.                      ......                        ......             ",
" .%%%%...$@$$$$$$$$.           .%%%%...$@$$$$$$$$.                    .++++++.                      .++++++.             .%%%%...$@$$$$$$$$.           .%%%%...$@$$$$$$$$.                    .++++++.                      .++++++.            ",
"  ...@@@@@@@@@@@@@$$..          ...@@@@@@@@@@@@@$$..          ....   .@######@.             ....   .@######@.             ...@@@@@@@@@@@@@$$..          ...@@@@@@@@@@@@@$$..          ....   .@######@.             ....   .@######@.           ",
"  .@@@@@@@@@@@@@@@@$$@...       .@@@@@@@@@@@@@@@@$$@...      .%%%%...$@$$$$$$$$.           .%%%%...$@$$$$$$$$.            .@@@@@@@@@@@@@@@@$$@...       .@@@@@@@@@@@@@@@@$$@...      .%%%%...$@$$$$$$$$.           .%%%%...$@$$$$$$$$.          ",
" .&&@@@@@@@@@@@@@@@@@@@@@....  .&&@@@@@@@@@@@@@@@@@@@@@....   ...@@@@@@@@@@@@@$$..          ...@@@@@@@@@@@@@$$..         .&&@@@@@@@@@@@@@@@@@@@@@....  .&&@@@@@@@@@@@@@@@@@@@@@....   ...@@@@@@@@@@@@@$$..          ...@@@@@@@@@@@@@$$..        ",
" .=@@@@@@@@@@@@@@@@@++++++***. .=@@@@@@@@@@@@@@@@@++++++***.  .@@@@@@@@@@@@@@@@$$@...       .@@@@@@@@@@@@@@@@$$@...      .=@@@@@@@@@@@@@@@@@++++++***. .=@@@@@@@@@@@@@@@@@++++++***.  .@@@@@@@@@@@@@@@@$$@...       .@@@@@@@@@@@@@@@@$$@...     ",
"..@@@*********************@@@...@@@*********************@@@. .&&@@@@@@@@@@@@@@@@@@@@@....  .&&@@@@@@@@@@@@@@@@@@@@@.... ..@@@*********************@@@...@@@*********************@@@. .&&@@@@@@@@@@@@@@@@@@@@@....  .&&@@@@@@@@@@@@@@@@@@@@@.... ",
"-.@@@@@@@@@@@@@@@@@@@@@@@@@@@.-.@@@@@@@@@@@@@@@@@@@@@@@@@@@. .=@@@@@@@@@@@@@@@@@++++++***. .=@@@@@@@@@@@@@@@@@++++++***.-.@@@@@@@@@@@@@@@@@@@@@@@@@@@.-.@@@@@@@@@@@@@@@@@@@@@@@@@@@. .=@@@@@@@@@@@@@@@@@++++++***. .=@@@@@@@@@@@@@@@@@++++++***.",
".>.%%%;;;;;%%%%%%%%%;;;;;%%%. .>.%%%;;;;;%%%%%%%%%;;;;;%%%.  .@@@*;;;;;*********;;;;;*@@@. .@@@*;;;;;*********;;;;;*@@@..>.%%%;;;;;%%%%%%%%%;;;;;%%%. .>.%%%;;;;;%%%%%%%%%;;;;;%%%.  .@@@*;;;;;*********;;;;;*@@@. .@@@*;;;;;*********;;;;;*@@@.",
" . ..;;,,,;;.......;;,,,;;..   . ..;;,,,;;.......;;,,,;;..   .@@@;;>,,;;@@@@@@@;;>,,;;@@@. .@@@;;,>,;;@@@@@@@;;,>,;;@@@. . ..;;,>,;;.......;;,>,;;..   . ..;;,,>;;.......;;,,>;;..   .@@@;;,,,;;@@@@@@@;;,,,;;@@@. .@@@;;,,,;;@@@@@@@;;,,,;;@@@.",
"    .;,,,,,;.     .;,,,,,;.       .;>,,,,;.     .;>,,,,;.     .%%;,,,,,;%%%%%%%;,,,,,;%%.   .%%;,,,,,;%%%%%%%;,,,,,;%%.     .;,,,,,;.     .;,,,,,;.       .;,,,,,;.     .;,,,,,;.     .%%;,,,,>;%%%%%%%;,,,,>;%%.   .%%;,,,,,;%%%%%%%;,,,,,;%%. ",
"    .;>>'>>;.     .;>>'>>;.       .;,,',,;.     .;,,',,;.      ..;,,',,;.......;,,',,;..     ..;,,',,;.......;,,',,;..      .;,,',,;.     .;,,',,;.       .;,,',,;.     .;,,',,;.      ..;,,',,;.......;,,',,;..     ..;>,',>;.......;>,',>;..  ",
"    .;,,,,,;.     .;,,,,,;.       .;,,,,>;.     .;,,,,>;.       .;,,,,,;.     .;,,,,,;.       .;,,,,,;.     .;,,,,,;.       .;,,,,,;.     .;,,,,,;.       .;,,,,,;.     .;,,,,,;.       .;>,,,,;.     .;>,,,,;.       .;,,,,,;.     .;,,,,,;.   ",
"    .;;,,,;;.     .;;,,,;;.       .;;,,,;;.     .;;,,,;;.       .;;,,>;;.     .;;,,>;;.       .;;,>,;;.     .;;,>,;;.       .;;,>,;;.     .;;,>,;;.       .;;>,,;;.     .;;>,,;;.       .;;,,,;;.     .;;,,,;;.       .;;,,,;;.     .;;,,,;;.   ",
"     ..;;;;.       .;;;;;.         ..;;;;.       .;;;;;.         ..;;;;.       .;;;;;.         ..;;;;.       .;;;;;.         ..;;;;.       .;;;;;.         ..;;;;.       .;;;;;.         ..;;;;.       .;;;;;.         ..;;;;.       .;;;;;.    ",
"       ....         .....            ....         .....            ....         .....            ....         .....            ....         .....            ....         .....            ....         .....            ....         .....     "};
