/* XPM */
/*
  XPenguins theme "Vaporwave" -- sprites generated procedurally.
  Released into the public domain (CC0).
*/
static char * walker_boom_xpm[] = {
"240 60 11 1",
" 	c None",
".	c #45356B",
"+	c #7BF1E8",
"@	c #9D86C4",
"#	c #6F5A94",
"$	c #241B2F",
"%	c #2B1B3D",
"&	c #C7B3E8",
"*	c #FFFB96",
"=	c #01CDFE",
"-	c #FF71CE",
".+.       ..........          .+.       ..........           .                             .                            .+.       ..........          .+.       ..........           .                             .                            ",
".@.      .##########.         .@.      .##########.         .+.       ..........          .+.       ..........          .@.      .##########.         .@.      .##########.         .+.       ..........          .+.       ..........          ",
" .@.     .#........#.          .@.     .#........#.         .@.      .##########.         .@.      .##########.          .@.     .#........#.          .@.     .#........#.         .@.      .##########.         .@.      .##########.         ",
" .@.     .#.      .#.          .@.     .#.      .#.          .@.     .#........#.          .@.     .#........#.          .@.     .#.      .#.          .@.     .#.      .#.          .@.     .#........#.          .@.     .#........#.         ",
"  .@......#........#......      .@......#........#......     .@.     .#.      .#.          .@.     .#.      .#.           .@......#........#......      .@......#........#......     .@.     .#.      .#.          .@.     .#.      .#.         ",
"  .@$$$$$$$$$$$$$$$$$$$$$$.     .@$$$$$$$$$$$$$$$$$$$$$$.     .@......#........#......      .@......#........#......      .@$$$$$$$$$$$$$$$$$$$$$$.     .@$$$$$$$$$$$$$$$$$$$$$$.     .@......#........#......      .@......#........#......    ",
"  .$######################$.    .$######################$.    .@$$$$$$$$$$$$$$$$$$$$$$.     .@$$$$$$$$$$$$$$$$$$$$$$.     .$######################$.    .$######################$.    .@$$$$$$$$$$$$$$$$$$$$$$.     .@$$$$$$$$$$$$$$$$$$$$$$.   ",
" .$....@@@@@@@@@@@@@@@@....$.  .$....@@@@@@@@@@@@@@@@....$.   .$######################$.    .$######################$.   .$....@@@@@@@@@@@@@@@@....$.  .$....@@@@@@@@@@@@@@@@....$.   .$######################$.    .$######################$.  ",
" .$....@%%%#%%%%%%#%%%@....$.  .$....@%%%#%%%%%%#%%%@....$.  .$....@@@@@@@@@@@@@@@@....$.  .$....@@@@@@@@@@@@@@@@....$.  .$....@%%%#%%%%%%#%%%@....$.  .$....@%%%#%%%%%%#%%%@....$.  .$....@@@@@@@@@@@@@@@@....$.  .$....@@@@@@@@@@@@@@@@....$. ",
" .$....@%%###&&&&###%%@....$.  .$....@%%###&&&&###%%@....$.  .$....@%%%#%%%%%%#%%%@....$.  .$....@%%%#%%%%%%#%%%@....$.  .$....@%%###&&&&###%%@....$.  .$....@%%###&&&&###%%@....$.  .$....@%%%#%%%%%%#%%%@....$.  .$....@%%%#%%%%%%#%%%@....$. ",
" .$....@%#+######+###%@....$.  .$....@%############%@....$.  .$....@%%###&&&&###%%@....$.  .$....@%%###&&&&###%%@....$.  .$....@%############%@....$.  .$....@%############%@....$.  .$....@%%###&&&&###%%@....$.  .$....@%%##+&&&&##+%%@....$. ",
" .$....@%%##########%%@....$.  .$....@%%+######+##%%@....$.  .$....@%############%@....$.  .$....@%############%@....$.  .$....@%%##+######+%%@....$.  .$....@%%##+######+%%@....$.  .$....@%###+######+#%@....$.  .$....@%############%@....$. ",
" .$....@@@@#@@@@@@#@@@@....$.  .$....@@@@#@@@@@@#@@@@....$.  .$....@%%+######+##%%@....$.  .$....@%%#+######+#%%@....$.  .$....@@@@#@@@@@@#@@@@....$.  .$....@@@@#@@@@@@#@@@@....$.  .$....@%%##########%%@....$.  .$....@%%##########%%@....$. ",
" .$..$$$$$#...#...#.$$$$$..$.  .$..$$$$$#...#...*.$$$$$..$.  .$....@@@@#@@@@@@#@@@@....$.  .$....@@@@#@@@@@@#@@@@....$.  .$..$$$$$#...#...#.$$$$$..$.  .$..$$$$$#...#...*.$$$$$..$.  .$....@@@@#@@@@@@#@@@@....$.  .$....@@@@#@@@@@@#@@@@....$. ",
" .$.$$###$$.#.#.#.#$$###$$.$.  .$.$$###$$.#.#.*.*$$###$$.$.  .$..$$$$$#...*...*.$$$$$..$.  .$..$$$$$#...#...*.$$$$$..$.  .$.$$###$$.#.#.#.#$$###$$.$.  .$.$$###$$.#.#.*.*$$###$$.$.  .$..$$$$$#...*...*.$$$$$..$.  .$..$$$$$#...#...*.$$$$$..$. ",
" .$$$#===#$$#.#.#.$$#===#$$$.  .$$$#===#$$#.#.*.$$#===#$$$.  .$.$=====$.-.*.*.*$$====$.$.  .$.$$###$$.#.#.*.*$$###$$.$.  .$$$#===#$$#.#.#.$$#===#$$$.  .$$$#===#$$#.#.*.$$#===#$$$.  .$.$=====$.-.*.*.*$$====$.$.  .$.$$###$$.#.#.*.*$$###$$.$. ",
" .$$#==#==#$......$#==#==#$$.  .$$#==#==#$......$#==#==#$$.  .$$==###==$-.*.*.$==###==$$.  .$$$#===#$$#.#.*.$$#===#$$$.  .$$#==#==#$......$#==#==#$$.  .$$#==#==#$......$#==#==#$$.  .$$==###==$-.*.*.$==###==$$.  .$$$#===#$$#.#.*.$$#===#$$$. ",
" .$$#=#+#=#$......$#=#+#=#$$.  .$$#=#+#=#$......$#=#+#=#$$.  .$$=##+##=$......$=##+##=$$.  .$$#==#==#$......$#==#==#$$.  .$$#=#+#=#$......$#=#+#=#$$.  .$$#=#+#=#$......$#=#+#=#$$.  .$$=##+##=$......$=##+##=$$.  .$$#==#==#$......$#==#==#$$. ",
" .$$#==#==#$@.@.&.$#==#==#$$.  .$$#==#==#$@.&.@.$#==#==#$$.  .$$=#+++#=$......$=#+++#=$$.  .$$#=#+#=#$......$#=#+#=#$$.  .$$#==#==#$@.@.&.$#==#==#$$.  .$$#==#==#$@.&.@.$#==#==#$$.  .$$=#+++#=$......$=#+++#=$$.  .$$#=#+#=#$......$#=#+#=#$$. ",
" .$$$#===#$$@.@.&.$$#===#$$$.  .$$$#===#$$@.&.@.$$#===#$$$.  .$$=##+##=$&.@.@.$=##+##=$$.  .$$#==#==#$@.&.@.$#==#==#$$.  .$$$#===#$$@.@.&.$$#===#$$$.  .$$$#===#$$@.&.@.$$#===#$$$.  .$$=##+##=$&.@.@.$=##+##=$$.  .$$#==#==#$@.&.@.$#==#==#$$. ",
" .$.$$###$$........$$###$$.$.  .$.$$###$$........$$###$$.$.  .$$==###==$&.@.@.$==###==$$.  .$$$#===#$$@.&.@.$$#===#$$$.  .$.$$###$$........$$###$$.$.  .$.$$###$$........$$###$$.$.  .$$==###==$&.@.@.$==###==$$.  .$$$#===#$$@.&.@.$$#===#$$$. ",
"  .$$$$$$$$$$$$$$$$$$$$$$$$.    .$$$$$$$$$$$$$$$$$$$$$$$$.   .$.$=====$........$$===$$.$.  .$.$$###$$........$$###$$.$.   .$$$$$$$$$$$$$$$$$$$$$$$$.    .$$$$$$$$$$$$$$$$$$$$$$$$.   .$.$=====$........$$===$$.$.  .$.$$###$$........$$###$$.$. ",
"   .$$$$$$$$$$$$$$$$$$$$$$.      .$$$$$$$$$$$$$$$$$$$$$$.     .$$$$$$$$$$$$$$$$$$$$$$$$.    .$$$$$$$$$$$$$$$$$$$$$$$$.     .$$$$$$$$$$$$$$$$$$$$$$.      .$$$$$$$$$$$$$$$$$$$$$$.     .$$$$$$$$$$$$$$$$$$$$$$$$.    .$$$$$$$$$$$$$$$$$$$$$$$$.  ",
"    .......##....##.......        .......##....##.......       .$$$$$$$$$$$$$$$$$$$$$$.      .$$$$$$$$$$$$$$$$$$$$$$.       .......##....##.......        .......##....##.......       .$$$$$$$$$$$$$$$$$$$$$$.      .$$$$$$$$$$$$$$$$$$$$$$.   ",
"          .##.  .##.                    .#.#..##.               .......###..###.......        .......##....##.......              .##.  .##.                   .##.   .#.#.             ......###....###......        .......##....##.......    ",
"          .##. .&&&&.                    .##..##.                      ..####..                      .##..##.                    .&&&&. .##.                   .##.    .##.                 .##..    ..##.                 .##.    .##.         ",
"          .##. .$$$$.                    .##.&&&&.                      .####.                      .&&&&.##.                    .$$$$. .##.                  .&&&&.   .##.                 .##.      .##.                 .##.   .&&&&.        ",
"         .&&&&. ....                    .&&&&$$$$.                     .&&&&&&.                     .$$$$&&&&.                    .... .&&&&.                 .$$$$.  .&&&&.               .&&&&.    .&&&&.               .&&&&.  .$$$$.        ",
"         .$$$$.                         .$$$$....                      .$$$$$$.                      ....$$$$.                         .$$$$.                  ....   .$$$$.               .$$$$.    .$$$$.               .$$$$.   ....         ",
"          ....                           ....                           ......                           ....                           ....                           ....                 ....      ....                 ....                 ",
"          ..........       .+.          ..........       .+.                            .                             .           ..........       .+.          ..........       .+.                            .                             . ",
"         .##########.      .@.         .##########.      .@.          ..........       .+.          ..........       .+.         .##########.      .@.         .##########.      .@.          ..........       .+.          ..........       .+.",
"         .#........#.     .@.          .#........#.     .@.          .##########.      .@.         .##########.      .@.         .#........#.     .@.          .#........#.     .@.          .##########.      .@.         .##########.      .@.",
"         .#.      .#.     .@.          .#.      .#.     .@.          .#........#.     .@.          .#........#.     .@.          .#.      .#.     .@.          .#.      .#.     .@.          .#........#.     .@.          .#........#.     .@. ",
"    ......#........#......@.      ......#........#......@.           .#.      .#.     .@.          .#.      .#.     .@.     ......#........#......@.      ......#........#......@.           .#.      .#.     .@.          .#.      .#.     .@. ",
"   .$$$$$$$$$$$$$$$$$$$$$$@.     .$$$$$$$$$$$$$$$$$$$$$$@.      ......#........#......@.      ......#........#......@.     .$$$$$$$$$$$$$$$$$$$$$$@.     .$$$$$$$$$$$$$$$$$$$$$$@.      ......#........#......@.      ......#........#......@.  ",
"  .$######################$.    .$######################$.     .$$$$$$$$$$$$$$$$$$$$$$@.     .$$$$$$$$$$$$$$$$$$$$$$@.    .$######################$.    .$######################$.     .$$$$$$$$$$$$$$$$$$$$$$@.     .$$$$$$$$$$$$$$$$$$$$$$@.  ",
" .$....@@@@@@@@@@@@@@@@....$.  .$....@@@@@@@@@@@@@@@@....$.   .$######################$.    .$######################$.   .$....@@@@@@@@@@@@@@@@....$.  .$....@@@@@@@@@@@@@@@@....$.   .$######################$.    .$######################$.  ",
" .$....@%%%#%%%%%%#%%%@....$.  .$....@%%%#%%%%%%#%%%@....$.  .$....@@@@@@@@@@@@@@@@....$.  .$....@@@@@@@@@@@@@@@@....$.  .$....@%%%#%%%%%%#%%%@....$.  .$....@%%%#%%%%%%#%%%@....$.  .$....@@@@@@@@@@@@@@@@....$.  .$....@@@@@@@@@@@@@@@@....$. ",
" .$....@%%###&&&&###%%@....$.  .$....@%%###&&&&###%%@....$.  .$....@%%%#%%%%%%#%%%@....$.  .$....@%%%#%%%%%%#%%%@....$.  .$....@%%###&&&&###%%@....$.  .$....@%%###&&&&###%%@....$.  .$....@%%%#%%%%%%#%%%@....$.  .$....@%%%#%%%%%%#%%%@....$. ",
" .$....@%###+######+#%@....$.  .$....@%############%@....$.  .$....@%%###&&&&###%%@....$.  .$....@%%###&&&&###%%@....$.  .$....@%############%@....$.  .$....@%############%@....$.  .$....@%%###&&&&###%%@....$.  .$....@%%+##&&&&+##%%@....$. ",
" .$....@%%##########%%@....$.  .$....@%%##+######+%%@....$.  .$....@%############%@....$.  .$....@%############%@....$.  .$....@%%+######+##%%@....$.  .$....@%%+######+##%%@....$.  .$....@%#+######+###%@....$.  .$....@%############%@....$. ",
" .$....@@@@#@@@@@@#@@@@....$.  .$....@@@@#@@@@@@#@@@@....$.  .$....@%%##+######+%%@....$.  .$....@%%#+######+#%%@....$.  .$....@@@@#@@@@@@#@@@@....$.  .$....@@@@#@@@@@@#@@@@....$.  .$....@%%##########%%@....$.  .$....@%%##########%%@....$. ",
" .$..$$$$$.#...#...#$$$$$..$.  .$..$$$$$.*...#...#$$$$$..$.  .$....@@@@#@@@@@@#@@@@....$.  .$....@@@@#@@@@@@#@@@@....$.  .$..$$$$$.#...#...#$$$$$..$.  .$..$$$$$.*...#...#$$$$$..$.  .$....@@@@#@@@@@@#@@@@....$.  .$....@@@@#@@@@@@#@@@@....$. ",
" .$.$$###$$#.#.#.#.$$###$$.$.  .$.$$###$$*.*.#.#.$$###$$.$.  .$..$$$$$.*...*...#$$$$$..$.  .$..$$$$$.*...#...#$$$$$..$.  .$.$$###$$#.#.#.#.$$###$$.$.  .$.$$###$$*.*.#.#.$$###$$.$.  .$..$$$$$.*...*...#$$$$$..$.  .$..$$$$$.*...#...#$$$$$..$. ",
" .$$$#===#$$.#.#.#$$#===#$$$.  .$$$#===#$$.*.#.#$$#===#$$$.  .$.$====$$*.*.*.-.$=====$.$.  .$.$$###$$*.*.#.#.$$###$$.$.  .$$$#===#$$.#.#.#$$#===#$$$.  .$$$#===#$$.*.#.#$$#===#$$$.  .$.$====$$*.*.*.-.$=====$.$.  .$.$$###$$*.*.#.#.$$###$$.$. ",
" .$$#==#==#$......$#==#==#$$.  .$$#==#==#$......$#==#==#$$.  .$$==###==$.*.*.-$==###==$$.  .$$$#===#$$.*.#.#$$#===#$$$.  .$$#==#==#$......$#==#==#$$.  .$$#==#==#$......$#==#==#$$.  .$$==###==$.*.*.-$==###==$$.  .$$$#===#$$.*.#.#$$#===#$$$. ",
" .$$#=#+#=#$......$#=#+#=#$$.  .$$#=#+#=#$......$#=#+#=#$$.  .$$=##+##=$......$=##+##=$$.  .$$#==#==#$......$#==#==#$$.  .$$#=#+#=#$......$#=#+#=#$$.  .$$#=#+#=#$......$#=#+#=#$$.  .$$=##+##=$......$=##+##=$$.  .$$#==#==#$......$#==#==#$$. ",
" .$$#==#==#$.&.@.@$#==#==#$$.  .$$#==#==#$.@.&.@$#==#==#$$.  .$$=#+++#=$......$=#+++#=$$.  .$$#=#+#=#$......$#=#+#=#$$.  .$$#==#==#$.&.@.@$#==#==#$$.  .$$#==#==#$.@.&.@$#==#==#$$.  .$$=#+++#=$......$=#+++#=$$.  .$$#=#+#=#$......$#=#+#=#$$. ",
" .$$$#===#$$.&.@.@$$#===#$$$.  .$$$#===#$$.@.&.@$$#===#$$$.  .$$=##+##=$.@.@.&$=##+##=$$.  .$$#==#==#$.@.&.@$#==#==#$$.  .$$$#===#$$.&.@.@$$#===#$$$.  .$$$#===#$$.@.&.@$$#===#$$$.  .$$=##+##=$.@.@.&$=##+##=$$.  .$$#==#==#$.@.&.@$#==#==#$$. ",
" .$.$$###$$........$$###$$.$.  .$.$$###$$........$$###$$.$.  .$$==###==$.@.@.&$==###==$$.  .$$$#===#$$.@.&.@$$#===#$$$.  .$.$$###$$........$$###$$.$.  .$.$$###$$........$$###$$.$.  .$$==###==$.@.@.&$==###==$$.  .$$$#===#$$.@.&.@$$#===#$$$. ",
"  .$$$$$$$$$$$$$$$$$$$$$$$$.    .$$$$$$$$$$$$$$$$$$$$$$$$.   .$.$$===$$........$=====$.$.  .$.$$###$$........$$###$$.$.   .$$$$$$$$$$$$$$$$$$$$$$$$.    .$$$$$$$$$$$$$$$$$$$$$$$$.   .$.$$===$$........$=====$.$.  .$.$$###$$........$$###$$.$. ",
"   .$$$$$$$$$$$$$$$$$$$$$$.      .$$$$$$$$$$$$$$$$$$$$$$.     .$$$$$$$$$$$$$$$$$$$$$$$$.    .$$$$$$$$$$$$$$$$$$$$$$$$.     .$$$$$$$$$$$$$$$$$$$$$$.      .$$$$$$$$$$$$$$$$$$$$$$.     .$$$$$$$$$$$$$$$$$$$$$$$$.    .$$$$$$$$$$$$$$$$$$$$$$$$.  ",
"    .......##....##.......        .......##....##.......       .$$$$$$$$$$$$$$$$$$$$$$.      .$$$$$$$$$$$$$$$$$$$$$$.       .......##....##.......        .......##....##.......       .$$$$$$$$$$$$$$$$$$$$$$.      .$$$$$$$$$$$$$$$$$$$$$$.   ",
"          .##.  .##.                     .##..#.#.              .......###..###.......        .......##....##.......              .##.  .##.                   .#.#.   .##.             ......###....###......        .......##....##.......    ",
"         .&&&&. .##.                     .##..##.                      ..####..                      .##..##.                     .##. .&&&&.                  .##.    .##.                 .##..    ..##.                 .##.    .##.         ",
"         .$$$$. .##.                    .&&&&.##.                       .####.                       .##.&&&&.                    .##. .$$$$.                  .##.   .&&&&.                .##.      .##.                .&&&&.   .##.         ",
"          .... .&&&&.                   .$$$$&&&&.                     .&&&&&&.                     .&&&&$$$$.                   .&&&&. ....                  .&&&&.  .$$$$.               .&&&&.    .&&&&.               .$$$$.  .&&&&.        ",
"               .$$$$.                    ....$$$$.                     .$$$$$$.                     .$$$$....                    .$$$$.                       .$$$$.   ....                .$$$$.    .$$$$.                ....   .$$$$.        ",
"                ....                         ....                       ......                       ....                         ....                         ....                         ....      ....                         ....         "};
