/* XPM */
/*
  XPenguins theme "Vaporwave" -- sprites generated procedurally.
  Released into the public domain (CC0).
*/
static char * zapped_xpm[] = {
"240 60 17 1",
" 	c None",
".	c #241B2F",
"+	c #C7B3E8",
"@	c #6F5A94",
"#	c #45356B",
"$	c #01CDFE",
"%	c #FF71CE",
"&	c #5A2D76",
"*	c #B967FF",
"=	c #FFFB96",
"-	c #E8D9FF",
";	c #FFC25E",
">	c #FF9EDE",
",	c #2B1B3D",
"'	c #7BF1E8",
"~	c #9D86C4",
"!	c #05FFA1",
"                                                                                                                                                                                                                                                ",
"                                                                                                                                                                                                                                                ",
"       ................               ................                ................           ................        ................             ..............                                                              ..............",
"      .++++++++++++++++.            .++++++++++++++++.          .++++++++++++++++.         .++++++++++++++++.             .++++++++++++++++.                                                         .++++++++++++               .++++++++++++++",
"     .@################+.          .@################+.        .@################+.       .@################+.           $%$%$%$%$%$%$%$%$%$%                                                       .@############              .@##############",
"     .@#&&&&&&&&&&&&&&#+.          .@#&&&&&&&&&&&&&&#+.        .@#&&&&&&&&&&&&&&#+.       $%$%$%$%$%$%$%$%$%$%           .@#&&&&&&&&&&&&&&#+.                                                       .@#&&&&&&&&&&&              $%$%$%$%$%$%$%$%",
"     .@#*****=====*--*#+.         .@#*****=====*--*#+.        .@#*****=====*--*#+.             .@#*****=====*--*#+.                                                .@#*****=====*--*     $%$%$%$%$%$%$%$%$%$%     **=====*--*#+.                ",
"     .@#****=======*-*#+.         .@#****=======*-*#+.        .@#****=======*-*#+.             .@#****=======*-*#+.                                                %$%$%$%$%$%$%$%$%     .@#****=======*-*#+.     *=======*-*#+.                ",
"     .@#***;;;;;;;;;**#+.         .@#***;;;;;;;;;**#+.        .@#***;;;;;;;;;**#+.             .@#***;;;;;;;;;**#+.                                                .@#***;;;;;;;;;**     .@#***;;;;;;;;;**#+.     ;;;;;;;;;**#+.                ",
"     .@#***%%%%%%%%%**#+.          .@#***%%%%%%%%%**#+.            .@#***%%%%%%%%%**#+.                                        .@#***%%%%%%%%%**#+.   @#***%%%%%%%%%**#+.           %%%%%%%%%**#+.                $%$%$%$%$%$%$%$%$%$           ",
"     .@#>>>>>>>>>>>>>>#+.          .@#>>>>>>>>>>>>>>#+.            .@#>>>>>>>>>>>>>>#+.                                        .@#>>>>>>>>>>>>>>#+.   @#>>>>>>>>>>>>>>#+.           %$%$%$%$%$%$%$                @#>>>>>>>>>>>>>>#+.           ",
"     .@#,,,,$,,,,,$,,,#+.          .@#,,,,$,,,,,$,,,#+.            .@#,,,,$,,,,,$,,,#+.                                        .@#,,,,$,,,,,$,,,#+.   $%$%$%$%$%$%$%$%$%$           ,$,,,,,$,,,#+.                @#,,,,$,,,,,$,,,#+.           ",
"     .@#$$,,$$,,$$,,$$#+.@          .@#$$,,$$,,$$,,$$#+.@          .@#$$,,$$,,$$,,$$#+.@     .@#$$,,$$,,$$,,$$#+.@      %$%$%$%$%$%$%$%$%$%           @#$$,,$$,,$$,,$$#+.@                 .@#$$,,$$,,$$,,$$#+.@                    .@#$$,,$$,,$",
"     .@#''''''''''''''#+. @  .      .@#''''''''''''''#+. @         .@#''''''''''''''#+. @    %$%$%$%$%$%$%$%$%$%$ $  %  #''''''''''''''#+. @  .       @#''''''''''''''#+. @  .             .@#''''''''''''''#+. @                   $%$%$%$%$%$%",
"     .@################+.  @@.      .@################+.  @@       .@################+.  @   .@################+.  @@.  ################+.  @@.       @################+.  @@.             $%$%$%$%$%$%$%$%$%$%  $                  .@##########",
"     .@++++++++++++++++~.          .@++++++++++++++++~.       .@++++++++++++++++~.        .@++++++++++++++++~.               .@++++++++++++++++~.                  %$%$%$%$%$%$%$%$%                .@++++++++++++                              ",
"      .~!~~~~~~~@~@~@~~.            .~!~~~~~~~@~@~@~~.         .~!~~~~~~~@~@~@~~.          .~!~~~~~~~@~@~@~~.                 %$%$%$%$%$%$%$%$%$                    .~!~~~~~~~@~@~@~                 .~!~~~~~~~@~@                              ",
"       ................              ................           ................            $%$%$%$%$%$%$%$%                   ................                      ...............                  ............                              ",
"             ~@@~                         ~@@~                          ~@@~                              ~@@~                              ~@@~                       ~@@~                                       ~@@~                          ",
"             @@@@                         @@@@                          @@@@                              @@@@                              @@@@                       %$%$                                       @@@@                          ",
"         .++++++++++.                 .++++++++++.                  .++++++++++.                      .++++++++++.                      %$%$%$%$%$%$               .++++++++++.                                   +++++++.                      ",
"         ............                  ............                     ............                   %$%$%$%$%$%$             ............                                        ............                           %$%$%$%$%$%$         ",
"            ++  ++                        ++  ++                           ++  ++                         ++  ++                   ++  ++                                              $%  $%                                 ++  ++            ",
"            ++  ++                        ++  ++                           ++  ++                         ++  ++                   ++  ++                                              ++  ++                                 ++  ++            ",
"            ++  ++                         ++  ++                       ++  ++                    ++  ++                                                        ++  ++                                  ++  ++                             ++  +",
"            ++  ++                         ++  ++                       ++  ++                    $%  $%                                                        ++  ++                                  ++  ++                             %$  %",
"            ++  ++                         ++  ++                       ++  ++                    ++  ++                                                        ++  ++                                  %$  %$                             ++  +",
"           --------                     --------                    --------                                                          --------                            $%$%$%$%                    --------           --------               ",
"           ........                     ........                    ........                                                          %$%$%$%$                            ........                    ........           ........               ",
"                                                                                                                                                                                                                                                ",
"                                                                                                                                                                                                                                                ",
"                                                                                                                                                                                                                                                ",
"       ................             ................            ................                 ................                    ................                 ..............                              ..............                ",
"      .++++++++++++++++.            .++++++++++++++++.              .++++++++++++++++.               .++++++++++++++++.           .++++++++++++++++.                                ++++++++++++.                 ++++++++++++++.               ",
"     .+################@.          .+################@.            .+################@.             .+################@.         $%$%$%$%$%$%$%$%$%$%                               ############@.                ##############@.              ",
"     .+#&&&&&&&&&&&&&&#@.          .+#&&&&&&&&&&&&&&#@.            .+#&&&&&&&&&&&&&&#@.             $%$%$%$%$%$%$%$%$%$%         .+#&&&&&&&&&&&&&&#@.                               &&&&&&&&&&&#@.                $%$%$%$%$%$%$%$%              ",
"     .+#*--*=====*****#@.           .+#*--*=====*****#@.            .+#*--*=====*****#@.       .+#*--*=====*****#@.                                   *--*=====*****#@.                  $%$%$%$%$%$%$%$%$%$%                     .+#*--*=====**",
"     .+#*-*=======****#@.           .+#*-*=======****#@.            .+#*-*=======****#@.       .+#*-*=======****#@.                                   $%$%$%$%$%$%$%$%$                  .+#*-*=======****#@.                     .+#*-*=======*",
"     .+#**;;;;;;;;;***#@.           .+#**;;;;;;;;;***#@.            .+#**;;;;;;;;;***#@.       .+#**;;;;;;;;;***#@.                                   **;;;;;;;;;***#@.                  .+#**;;;;;;;;;***#@.                     .+#**;;;;;;;;;",
"     .+#**%%%%%%%%%***#@.          .+#**%%%%%%%%%***#@.        .+#**%%%%%%%%%***#@.                                        .+#**%%%%%%%%%***#@.                  .+#**%%%%%%%%%***#@                .+#**%%%%%%%%%           %$%$%$%$%$%$%$%$%$%",
"     .+#>>>>>>>>>>>>>>#@.          .+#>>>>>>>>>>>>>>#@.        .+#>>>>>>>>>>>>>>#@.                                        .+#>>>>>>>>>>>>>>#@.                  .+#>>>>>>>>>>>>>>#@                %$%$%$%$%$%$%$           .+#>>>>>>>>>>>>>>#@",
"     .+#,,,$,,,,,$,,,,#@.          .+#,,,$,,,,,$,,,,#@.        .+#,,,$,,,,,$,,,,#@.                                        .+#,,,$,,,,,$,,,,#@.                  %$%$%$%$%$%$%$%$%$%                .+#,,,$,,,,,$,           .+#,,,$,,,,,$,,,,#@",
"    @.+#$$,,$$,,$$,,$$#@.        @.+#$$,,$$,,$$,,$$#@.        @.+#$$,,$$,,$$,,$$#@.             @.+#$$,,$$,,$$,,$$#@.              $%$%$%$%$%$%$%$%$%$          @.+#$$,,$$,,$$,,$$#@  @.+#$$,,$$,,$$,,$$#@.       $,,$$,,$$#@.                  ",
".  @ .+#''''''''''''''#@.       @ .+#''''''''''''''#@.       @ .+#''''''''''''''#@.         $  % %$%$%$%$%$%$%$%$%$%$          .  @ .+#''''''''''''''#      .  @ .+#''''''''''''''#@ @ .+#''''''''''''''#@.       $%$%$%$%$%$%                  ",
".@@  .+################@.     @@  .+################@.      @  .+################@.         .@@  .+################@.          .@@  .+################      .@@  .+################@%  $%$%$%$%$%$%$%$%$%$%       ##########@.                  ",
"     .~++++++++++++++++@.          .~++++++++++++++++@.             .~++++++++++++++++@.            .~++++++++++++++++@.     .~++++++++++++++++@.     $%$%$%$%$%$%$%$%$             ++++++++++++@.                                              ",
"      .~~@~@~@~~~~~~~!~.            .~~@~@~@~~~~~~~!~.               .~~@~@~@~~~~~~~!~.              .~~@~@~@~~~~~~~!~.       %$%$%$%$%$%$%$%$%$      ~@~@~@~~~~~~~!~.              @~@~~~~~~~!~.                                               ",
"       ................              ................                 ................                $%$%$%$%$%$%$%$%         ................       ...............               ............                                                ",
"             ~@@~                           ~@@~                          ~@@~                      ~@@~                      ~@@~                             ~@@~                                                                         ~@@~",
"             @@@@                           @@@@                          @@@@                      @@@@                      @@@@                             %$%$                                                                         @@@@",
"         .++++++++++.                   .++++++++++.                  .++++++++++.              .++++++++++.              %$%$%$%$%$%$                     .++++++++++.                                                                 .+++++++",
"         ............                  ............               ............                 %$%$%$%$%$%$                       ............                                                        ............         %$%$%$%$%$%$         ",
"            ++  ++                        ++  ++                     ++  ++                       ++  ++                             ++  ++                                                              $%  $%               ++  ++            ",
"            ++  ++                        ++  ++                     ++  ++                       ++  ++                             ++  ++                                                              ++  ++               ++  ++            ",
"            ++  ++                       ++  ++                         ++  ++                            ++  ++                                                    ++  ++              ++  ++                    +  ++                         ",
"            ++  ++                       ++  ++                         ++  ++                            $%  $%                                                    ++  ++              ++  ++                    $  %$                         ",
"            ++  ++                       ++  ++                         ++  ++                            ++  ++                                                    ++  ++              %$  %$                    +  ++                         ",
"           --------                       --------                        --------                                              --------                $%$%$%$%                        --------                                 --------       ",
"           ........                       ........                        ........                                              %$%$%$%$                ........                        ........                                 ........       ",
"                                                                                                                                                                                                                                                "};
