/* XPM */
/*
  XPenguins theme "Vaporwave" -- sprites generated procedurally.
  Released into the public domain (CC0).
*/
static char * zapped_palm_xpm[] = {
"240 60 12 1",
" 	c None",
".	c #45356B",
"+	c #96FFD0",
"@	c #05FFA1",
"#	c #00A678",
"$	c #FF71CE",
"%	c #01CDFE",
"&	c #5C3780",
"*	c #FFFB96",
"=	c #925CC4",
"-	c #FFC25E",
";	c #241B2F",
"      .++@#+++#++#@++++.             .++@#+++#++#@++++.              .++@#+++#++#@++++.         .++@#+++#++#@++++.      $%$%$%$%$%$%$%$%$%            @#+++#++#@++++.                                                            .++@#+++#++#@++",
"      .@#@@#@+#@#@##@#@.             .@#@@#@+#@#@##@#@.              .@#@@#@+#@#@##@#@.         %$%$%$%$%$%$%$%$%$      .@#@@#@+#@#@##@#@.            @@#@+#@#@##@#@.                                                            $%$%$%$%$%$%$%$",
"      ..@##@#@#@###@#@..             ..@##@#@#@###@#@..              ..@##@#@#@###@#@..         ..@##@#@#@###@#@..      ..@##@#@#@###@#@..            ##@#@#@###@#@..                                                            ..@##@#@#@###@#",
"     .@##@@#@@.@@###@#@@.          .@##@@#@@.@@###@#@@.        .@##@@#@@.@@###@#@@.       .@##@@#@@.@@###@#@@.           .@##@@#@@.@@###@#@@.                                                       .@##@@#@@.@@##              .@##@@#@@.@@###@",
"      .#..#.#@@###..#.#.            .#..#.#@@###..#.#.          .#..#.#@@###..#.#.         .#..#.#@@###..#.#.             $%$%$%$%$%$%$%$%$%                                                         .#..#.#@@###.               .#..#.#@@###..#",
"     .#..#. .####. .#.#@.          .#..#. .####. .#.#@.        .#..#. .####. .#.#@.       %$%$%$ $%$%$% %$%$%$           .#..#. .####. .#.#@.                                                       .#..#. .####.               %$%$%$ $%$%$% %$",
"    .@. .@. .###.  .#@.#@.       .@. .@. .###.  .#@.#@.      .@. .@. .###.  .#@.#@.           .@. .@. .###.  .#@.#@.                                              .@. .@. .###.  .#@    $%$ $%$ $%$%$  %$%$%$%     .###.  .#@.#@.               ",
"    .#. .#..#####. .#..#.        .#. .#..#####. .#..#.       .#. .#..#####. .#..#.            .#. .#..#####. .#..#.                                               %$% %$%$%$%$%$ $%$    .#. .#..#####. .#..#.     .#####. .#..#.                ",
"    .@. .@..&###&.  .@..@.       .@. .@..&###&.  .@..@.      .@. .@..&###&.  .@..@.           .@. .@..&###&.  .@..@.                                              .@. .@..&###&.  .@    .@. .@..&###&.  .@..@.    .&###&.  .@..@.               ",
"   .@. .@. .&&#@&.  .@..@.       .@. .@. .&&#@&.  .@..@.         .@. .@. .&&#@&.  .@..@.                                     .@. .@. .&&#@&.  .@..@.   .@. .&&#@&.  .@..@.          .&&#@&.  .@..@.                $%$ $%$%$%$  %$%$%$          ",
"   .#. .#..*&==#&-. .#..#.       .#. .#..*&==#&-. .#..#.         .#. .#..*&==#&-. .#..#.                                     .#. .#..*&==#&-. .#..#.   .#..*&==#&-. .#..#.          $%$%$%$% %$%$%$                .#..*&==#&-. .#..#.          ",
"   .@. .@. .&==@-.  .@..@.       .@. .@. .&==@-.  .@..@.         .@. .@. .&==@-.  .@..@.                                     .@. .@. .&==@-.  .@..@.   $%$ $%$%$%$  %$%$%$          .&==@-.  .@..@.                .@. .&==@-.  .@..@.          ",
"    .   .  .&&=&&.   .  .          .   .  .&&=&&.   .  .          .   .  .&&=&&.   .  .     .   .  .&&=&&.   .  .        %  $%$%$%$   $  %              .  .&&=&&.   .  .                 .   .  .&&=&&.   .  .                    .   .  .&&=&&",
"           .&===&.                        .&===&.                        .&===&.                   $%$%$%$                  .&===&.                        .&===&.                               .&===&.                                  %$%$%$",
"           .&===&.                        .&===&.                        .&===&.                   .&===&.                  .&===&.                        .&===&.                               %$%$%$%                                  .&===&",
"           .&&=&&.                       .&&=&&.                    .&&=&&.                     .&&=&&.                            .&&=&&.                               $%$%$%$                          .&&=&&.                               ",
"           .&===&.                       .&===&.                    .&===&.                     .&===&.                            %$%$%$%                               .&===&.                          .&===&.                               ",
"           .&===&.                       .&===&.                    .&===&.                     %$%$%$%                            .&===&.                               .&===&.                          .&===&.                               ",
"           .&&=&&.                      .&&=&&.                       .&&=&&.                           .&&=&&.                           .&&=&&.                    .&&=&&.                                      &=&&.                         ",
"           .&===&.                      .&===&.                       .&===&.                           .&===&.                           .&===&.                    $%$%$%$                                      ===&.                         ",
"           .&===&.                      .&===&.                       .&===&.                           .&===&.                           $%$%$%$                    .&===&.                                      ===&.                         ",
"           .&&=&&.                       .&&=&&.                          .&&=&&.                        $%$%$%$                  .&&=&&.                                             .&&=&&.                                $%$%$%$            ",
"           .==..==.                      .==..==.                         .==..==.                       .==..==.                 .==..==.                                            $%$%$%$%                               .==..==.           ",
"           .==..==.                      .==..==.                         .==..==.                       .==..==.                 .==..==.                                            .==..==.                               .==..==.           ",
"           .==..==.                       .==..==.                     .==..==.                  .==..==.                                                      .==..==.                                .==..==.                           .==..=",
"           .==..==.                       .==..==.                     .==..==.                  $%$%$%$%                                                      .==..==.                                .==..==.                           %$%$%$",
"           .==..==.                       .==..==.                     .==..==.                  .==..==.                                                      .==..==.                                %$%$%$%$                           .==..=",
"          .&&&&&&&&.                   .&&&&&&&&.                  .&&&&&&&&.                                                        .&&&&&&&&.                          $%$%$%$%$%                  .&&&&&&&&.         .&&&&&&&&.              ",
"          .;;;;;;;;.                   .;;;;;;;;.                  .;;;;;;;;.                                                        %$%$%$%$%$                          .;;;;;;;;.                  .;;;;;;;;.         .;;;;;;;;.              ",
"           ........                     ........                    ........                                                          ........                            ........                    ........           $%$%$%$%               ",
"      .++++@#++#+++#@++.           .++++@#++#+++#@++.          .++++@#++#+++#@++.               .++++@#++#+++#@++.                  $%$%$%$%$%$%$%$%$%               .++++@#++#+++#@                              ++@#++#+++#@++.               ",
"      .@#@##@#@#+@#@@#@.           .@#@##@#@#+@#@@#@.          .@#@##@#@#+@#@@#@.               %$%$%$%$%$%$%$%$%$                  .@#@##@#@#+@#@@#@.               .@#@##@#@#+@#@@                              %$%$%$%$%$%$%$%               ",
"      ..@#@###@#@#@##@..           ..@#@###@#@#@##@..          ..@#@###@#@#@##@..               ..@#@###@#@#@##@..                  ..@#@###@#@#@##@..               ..@#@###@#@#@##                              #@###@#@#@##@..               ",
"     .@@#@###@@.@@#@@##@.          .@@#@###@@.@@#@@##@.            .@@#@###@@.@@#@@##@.             .@@#@###@@.@@#@@##@.         .@@#@###@@.@@#@@##@.                               ##@@.@@#@@##@.                @###@@.@@#@@##@.              ",
"      .#.#..###@@#.#..#.            .#.#..###@@#.#..#.              .#.#..###@@#.#..#.               .#.#..###@@#.#..#.           $%$%$%$%$%$%$%$%$%                                .###@@#.#..#.                 #..###@@#.#..#.               ",
"     .@#.#. .####. .#..#.          .@#.#. .####. .#..#.            .@#.#. .####. .#..#.             %$%$%$ $%$%$% %$%$%$         .@#.#. .####. .#..#.                                .####. .#..#.                %$ $%$%$% %$%$%$              ",
"    .@#.@#.  .###. .@. .@.         .@#.@#.  .###. .@. .@.          .@#.@#.  .###. .@. .@.     .@#.@#.  .###. .@. .@.                                  @#.  .###. .@. .@.                $%$%$%$  %$%$% %$% %$%                   .@#.@#.  .###. ",
"     .#..#. .#####..#. .#.          .#..#. .#####..#. .#.           .#..#. .#####..#. .#.      .#..#. .#####..#. .#.                                  %$% %$%$%$%$%$ $%$                 .#..#. .#####..#. .#.                    .#..#. .#####.",
"    .@..@.  .&###&..@. .@.         .@..@.  .&###&..@. .@.          .@..@.  .&###&..@. .@.     .@..@.  .&###&..@. .@.                                  @.  .&###&..@. .@.                .@..@.  .&###&..@. .@.                   .@..@.  .&###&.",
"    .@..@.  .&@#&&. .@. .@.       .@..@.  .&@#&&. .@. .@.     .@..@.  .&@#&&. .@. .@.                                     .@..@.  .&@#&&. .@. .@.               .@..@.  .&@#&&. .@.                .@..@.  .&@#&&.          %$%$%$  %$%$%$% %$% ",
"    .#..#. .-&#==&*..#. .#.       .#..#. .-&#==&*..#. .#.     .#..#. .-&#==&*..#. .#.                                     .#..#. .-&#==&*..#. .#.               .#..#. .-&#==&*..#.                %$%$%$ $%$%$%$%          .#..#. .-&#==&*..#. ",
"    .@..@.  .-@==&. .@. .@.       .@..@.  .-@==&. .@. .@.     .@..@.  .-@==&. .@. .@.                                     .@..@.  .-@==&. .@. .@.               %$%$%$  %$%$%$% %$%                .@..@.  .-@==&.          .@..@.  .-@==&. .@. ",
"     .  .   .&&=&&.  .   .        .  .   .&&=&&.  .   .        .  .   .&&=&&.  .   .             .  .   .&&=&&.  .   .              $  %   %$%$%$%  $            .  .   .&&=&&.  .     .  .   .&&=&&.  .   .      &&=&&.  .   .                 ",
"            .&===&.                      .&===&.                      .&===&.                           %$%$%$%                            .&===&.                      .&===&.               .&===&.             %$%$%$                        ",
"            .&===&.                      .&===&.                      .&===&.                           .&===&.                            .&===&.                      .&===&.               $%$%$%$             &===&.                        ",
"            .&&=&&.                       .&&=&&.                          .&&=&&.                         .&&=&&.                  .&&=&&.               %$%$%$%                    .&&=&&.                                                    ",
"            .&===&.                       .&===&.                          .&===&.                         .&===&.                  $%$%$%$               .&===&.                    .&===&.                                                    ",
"            .&===&.                       .&===&.                          .&===&.                         $%$%$%$                  .&===&.               .&===&.                    .&===&.                                                    ",
"            .&&=&&.                        .&&=&&.                       .&&=&&.                   .&&=&&.                   .&&=&&.                          .&&=&&.                                                                      .&&=&",
"            .&===&.                        .&===&.                       .&===&.                   .&===&.                   .&===&.                          %$%$%$%                                                                      .&===",
"            .&===&.                        .&===&.                       .&===&.                   .&===&.                   %$%$%$%                          .&===&.                                                                      .&===",
"            .&&=&&.                       .&&=&&.                    .&&=&&.                      %$%$%$%                            .&&=&&.                                                             .&&=&&.              %$%$%$%           ",
"           .==..==.                      .==..==.                   .==..==.                     .==..==.                           .==..==.                                                            $%$%$%$%             .==..==.           ",
"           .==..==.                      .==..==.                   .==..==.                     .==..==.                           .==..==.                                                            .==..==.             .==..==.           ",
"           .==..==.                     .==..==.                       .==..==.                          .==..==.                                                  .==..==.            .==..==.                   =..==.                        ",
"           .==..==.                     .==..==.                       .==..==.                          $%$%$%$%                                                  .==..==.            .==..==.                   %$%$%$                        ",
"           .==..==.                     .==..==.                       .==..==.                          .==..==.                                                  .==..==.            %$%$%$%$                   =..==.                        ",
"          .&&&&&&&&.                     .&&&&&&&&.                      .&&&&&&&&.                                            .&&&&&&&&.              $%$%$%$%$%                      .&&&&&&&&.                               .&&&&&&&&.      ",
"          .;;;;;;;;.                     .;;;;;;;;.                      .;;;;;;;;.                                            %$%$%$%$%$              .;;;;;;;;.                      .;;;;;;;;.                               .;;;;;;;;.      ",
"           ........                       ........                        ........                                              ........                ........                        ........                                 $%$%$%$%       "};
